public/luts/Batman.cube
TITLE "Generated by Resolve"
LUT_3D_SIZE 5
0.0216831 0.0268101 0.0301976
0.157656 0.064271 0.0509651
0.862943 0.227268 0.0490272
0.941878 0.241474 0.049134
0.941878 0.241474 0.049134
0.0471199 0.0759136 0.0833295
0.0656748 0.0717174 0.0691844
0.736858 0.206821 0.0527352
0.942306 0.250843 0.0512856
0.942214 0.249332 0.0509499
0.274266 0.441917 0.402518
0.267384 0.431449 0.396155
0.48336 0.4262 0.27512
0.947616 0.474159 0.181872
0.949706 0.457206 0.173159
0.451255 0.770321 0.588663
0.447669 0.762249 0.584207
0.531991 0.722087 0.565118
0.778515 0.780835 0.444724
0.934951 0.771725 0.3944
0.455146 0.779141 0.593484
0.455146 0.779141 0.593484
0.529305 0.786099 0.605676
0.74345 0.867521 0.622065
0.919844 0.918898 0.551492
0.0303655 0.0364996 0.0463264
0.124163 0.0579232 0.136202
0.837644 0.218936 0.0975967
0.940612 0.240665 0.0676432
0.940734 0.240696 0.0655528
0.0476997 0.0722362 0.0877699
0.0587778 0.0701762 0.07953
0.730861 0.203769 0.0608835
0.942061 0.249638 0.0539559
0.941985 0.247913 0.0531014
0.272328 0.438972 0.400656
0.264836 0.427482 0.393622
0.479133 0.420279 0.272465
0.946761 0.470146 0.179004
0.949599 0.453147 0.170687
0.450217 0.76788 0.587304
0.446555 0.75967 0.582773
0.527276 0.717357 0.561669
0.774212 0.775845 0.442344
0.935866 0.766842 0.390326
0.455146 0.779141 0.593484
0.455146 0.779141 0.593484
0.526452 0.785657 0.605112
0.740459 0.865721 0.623682
0.919844 0.918898 0.551492
0.0686961 0.0974136 0.139651
0.0949111 0.120439 0.178027
0.698314 0.217441 0.611185
0.895476 0.263523 0.593469
0.895598 0.263355 0.58851
0.0907454 0.120684 0.167407
0.0941329 0.118486 0.164752
0.610346 0.197253 0.540536
0.897475 0.263661 0.535363
0.897948 0.262303 0.526879
0.261707 0.429007 0.487999
0.254582 0.415824 0.475685
0.395254 0.405875 0.421149
0.930129 0.457084 0.350545
0.941344 0.436728 0.32343
0.41149 0.772732 0.652033
0.405859 0.758511 0.639109
0.50779 0.701076 0.596567
0.754711 0.742687 0.495125
0.941848 0.738125 0.418982
0.431128 0.794141 0.643824
0.433371 0.792645 0.637736
0.506615 0.791455 0.629328
0.732815 0.857359 0.656901
0.920073 0.919142 0.565011
0.0704356 0.102403 0.146487
0.0956588 0.125216 0.184054
0.641382 0.216403 0.730999
0.871015 0.277043 0.775906
0.871015 0.277043 0.775906
0.0982986 0.137194 0.191241
0.103365 0.136797 0.193668
0.541817 0.203235 0.68632
0.870985 0.277394 0.775876
0.871015 0.277119 0.775906
0.336873 0.43154 0.519966
0.329412 0.418585 0.50605
0.407675 0.417929 0.477852
0.871473 0.457313 0.791226
0.904311 0.438514 0.780697
0.439063 0.768277 0.801175
0.430411 0.752895 0.786664
0.487129 0.697383 0.734142
0.725093 0.723308 0.740261
0.943389 0.712535 0.692103
0.436622 0.812802 0.80238
0.433112 0.812604 0.794354
0.466194 0.817838 0.770428
0.738003 0.862013 0.793683
0.923171 0.921569 0.752438
0.0704356 0.102403 0.146487
0.0934768 0.124147 0.181079
0.635355 0.214908 0.728939
0.871015 0.277043 0.775906
0.871015 0.277043 0.775906
0.0968643 0.135729 0.189151
0.101869 0.135683 0.191745
0.538003 0.201801 0.684306
0.871122 0.277501 0.775876
0.871015 0.277043 0.775906
0.334417 0.427054 0.515236
0.325505 0.412451 0.49926
0.401343 0.409873 0.472114
0.860594 0.449332 0.813046
0.895994 0.436362 0.814084
0.455283 0.759991 0.812146
0.449439 0.743465 0.800717
0.507179 0.68629 0.754849
0.719371 0.720806 0.759945
0.920821 0.709133 0.88455
0.479164 0.81413 0.847227
0.479164 0.81413 0.847227
0.515999 0.820356 0.852232
0.738796 0.87071 0.895644
0.924407 0.921736 0.935225
