public/luts/Batman.cube
TITLE "Generated by Resolve"
LUT_3D_SIZE 17
0.0216831 0.0268101 0.0301976
0.0216831 0.0268101 0.0301976
0.0227665 0.0275425 0.0308995
0.0456397 0.0351263 0.0378119
0.157656 0.064271 0.0509651
0.371832 0.0990311 0.0489815
0.55108 0.137331 0.0448768
0.714626 0.182086 0.0472877
0.862943 0.227268 0.0490272
0.927123 0.241215 0.0495308
0.941878 0.241474 0.049134
0.941878 0.241474 0.049134
0.941878 0.241474 0.049134
0.941878 0.241474 0.049134
0.941878 0.241474 0.049134
0.941878 0.241474 0.049134
0.941878 0.241474 0.049134
0.0216831 0.0268101 0.0301976
0.0216831 0.0268101 0.0301976
0.0221561 0.0270848 0.0304265
0.0368048 0.0321202 0.0360266
0.125154 0.057435 0.0485389
0.338506 0.0947127 0.05066
0.530755 0.132097 0.0447547
0.70013 0.177829 0.0469215
0.854795 0.224659 0.0488899
0.926253 0.241169 0.049485
0.941878 0.241474 0.049134
0.941878 0.241474 0.049134
0.941878 0.241474 0.049134
0.941878 0.241474 0.049134
0.941878 0.241474 0.049134
0.941878 0.241474 0.049134
0.941878 0.241474 0.049134
0.0218509 0.027039 0.030457
0.0218051 0.0269932 0.0304112
0.0218357 0.0269169 0.0302892
0.0299535 0.0298009 0.0340429
0.0966354 0.0505074 0.0453803
0.301259 0.0895857 0.0521248
0.50602 0.125872 0.0446021
0.679805 0.172091 0.0466773
0.840787 0.220218 0.0487526
0.923247 0.241032 0.0495918
0.941619 0.241413 0.049134
0.941878 0.241474 0.049134
0.941878 0.241474 0.049134
0.941878 0.241474 0.049134
0.941878 0.241474 0.049134
0.941878 0.241474 0.049134
0.941878 0.241474 0.049134
0.0274968 0.038056 0.041413
0.0274968 0.038056 0.0414435
0.0269169 0.0370184 0.0403754
0.0273594 0.034699 0.0382696
0.0672618 0.0450904 0.0431983
0.23856 0.0805219 0.053666
0.459571 0.115053 0.0455024
0.634272 0.159426 0.0462959
0.79942 0.207492 0.0485084
0.912612 0.240635 0.0496529
0.94023 0.241382 0.0491951
0.941878 0.241474 0.049134
0.941878 0.241474 0.049134
0.941878 0.241474 0.049134
0.941878 0.241474 0.049134
0.941878 0.241474 0.049134
0.941878 0.241474 0.049134
0.0471199 0.0759136 0.0833295
0.0480812 0.0779278 0.0855879
0.0478065 0.0773175 0.0849012
0.0451667 0.0716564 0.0784772
0.0656748 0.0717174 0.0691844
0.177981 0.0932631 0.063035
0.386786 0.123186 0.0513008
0.569238 0.162371 0.0503548
0.736858 0.206821 0.0527352
0.885588 0.250584 0.0542153
0.935683 0.255116 0.0531167
0.942397 0.252735 0.0518349
0.942306 0.250843 0.0512856
0.94229 0.250111 0.0511177
0.942214 0.24947 0.0509651
0.942214 0.248966 0.0508278
0.942214 0.249332 0.0509499
0.0831769 0.152987 0.164492
0.0852369 0.157015 0.168261
0.0861524 0.15874 0.169863
0.082414 0.151385 0.162829
0.0889448 0.142107 0.144869
0.162463 0.141009 0.111009
0.304356 0.163226 0.0812238
0.491386 0.19379 0.0724498
0.662013 0.23212 0.0730755
0.822553 0.275395 0.0756695
0.922148 0.29926 0.0762341
0.943404 0.296345 0.073991
0.943816 0.292576 0.0719158
0.943755 0.290745 0.0708171
0.943694 0.289158 0.0699474
0.943633 0.287648 0.0690471
0.943633 0.288212 0.0693217
0.139315 0.244816 0.252125
0.143359 0.250187 0.257328
0.145739 0.253269 0.260365
0.14081 0.24686 0.254093
0.136568 0.235386 0.241886
0.176562 0.227451 0.208576
0.287221 0.230457 0.165286
0.415 0.256718 0.120836
0.585336 0.282612 0.107805
0.749355 0.3149 0.106157
0.89221 0.349111 0.10753
0.940444 0.351003 0.105699
0.945647 0.34583 0.103136
0.945556 0.341955 0.100664
0.945449 0.339162 0.0988785
0.945418 0.336553 0.0972152
0.945403 0.337179 0.0976577
0.20621 0.343923 0.3355
0.210559 0.349859 0.339956
0.213169 0.353399 0.342611
0.208865 0.34757 0.338231
0.199817 0.335164 0.328649
0.221988 0.322652 0.304433
0.29192 0.319646 0.265934
0.396612 0.329763 0.224613
0.514824 0.353887 0.169512
0.678584 0.374243 0.147555
0.833082 0.399023 0.144167
0.930632 0.413016 0.14197
0.947936 0.406912 0.141497
0.947829 0.400595 0.137392
0.947646 0.396689 0.134936
0.947463 0.393072 0.132647
0.947524 0.393637 0.132982
0.274266 0.441917 0.402518
0.278264 0.447761 0.406104
0.280339 0.450797 0.408026
0.276219 0.444846 0.404288
0.267384 0.431449 0.396155
0.274418 0.415946 0.380118
0.319982 0.406088 0.352529
0.392279 0.412314 0.316106
0.48336 0.4262 0.27512
0.606806 0.445808 0.218006
0.771359 0.461418 0.188952
0.90605 0.478309 0.182315
0.947616 0.474159 0.181872
0.949935 0.466331 0.178759
0.949844 0.461021 0.175525
0.949706 0.456794 0.172885
0.949706 0.457206 0.173159
0.33492 0.537835 0.458259
0.337652 0.542596 0.460914
0.338842 0.54461 0.462074
0.335012 0.537957 0.458351
0.32694 0.523156 0.449958
0.324666 0.505791 0.438682
0.356664 0.491081 0.419577
0.411368 0.488823 0.404562
0.469596 0.503258 0.363836
0.556054 0.519158 0.318929
0.691585 0.534081 0.263676
0.85185 0.544976 0.232685
0.94197 0.547387 0.224704
0.951705 0.538506 0.22446
0.951553 0.531823 0.220081
0.951431 0.526848 0.216739
0.951415 0.527184 0.216999
0.383673 0.628611 0.507851
0.385321 0.631998 0.509697
0.385641 0.632609 0.510033
0.382498 0.62594 0.506355
0.374884 0.610941 0.498207
0.367407 0.592874 0.48835
0.393668 0.575662 0.476112
0.428565 0.568704 0.461204
0.488975 0.573816 0.456153
0.538491 0.592447 0.4121
0.62707 0.609552 0.361364
0.770443 0.621515 0.308064
0.914427 0.626123 0.278782
0.951675 0.616938 0.277989
0.952041 0.60827 0.272038
0.952148 0.602518 0.267826
0.952148 0.602747 0.268055
0.423911 0.712001 0.554772
0.425116 0.714611 0.556283
0.425147 0.714473 0.556207
0.422187 0.7084 0.552666
0.415045 0.694148 0.544411
0.407019 0.676387 0.534295
0.423545 0.65922 0.525216
0.461509 0.647776 0.516823
0.509834 0.648157 0.515511
0.557366 0.659876 0.505287
0.607584 0.680781 0.460182
0.701885 0.6981 0.402701
0.842222 0.707637 0.353964
0.940734 0.70454 0.33817
0.946624 0.693248 0.333165
0.947311 0.686732 0.328267
0.947295 0.686976 0.328511
0.451255 0.770321 0.588663
0.45153 0.770932 0.588998
0.45156 0.770932 0.588937
0.450614 0.768719 0.587762
0.447669 0.762249 0.584207
0.442084 0.74992 0.577066
0.449271 0.736217 0.570108
0.489708 0.725109 0.566781
0.531991 0.722087 0.565118
0.582834 0.727886 0.568338
0.625971 0.743679 0.553979
0.679347 0.765469 0.502297
0.778515 0.780835 0.444724
0.898207 0.786542 0.408423
0.933669 0.778042 0.400076
0.934966 0.771481 0.394232
0.934951 0.771725 0.3944
0.455146 0.779141 0.593484
0.455146 0.779141 0.593484
0.455146 0.779141 0.593484
0.455146 0.779141 0.593484
0.455146 0.779141 0.593484
0.455146 0.779141 0.593484
0.461021 0.77879 0.593957
0.501167 0.777615 0.598016
0.548486 0.780041 0.603677
0.604166 0.789197 0.614404
0.655894 0.802228 0.618128
0.698116 0.820615 0.595621
0.757626 0.840085 0.543877
0.851179 0.852369 0.494682
0.920211 0.852399 0.471412
0.920913 0.846052 0.464546
0.920897 0.846174 0.464683
0.455146 0.779141 0.593484
0.455146 0.779141 0.593484
0.455146 0.779141 0.593484
0.455146 0.779141 0.593484
0.455146 0.779141 0.593484
0.455146 0.779141 0.593484
0.456641 0.779263 0.593713
0.489632 0.782071 0.599023
0.537804 0.787747 0.607217
0.595315 0.801892 0.621927
0.65626 0.821591 0.637751
0.705959 0.845518 0.638209
0.757549 0.873976 0.614298
0.826444 0.896025 0.576898
0.90663 0.907958 0.54377
0.9196 0.905821 0.53431
0.919585 0.905943 0.534463
0.455146 0.779141 0.593484
0.455146 0.779141 0.593484
0.455146 0.779141 0.593484
0.455146 0.779141 0.593484
0.455146 0.779141 0.593484
0.455146 0.779141 0.593484
0.455146 0.779141 0.593484
0.481636 0.781338 0.597681
0.528572 0.785962 0.605554
0.582254 0.798413 0.618296
0.644388 0.816938 0.63563
0.694774 0.839139 0.640818
0.742885 0.86714 0.622385
0.807172 0.893309 0.589746
0.888151 0.913466 0.560052
0.919844 0.918898 0.551492
0.919844 0.918898 0.551492
0.455146 0.779141 0.593484
0.455146 0.779141 0.593484
0.455146 0.779141 0.593484
0.455146 0.779141 0.593484
0.455146 0.779141 0.593484
0.455146 0.779141 0.593484
0.45539 0.779141 0.5935
0.482246 0.781476 0.597833
0.529305 0.786099 0.605676
0.583047 0.798596 0.61854
0.645029 0.817258 0.635782
0.695369 0.83946 0.640833
0.74345 0.867521 0.622065
0.80795 0.893599 0.589456
0.888563 0.913603 0.55996
0.919844 0.918898 0.551492
0.919844 0.918898 0.551492
0.0216831 0.0268101 0.0301976
0.0216831 0.0268101 0.0301976
0.0227054 0.027451 0.0307927
0.04477 0.0348211 0.0376287
0.154726 0.0636149 0.050721
0.36846 0.0986496 0.0492103
0.548989 0.136782 0.044892
0.712871 0.181537 0.0472572
0.86186 0.226978 0.049012
0.927047 0.241215 0.0495308
0.941878 0.241474 0.049134
0.941878 0.241474 0.049134
0.941878 0.241474 0.049134
0.941878 0.241474 0.049134
0.941878 0.241474 0.049134
0.941878 0.241474 0.049134
0.941878 0.241474 0.049134
0.0216831 0.0268101 0.0301976
0.0216831 0.0268101 0.0301976
0.0221103 0.027039 0.030396
0.0362402 0.0319371 0.0358892
0.123323 0.0569924 0.0483406
0.337102 0.0945296 0.0506905
0.530358 0.131975 0.0447547
0.700404 0.17789 0.0469215
0.855482 0.224872 0.0489204
0.926452 0.241169 0.049485
0.941878 0.241474 0.049134
0.941878 0.241474 0.049134
0.941878 0.241474 0.049134
0.941878 0.241474 0.049134
0.941878 0.241474 0.049134
0.941878 0.241474 0.049134
0.941878 0.241474 0.049134
0.0218509 0.027039 0.030457
0.0217899 0.0269474 0.0303502
0.0218357 0.0269169 0.0302892
0.0298772 0.0297856 0.0340276
0.0965133 0.0504921 0.0453651
0.301259 0.0896315 0.0521248
0.507088 0.126101 0.0445716
0.681163 0.172473 0.0467079
0.842283 0.220661 0.0487373
0.92372 0.241093 0.0495766
0.941695 0.241413 0.049134
0.941878 0.241474 0.049134
0.941878 0.241474 0.049134
0.941878 0.241474 0.049134
0.941878 0.241474 0.049134
0.941878 0.241474 0.049134
0.941878 0.241474 0.049134
0.0274968 0.038056 0.0414435
0.0275273 0.038056 0.0414588
0.0269627 0.0370642 0.0404212
0.0276036 0.0349889 0.0385443
0.0681163 0.0455634 0.043473
0.24065 0.0810712 0.0537118
0.461387 0.115572 0.0454719
0.636652 0.160098 0.0463569
0.801907 0.20824 0.0485084
0.913283 0.240696 0.0496376
0.940429 0.241443 0.0491951
0.941878 0.241474 0.049134
0.941878 0.241474 0.049134
0.941878 0.241474 0.049134
0.941878 0.241474 0.049134
0.941878 0.241474 0.049134
0.941878 0.241474 0.049134
0.0475319 0.0767071 0.0841688
0.0484779 0.0787213 0.0864881
0.0482185 0.0782025 0.0858778
0.0457923 0.0728008 0.0796674
0.067155 0.0730144 0.0701762
0.180819 0.0945296 0.0634165
0.389487 0.124346 0.0513466
0.571893 0.163943 0.050721
0.739727 0.208576 0.053193
0.88751 0.252033 0.0547646
0.93608 0.255879 0.0534218
0.942397 0.253437 0.0521401
0.942321 0.251484 0.0514534
0.942306 0.25069 0.0512703
0.94229 0.25005 0.0511177
0.942214 0.249393 0.0509499
0.94229 0.249836 0.0510872
0.0839551 0.154482 0.165881
0.0862287 0.158862 0.169986
0.0869764 0.160327 0.171389
0.0832532 0.153094 0.164599
0.0902113 0.144381 0.146609
0.165179 0.143038 0.112428
0.307652 0.165377 0.0819715
0.494316 0.196002 0.0731823
0.664973 0.234165 0.0738231
0.825315 0.277348 0.0763561
0.923079 0.300465 0.0768749
0.943481 0.297353 0.0745556
0.943816 0.293584 0.0724193
0.943755 0.291707 0.0713817
0.943694 0.289952 0.0703899
0.943694 0.288441 0.0694743
0.943694 0.288914 0.0697337
0.140917 0.246967 0.2542
0.144854 0.252201 0.259297
0.147219 0.255314 0.262303
0.142489 0.249119 0.256275
0.138231 0.237583 0.243854
0.179385 0.229694 0.210132
0.290211 0.232822 0.166781
0.417533 0.259205 0.122072
0.588312 0.284794 0.108492
0.752529 0.31693 0.106844
0.894163 0.350759 0.108263
0.940688 0.35198 0.10631
0.945708 0.346899 0.103792
0.945541 0.342947 0.101305
0.94551 0.340063 0.0994888
0.945403 0.337362 0.097734
0.945403 0.337804 0.0980392
0.207813 0.34609 0.337118
0.212146 0.351919 0.341466
0.214801 0.355581 0.344305
0.210407 0.34963 0.339788
0.20145 0.337423 0.330434
0.224353 0.324956 0.305852
0.294057 0.321859 0.267308
0.399313 0.33196 0.22565
0.516701 0.355856 0.170642
0.680476 0.375982 0.148226
0.835035 0.400687 0.144869
0.931167 0.414069 0.142733
0.947997 0.407797 0.142123
0.947829 0.401465 0.138003
0.947646 0.397543 0.135439
0.947524 0.393927 0.13315
0.947524 0.3944 0.133455
0.275746 0.444144 0.403891
0.27953 0.449744 0.40737
0.281788 0.452903 0.409323
0.277577 0.44683 0.405539
0.26865 0.433341 0.397253
0.276173 0.4177 0.381109
0.321599 0.407828 0.353719
0.393881 0.414008 0.317235
0.484474 0.427848 0.275807
0.608408 0.447379 0.218769
0.7729 0.462852 0.189609
0.907195 0.479469 0.182879
0.947799 0.47509 0.182574
0.949996 0.467262 0.179294
0.949828 0.461967 0.176043
0.949767 0.45771 0.173465
0.949767 0.458122 0.173739
0.335973 0.539727 0.459327
0.338598 0.544381 0.461967
0.339681 0.546044 0.462882
0.335851 0.539498 0.459205
0.327672 0.52459 0.450782
0.32575 0.50721 0.439475
0.357809 0.492546 0.420371
0.412497 0.490333 0.405264
0.470741 0.504707 0.364965
0.556863 0.520562 0.319463
0.692851 0.53547 0.264225
0.853132 0.546304 0.233295
0.942153 0.548257 0.225208
0.95169 0.539483 0.225071
0.951522 0.532906 0.220722
0.951415 0.527718 0.217319
0.951476 0.528145 0.217609
0.384298 0.63006 0.508629
0.385946 0.633341 0.510445
0.386236 0.633829 0.51075
0.383078 0.627283 0.507103
0.375555 0.612161 0.498894
0.368063 0.594079 0.488991
0.394675 0.576989 0.476905
0.429816 0.570016 0.462104
0.490196 0.575006 0.457176
0.53933 0.593927 0.412772
0.628199 0.61088 0.361975
0.771496 0.622797 0.308751
0.914992 0.627192 0.279545
0.951583 0.617853 0.278584
0.952026 0.609186 0.272725
0.952132 0.603433 0.268589
0.952178 0.603769 0.268772
0.424475 0.713115 0.555383
0.425574 0.715358 0.556741
0.425589 0.715465 0.556786
0.422614 0.709514 0.553277
0.415595 0.695262 0.545022
0.407507 0.677501 0.534951
0.424353 0.660319 0.525826
0.462562 0.64889 0.517571
0.511025 0.649302 0.516258
0.558373 0.661189 0.505959
0.608499 0.681987 0.460822
0.703105 0.699413 0.403326
0.843061 0.708675 0.354498
0.940688 0.705623 0.339162
0.946502 0.694453 0.33402
0.947188 0.687694 0.329061
0.947188 0.687816 0.329183
0.451408 0.770565 0.588754
0.451789 0.771298 0.589197
0.451789 0.771298 0.589197
0.450767 0.769085 0.587945
0.448051 0.76286 0.584527
0.442527 0.750912 0.577691
0.449973 0.737087 0.570657
0.490639 0.726116 0.567452
0.533043 0.72311 0.565881
0.583627 0.728939 0.568933
0.626795 0.744701 0.55465
0.680507 0.766384 0.502647
0.77969 0.781643 0.445243
0.89836 0.787411 0.40943
0.933471 0.778897 0.4009
0.934859 0.772335 0.39498
0.934859 0.772457 0.39501
0.455146 0.779141 0.593484
0.455146 0.779141 0.593484
0.455146 0.779141 0.593484
0.455146 0.779141 0.593484
0.455146 0.779141 0.593484
0.455146 0.779141 0.593484
0.46128 0.779034 0.594125
0.501518 0.777996 0.598306
0.549203 0.780697 0.60415
0.605249 0.790112 0.615137
0.656825 0.803037 0.618692
0.699107 0.821591 0.596124
0.758633 0.840879 0.544396
0.851804 0.85301 0.495338
0.920027 0.85301 0.472206
0.920821 0.846784 0.465278
0.920821 0.846906 0.465415
0.455146 0.779141 0.593484
0.455146 0.779141 0.593484
0.455146 0.779141 0.593484
0.455146 0.779141 0.593484
0.455146 0.779141 0.593484
0.455146 0.779141 0.593484
0.456779 0.779263 0.593729
0.489998 0.782086 0.599054
0.538018 0.787747 0.607233
0.595758 0.802045 0.62208
0.656672 0.821759 0.637781
0.706249 0.845701 0.638148
0.758068 0.874189 0.613931
0.827314 0.896819 0.577173
0.906737 0.908202 0.54403
0.919539 0.90631 0.53489
0.919554 0.906188 0.534829
0.455146 0.779141 0.593484
0.455146 0.779141 0.593484
0.455146 0.779141 0.593484
0.455146 0.779141 0.593484
0.455146 0.779141 0.593484
0.455146 0.779141 0.593484
0.455146 0.779141 0.593484
0.48188 0.781353 0.597696
0.528817 0.785962 0.60557
0.582467 0.798428 0.618372
0.644602 0.817075 0.635676
0.695079 0.839307 0.640818
0.743252 0.867353 0.62211
0.807431 0.893446 0.589639
0.888289 0.913588 0.560082
0.919844 0.918898 0.551492
0.919844 0.918898 0.551492
0.455146 0.779141 0.593484
0.455146 0.779141 0.593484
0.455146 0.779141 0.593484
0.455146 0.779141 0.593484
0.455146 0.779141 0.593484
0.455146 0.779141 0.593484
0.455268 0.779141 0.593484
0.48249 0.781476 0.597864
0.529519 0.786114 0.605692
0.583291 0.798718 0.618616
0.645319 0.817288 0.635767
0.695552 0.839506 0.640803
0.743618 0.867567 0.621927
0.808209 0.893614 0.589273
0.888975 0.913619 0.559884
0.919844 0.918898 0.551492
0.919844 0.918898 0.551492
0.022034 0.0270848 0.0307164
0.0219883 0.0270237 0.0305791
0.0227359 0.0275425 0.0310521
0.0436255 0.0344244 0.0382849
0.149691 0.0625772 0.0505837
0.363119 0.0979782 0.0495308
0.544656 0.135653 0.044892
0.709072 0.180453 0.0471351
0.859007 0.226001 0.0489509
0.92639 0.241169 0.049485
0.941878 0.241474 0.049134
0.941878 0.241474 0.049134
0.941878 0.241474 0.049134
0.941878 0.241474 0.049134
0.941878 0.241474 0.049134
0.941878 0.241474 0.049134
0.941878 0.241474 0.049134
0.0218509 0.0268864 0.0303655
0.0218204 0.0268711 0.0303349
0.0221256 0.0270848 0.0305028
0.0354314 0.031693 0.0358282
0.120241 0.0562295 0.0480201
0.33315 0.0940108 0.0509041
0.52784 0.13135 0.0447395
0.698375 0.17731 0.0469215
0.854536 0.224537 0.0488899
0.926314 0.241169 0.049485
0.941878 0.241474 0.049134
0.941878 0.241474 0.049134
0.941878 0.241474 0.049134
0.941878 0.241474 0.049134
0.941878 0.241474 0.049134
0.941878 0.241474 0.049134
0.941878 0.241474 0.049134
0.0218204 0.0269474 0.0303807
0.0217746 0.0269017 0.0303044
0.0217899 0.0268559 0.0302281
0.0294347 0.029633 0.0339055
0.094789 0.0500649 0.0451667
0.299641 0.0894179 0.0522164
0.505745 0.125826 0.0446174
0.680491 0.172274 0.0466621
0.841733 0.220478 0.0487526
0.92372 0.241093 0.0495766
0.941695 0.241413 0.049134
0.941878 0.241474 0.049134
0.941878 0.241474 0.049134
0.941878 0.241474 0.049134
0.941878 0.241474 0.049134
0.941878 0.241474 0.049134
0.941878 0.241474 0.049134
0.0272526 0.0375677 0.0409552
0.0273442 0.0377356 0.0411078
0.0268101 0.0368505 0.0401923
0.0273594 0.034699 0.0382696
0.0675212 0.045304 0.0433356
0.239734 0.0809033 0.0536965
0.461128 0.115526 0.0454719
0.636515 0.160067 0.0463722
0.802594 0.208438 0.0485389
0.913603 0.240681 0.0496986
0.940429 0.241443 0.0491951
0.941878 0.241474 0.049134
0.941878 0.241474 0.049134
0.941878 0.241474 0.049134
0.941878 0.241474 0.049134
0.941878 0.241474 0.049134
0.941878 0.241474 0.049134
0.0474403 0.0765393 0.0839857
0.0484169 0.0786297 0.0863813
0.0481727 0.0781109 0.085771
0.0457618 0.0727245 0.0795911
0.0673228 0.073167 0.0702678
0.181765 0.0949721 0.0635691
0.390555 0.124834 0.0514229
0.573297 0.164706 0.0509346
0.741314 0.209476 0.0534066
0.888685 0.252979 0.0551308
0.936339 0.256413 0.053666
0.942397 0.253895 0.0522927
0.942321 0.251926 0.0515755
0.942321 0.251133 0.0513313
0.942306 0.25034 0.0511482
0.94229 0.24976 0.0509957
0.94229 0.250111 0.0511177
0.0843366 0.155291 0.166644
0.0865949 0.159533 0.170596
0.0873121 0.160906 0.171908
0.083711 0.154025 0.165469
0.0908217 0.145342 0.147265
0.166934 0.14432 0.113313
0.309575 0.166857 0.082475
0.496529 0.197299 0.0735943
0.667048 0.23563 0.0743267
0.827298 0.27866 0.0767834
0.923613 0.301198 0.0772259
0.943542 0.298009 0.0749218
0.943877 0.294255 0.0728008
0.943755 0.29218 0.0716259
0.943755 0.290425 0.070634
0.943694 0.288838 0.0697032
0.943694 0.289311 0.0700084
0.141695 0.248051 0.255238
0.145907 0.253468 0.260548
0.148241 0.256855 0.263676
0.143572 0.250507 0.257603
0.139467 0.239124 0.245151
0.181399 0.231342 0.211368
0.292287 0.234485 0.167834
0.419974 0.26099 0.122744
0.590646 0.286427 0.10898
0.754208 0.318288 0.107378
0.895323 0.351843 0.108721
0.940963 0.352773 0.106783
0.945708 0.347356 0.104097
0.945602 0.343389 0.10161
0.94551 0.340429 0.0996872
0.945403 0.337636 0.0979019
0.945388 0.33817 0.0982376
0.20882 0.347463 0.338155
0.213291 0.353521 0.342702
0.215839 0.357061 0.345449
0.211704 0.351339 0.341054
0.202426 0.338796 0.331548
0.225818 0.326329 0.306661
0.295674 0.323384 0.268101
0.40087 0.333272 0.226368
0.518334 0.357076 0.171206
0.682185 0.377081 0.148608
0.836088 0.401511 0.14519
0.931517 0.414557 0.143038
0.947997 0.408194 0.142412
0.947814 0.401846 0.138216
0.947707 0.397925 0.135714
0.947524 0.3944 0.133455
0.947585 0.394781 0.13373
0.276738 0.445548 0.40473
0.280446 0.450919 0.408103
0.282765 0.454307 0.410208
0.27837 0.448005 0.406302
0.269291 0.434409 0.397925
0.27718 0.418753 0.381735
0.322637 0.408759 0.354314
0.39472 0.414847 0.317678
0.485283 0.428763 0.276249
0.609003 0.448096 0.219059
0.773693 0.463462 0.189883
0.907698 0.480034 0.183154
0.94786 0.475502 0.182864
0.949981 0.467582 0.179477
0.949874 0.462486 0.176349
0.949767 0.457908 0.173602
0.949752 0.458228 0.173846
0.336461 0.540688 0.459876
0.339208 0.545327 0.462486
0.340291 0.54699 0.463416
0.336477 0.540566 0.45977
0.328176 0.525429 0.45127
0.326131 0.50779 0.439796
0.358389 0.493263 0.420722
0.413108 0.491096 0.405631
0.471168 0.505211 0.365286
0.557229 0.521202 0.3196
0.693553 0.536217 0.264591
0.853666 0.546685 0.233448
0.942214 0.548592 0.225299
0.951751 0.539696 0.225299
0.951598 0.532998 0.220829
0.951476 0.528145 0.217609
0.951461 0.528374 0.217746
0.384604 0.630426 0.508843
0.386145 0.633707 0.510658
0.386465 0.634302 0.510994
0.383276 0.627649 0.507317
0.375891 0.612757 0.499199
0.368154 0.594675 0.489311
0.395239 0.577585 0.477241
0.430381 0.570611 0.462531
0.490593 0.575463 0.457572
0.539483 0.594308 0.413046
0.628504 0.611276 0.362188
0.771984 0.623316 0.309026
0.914961 0.627665 0.27985
0.951568 0.618204 0.278767
0.95201 0.609659 0.273014
0.952117 0.603784 0.268772
0.952178 0.603891 0.268879
0.42446 0.713237 0.555474
0.425696 0.715709 0.556909
0.425818 0.715709 0.556924
0.422827 0.709895 0.553506
0.415808 0.695644 0.545251
0.407721 0.677745 0.535088
0.424674 0.660807 0.526131
0.46305 0.649378 0.517937
0.511269 0.64979 0.516564
0.558602 0.661555 0.506249
0.608911 0.682277 0.460731
0.703197 0.699672 0.403479
0.84329 0.709041 0.354757
0.940612 0.705745 0.339284
0.946487 0.694697 0.334264
0.947188 0.687938 0.329213
0.947173 0.68806 0.329335
0.451408 0.770565 0.588754
0.451804 0.77142 0.589227
0.451789 0.771298 0.589197
0.450889 0.769329 0.588083
0.448188 0.763104 0.58468
0.442649 0.751156 0.577829
0.450202 0.737453 0.570901
0.490852 0.726238 0.567559
0.533303 0.723369 0.566064
0.583932 0.729229 0.569131
0.627024 0.744961 0.554772
0.680766 0.766751 0.502907
0.780087 0.781918 0.44535
0.898344 0.787533 0.409659
0.933333 0.779141 0.401175
0.934722 0.772686 0.395285
0.934737 0.772564 0.395239
0.455146 0.779141 0.593484
0.455146 0.779141 0.593484
0.455146 0.779141 0.593484
0.455146 0.779141 0.593484
0.455146 0.779141 0.593484
0.455146 0.779141 0.593484
0.461418 0.779156 0.594171
0.501778 0.778241 0.598413
0.54931 0.780819 0.604257
0.605371 0.790234 0.615183
0.656947 0.803174 0.618814
0.699199 0.821622 0.596048
0.758892 0.841016 0.544472
0.852079 0.853147 0.495521
0.919753 0.853117 0.472374
0.920806 0.846906 0.465492
0.920806 0.846906 0.465492
0.455146 0.779141 0.593484
0.455146 0.779141 0.593484
0.455146 0.779141 0.593484
0.455146 0.779141 0.593484
0.455146 0.779141 0.593484
0.455146 0.779141 0.593484
0.456901 0.779263 0.593744
0.489998 0.782086 0.599054
0.53814 0.787884 0.607279
0.595758 0.802045 0.62208
0.656672 0.821759 0.637781
0.706325 0.845716 0.638102
0.758007 0.873976 0.61355
0.827451 0.896712 0.576989
0.906615 0.90808 0.543908
0.919554 0.906188 0.534752
0.91957 0.906065 0.5346
0.455146 0.779141 0.593484
0.455146 0.779141 0.593484
0.455146 0.779141 0.593484
0.455146 0.779141 0.593484
0.455146 0.779141 0.593484
0.455146 0.779141 0.593484
0.455146 0.779141 0.593484
0.481758 0.781338 0.597696
0.52871 0.786084 0.6056
0.582376 0.798428 0.618296
0.644602 0.817075 0.635676
0.695171 0.839323 0.640803
0.743252 0.867353 0.62211
0.807691 0.893462 0.589364
0.888441 0.913481 0.560006
0.919844 0.918898 0.551492
0.919844 0.918898 0.551492
0.455146 0.779141 0.593484
0.455146 0.779141 0.593484
0.455146 0.779141 0.593484
0.455146 0.779141 0.593484
0.455146 0.779141 0.593484
0.455146 0.779141 0.593484
0.455146 0.779141 0.593484
0.482368 0.781476 0.597848
0.529412 0.786099 0.605676
0.583047 0.798596 0.61854
0.645228 0.817273 0.635782
0.69546 0.839475 0.640818
0.743542 0.867552 0.622003
0.808087 0.893614 0.589319
0.888838 0.913619 0.559915
0.919844 0.918898 0.551492
0.919844 0.918898 0.551492
0.0244297 0.0296635 0.0353399
0.0242313 0.0294499 0.0350042
0.0246128 0.0296635 0.0350805
0.0398871 0.0349279 0.0528115
0.142 0.0602121 0.0613413
0.349798 0.0971542 0.0623941
0.535927 0.133501 0.0499733
0.700999 0.178042 0.0479744
0.852338 0.223896 0.0488899
0.924727 0.241138 0.049546
0.941878 0.241474 0.049134
0.941878 0.241474 0.049134
0.941878 0.241474 0.049134
0.941878 0.241474 0.049134
