public/luts/Batman.cube
TITLE "Generated by Resolve"
LUT_3D_SIZE 9
0.0216831 0.0268101 0.0301976
0.0227665 0.0275425 0.0308995
0.157656 0.064271 0.0509651
0.55108 0.137331 0.0448768
0.862943 0.227268 0.0490272
0.941878 0.241474 0.049134
0.941878 0.241474 0.049134
0.941878 0.241474 0.049134
0.941878 0.241474 0.049134
0.0218509 0.027039 0.030457
0.0218357 0.0269169 0.0302892
0.0966354 0.0505074 0.0453803
0.50602 0.125872 0.0446021
0.840787 0.220218 0.0487526
0.941619 0.241413 0.049134
0.941878 0.241474 0.049134
0.941878 0.241474 0.049134
0.941878 0.241474 0.049134
0.0471199 0.0759136 0.0833295
0.0478065 0.0773175 0.0849012
0.0656748 0.0717174 0.0691844
0.386786 0.123186 0.0513008
0.736858 0.206821 0.0527352
0.935683 0.255116 0.0531167
0.942306 0.250843 0.0512856
0.942214 0.24947 0.0509651
0.942214 0.249332 0.0509499
0.139315 0.244816 0.252125
0.145739 0.253269 0.260365
0.136568 0.235386 0.241886
0.287221 0.230457 0.165286
0.585336 0.282612 0.107805
0.89221 0.349111 0.10753
0.945647 0.34583 0.103136
0.945449 0.339162 0.0988785
0.945403 0.337179 0.0976577
0.274266 0.441917 0.402518
0.280339 0.450797 0.408026
0.267384 0.431449 0.396155
0.319982 0.406088 0.352529
0.48336 0.4262 0.27512
0.771359 0.461418 0.188952
0.947616 0.474159 0.181872
0.949844 0.461021 0.175525
0.949706 0.457206 0.173159
0.383673 0.628611 0.507851
0.385641 0.632609 0.510033
0.374884 0.610941 0.498207
0.393668 0.575662 0.476112
0.488975 0.573816 0.456153
0.62707 0.609552 0.361364
0.914427 0.626123 0.278782
0.952041 0.60827 0.272038
0.952148 0.602747 0.268055
0.451255 0.770321 0.588663
0.45156 0.770932 0.588937
0.447669 0.762249 0.584207
0.449271 0.736217 0.570108
0.531991 0.722087 0.565118
0.625971 0.743679 0.553979
0.778515 0.780835 0.444724
0.933669 0.778042 0.400076
0.934951 0.771725 0.3944
0.455146 0.779141 0.593484
0.455146 0.779141 0.593484
0.455146 0.779141 0.593484
0.456641 0.779263 0.593713
0.537804 0.787747 0.607217
0.65626 0.821591 0.637751
0.757549 0.873976 0.614298
0.90663 0.907958 0.54377
0.919585 0.905943 0.534463
0.455146 0.779141 0.593484
0.455146 0.779141 0.593484
0.455146 0.779141 0.593484
0.45539 0.779141 0.5935
0.529305 0.786099 0.605676
0.645029 0.817258 0.635782
0.74345 0.867521 0.622065
0.888563 0.913603 0.55996
0.919844 0.918898 0.551492
0.022034 0.0270848 0.0307164
0.0227359 0.0275425 0.0310521
0.149691 0.0625772 0.0505837
0.544656 0.135653 0.044892
0.859007 0.226001 0.0489509
0.941878 0.241474 0.049134
0.941878 0.241474 0.049134
0.941878 0.241474 0.049134
0.941878 0.241474 0.049134
0.0218204 0.0269474 0.0303807
0.0217899 0.0268559 0.0302281
0.094789 0.0500649 0.0451667
0.505745 0.125826 0.0446174
0.841733 0.220478 0.0487526
0.941695 0.241413 0.049134
0.941878 0.241474 0.049134
0.941878 0.241474 0.049134
0.941878 0.241474 0.049134
0.0474403 0.0765393 0.0839857
0.0481727 0.0781109 0.085771
0.0673228 0.073167 0.0702678
0.390555 0.124834 0.0514229
0.741314 0.209476 0.0534066
0.936339 0.256413 0.053666
0.942321 0.251926 0.0515755
0.942306 0.25034 0.0511482
0.94229 0.250111 0.0511177
0.141695 0.248051 0.255238
0.148241 0.256855 0.263676
0.139467 0.239124 0.245151
0.292287 0.234485 0.167834
0.590646 0.286427 0.10898
0.895323 0.351843 0.108721
0.945708 0.347356 0.104097
0.94551 0.340429 0.0996872
0.945388 0.33817 0.0982376
0.276738 0.445548 0.40473
0.282765 0.454307 0.410208
0.269291 0.434409 0.397925
0.322637 0.408759 0.354314
0.485283 0.428763 0.276249
0.773693 0.463462 0.189883
0.94786 0.475502 0.182864
0.949874 0.462486 0.176349
0.949752 0.458228 0.173846
0.384604 0.630426 0.508843
0.386465 0.634302 0.510994
0.375891 0.612757 0.499199
0.395239 0.577585 0.477241
0.490593 0.575463 0.457572
0.628504 0.611276 0.362188
0.914961 0.627665 0.27985
0.95201 0.609659 0.273014
0.952178 0.603891 0.268879
0.451408 0.770565 0.588754
0.451789 0.771298 0.589197
0.448188 0.763104 0.58468
0.450202 0.737453 0.570901
0.533303 0.723369 0.566064
0.627024 0.744961 0.554772
0.780087 0.781918 0.44535
0.933333 0.779141 0.401175
0.934737 0.772564 0.395239
0.455146 0.779141 0.593484
0.455146 0.779141 0.593484
0.455146 0.779141 0.593484
0.456901 0.779263 0.593744
0.53814 0.787884 0.607279
0.656672 0.821759 0.637781
0.758007 0.873976 0.61355
0.906615 0.90808 0.543908
0.91957 0.906065 0.5346
0.455146 0.779141 0.593484
0.455146 0.779141 0.593484
0.455146 0.779141 0.593484
0.455146 0.779141 0.593484
0.529412 0.786099 0.605676
0.645228 0.817273 0.635782
0.743542 0.867552 0.622003
0.888838 0.913619 0.559915
0.919844 0.918898 0.551492
0.0303655 0.0364996 0.0463264
0.0301061 0.0359197 0.045304
0.124163 0.0579232 0.136202
0.511437 0.129885 0.127764
0.837644 0.218936 0.0975967
0.939757 0.240406 0.0777447
0.940612 0.240665 0.0676432
0.94078 0.240711 0.064683
0.940734 0.240696 0.0655528
0.0273594 0.0330358 0.0407568
0.0268559 0.0325017 0.0398718
0.0838483 0.0481117 0.0980545
0.482567 0.122438 0.108156
0.826307 0.215412 0.0907454
0.939483 0.24036 0.0766766
0.940398 0.240558 0.0701152
0.940597 0.240589 0.0680247
0.940566 0.240589 0.0684215
0.0476997 0.0722362 0.0877699
0.0488899 0.074464 0.0907912
0.0587778 0.0701762 0.07953
0.361654 0.126894 0.0721294
0.730861 0.203769 0.0608835
0.934661 0.25388 0.0577707
0.942061 0.249638 0.0539559
0.941985 0.248203 0.0532845
0.941985 0.247913 0.0531014
0.136156 0.241672 0.25066
0.142397 0.25066 0.259922
0.134173 0.232898 0.240345
0.283574 0.22742 0.163439
0.581933 0.279591 0.106706
0.889143 0.34612 0.106157
0.945617 0.343221 0.101472
0.945357 0.336095 0.09691
0.945296 0.333852 0.0955367
0.272328 0.438972 0.400656
0.277836 0.447303 0.405859
0.264836 0.427482 0.393622
0.314397 0.401663 0.34966
0.479133 0.420279 0.272465
0.765743 0.45594 0.186419
0.946761 0.470146 0.179004
0.949706 0.457206 0.173236
0.949599 0.453147 0.170687
0.381033 0.623163 0.504829
0.382864 0.62681 0.506859
0.37203 0.60589 0.49546
0.389303 0.570809 0.47332
0.484001 0.568521 0.451957
0.622583 0.603998 0.358495
0.91165 0.621393 0.275837
0.952117 0.603891 0.268879
0.952224 0.598138 0.264744
0.450217 0.76788 0.587304
0.450767 0.768963 0.587854
0.446555 0.75967 0.582773
0.446342 0.732494 0.567819
0.527276 0.717357 0.561669
0.621683 0.738766 0.550515
0.774212 0.775845 0.442344
0.934508 0.773663 0.396155
0.935866 0.766842 0.390326
0.455146 0.779141 0.593484
0.455146 0.779141 0.593484
0.455146 0.779141 0.593484
0.456291 0.779248 0.593622
0.53576 0.787366 0.606836
0.654261 0.820874 0.637369
0.754803 0.871931 0.614404
0.903136 0.90486 0.541375
0.919478 0.90277 0.530404
0.455146 0.779141 0.593484
0.455146 0.779141 0.593484
0.455146 0.779141 0.593484
0.455146 0.779141 0.593484
0.526452 0.785657 0.605112
0.641764 0.816083 0.635004
0.740459 0.865721 0.623682
0.884031 0.912688 0.561181
0.919844 0.918898 0.551492
0.0502937 0.0640879 0.0902876
0.0495308 0.0623484 0.0877394
0.0730907 0.0860304 0.134371
0.430869 0.12813 0.390387
0.771603 0.218357 0.37818
0.914488 0.248447 0.348348
0.917723 0.247089 0.32871
0.918685 0.246555 0.320546
0.918288 0.246815 0.324422
0.0461585 0.0573587 0.0796826
0.0453193 0.0565499 0.0779889
0.0643015 0.0735637 0.110338
0.409216 0.121645 0.373053
0.766232 0.216266 0.370367
0.914595 0.248447 0.348592
0.916991 0.247578 0.335225
0.917449 0.247318 0.331334
0.917266 0.247364 0.332723
0.0693675 0.0874495 0.11632
0.0714733 0.090013 0.120027
0.0729686 0.0857862 0.111589
0.31078 0.114626 0.298756
0.678691 0.20029 0.283421
0.914504 0.253071 0.276982
0.925917 0.248417 0.261677
0.926329 0.246662 0.255909
0.926436 0.246342 0.254429
0.141772 0.235935 0.288365
0.147951 0.245594 0.299184
0.138338 0.227268 0.277943
0.216297 0.229694 0.24506
0.510918 0.276341 0.21735
0.843091 0.342031 0.205798
0.940246 0.337499 0.176242
0.940871 0.328771 0.163867
0.941039 0.326177 0.159884
0.234836 0.435294 0.43682
0.239063 0.443824 0.443458
0.229129 0.422797 0.425986
0.282048 0.395682 0.376425
0.447715 0.406455 0.31075
0.755398 0.437568 0.218601
0.943755 0.45832 0.198566
0.948898 0.446036 0.18706
0.948745 0.441978 0.182788
0.355184 0.616739 0.522332
0.356817 0.620706 0.524819
0.348684 0.598657 0.509361
0.367269 0.56083 0.479362
0.468467 0.553048 0.454002
0.609384 0.586709 0.359472
0.901747 0.605844 0.272328
0.9523 0.590295 0.262028
0.9523 0.584772 0.257465
0.442267 0.764462 0.594247
0.442969 0.766079 0.59527
0.438895 0.752239 0.58436
0.436011 0.721675 0.564034
0.514183 0.702922 0.553155
0.608881 0.72311 0.541543
0.75993 0.760784 0.434134
0.937148 0.760006 0.384665
0.938537 0.752682 0.378729
0.453971 0.779995 0.59617
0.453895 0.780011 0.596292
0.454505 0.779629 0.594858
0.455116 0.779141 0.59353
0.530159 0.786282 0.605844
0.647547 0.817823 0.635935
0.745235 0.864622 0.613764
0.895186 0.89662 0.534524
0.919264 0.894621 0.520287
0.454276 0.779706 0.595285
0.454337 0.77969 0.595163
0.454887 0.779355 0.594095
0.455146 0.779141 0.593484
0.519951 0.784985 0.604013
0.634043 0.813504 0.632898
0.734005 0.861891 0.627161
0.87332 0.910552 0.564263
0.919844 0.918898 0.551492
0.0686961 0.0974136 0.139651
0.0682689 0.0962692 0.138231
0.0949111 0.120439 0.178027
0.333974 0.145785 0.487404
0.698314 0.217441 0.611185
0.892897 0.264134 0.612146
0.895476 0.263523 0.593469
0.895689 0.263264 0.585458
0.895598 0.263355 0.58851
0.0668345 0.0931563 0.134356
0.0664683 0.0924544 0.133471
0.0869306 0.110552 0.164858
0.312901 0.142351 0.464378
0.696483 0.216785 0.609476
0.893095 0.264424 0.617639
0.895109 0.263935 0.604639
0.895216 0.263767 0.600458
0.895216 0.263844 0.601343
0.0907454 0.120684 0.167407
0.0930953 0.124041 0.170993
0.0941329 0.118486 0.164752
0.197055 0.151019 0.325917
0.610346 0.197253 0.540536
0.884016 0.268711 0.550881
0.897475 0.263661 0.535363
0.897734 0.262028 0.529046
0.897948 0.262303 0.526879
0.188235 0.245121 0.305577
0.194736 0.254566 0.315465
0.182498 0.237247 0.295903
0.225193 0.241245 0.281147
0.474128 0.264363 0.449409
0.808286 0.335714 0.409537
0.921965 0.342977 0.395117
0.922286 0.334569 0.383871
0.922408 0.331868 0.37998
0.261707 0.429007 0.487999
0.268101 0.436759 0.495354
0.254582 0.415824 0.475685
0.28542 0.389685 0.435355
0.395254 0.405875 0.421149
0.675883 0.432731 0.381277
0.930129 0.457084 0.350545
0.941787 0.440208 0.328664
0.941344 0.436728 0.32343
0.324331 0.616693 0.587503
0.325963 0.620356 0.590387
0.314702 0.598489 0.573053
0.320638 0.562417 0.540154
0.446357 0.552285 0.507591
0.590005 0.570413 0.462043
0.907057 0.584833 0.367132
0.951675 0.577508 0.344457
0.951568 0.571801 0.33843
0.41149 0.772732 0.652033
0.412161 0.774426 0.653452
0.405859 0.758511 0.639109
0.399161 0.724804 0.610178
0.50779 0.701076 0.596567
0.608438 0.707958 0.596841
0.754711 0.742687 0.495125
0.940475 0.745754 0.427604
0.941848 0.738125 0.418982
0.429801 0.795056 0.647715
0.429755 0.795117 0.648035
0.431571 0.793896 0.642603
0.435569 0.791379 0.632868
0.516594 0.793591 0.635935
0.644556 0.816999 0.6636
0.742031 0.854566 0.650492
0.886076 0.887327 0.555596
0.919615 0.885328 0.53283
0.431128 0.794141 0.643824
0.431327 0.794018 0.643244
0.433371 0.792645 0.637736
0.438422 0.789975 0.627985
0.506615 0.791455 0.629328
0.628946 0.813291 0.654078
0.732815 0.857359 0.656901
0.862547 0.908171 0.586145
0.920073 0.919142 0.565011
0.0704356 0.102403 0.146487
0.0704356 0.102403 0.146487
0.0983749 0.12694 0.188159
0.261662 0.171252 0.436805
0.654383 0.219333 0.733043
0.865919 0.275349 0.768368
0.873396 0.276555 0.76495
0.873777 0.276371 0.762219
0.873686 0.276432 0.762997
0.0704356 0.102403 0.146487
0.0704356 0.102403 0.146487
0.0911574 0.123125 0.178119
0.242283 0.171878 0.416526
0.65626 0.219821 0.733822
0.867491 0.275837 0.770397
0.872847 0.276814 0.768353
0.872953 0.276753 0.767437
0.872953 0.276738 0.767697
0.101411 0.139605 0.195315
0.104112 0.142077 0.199161
0.106767 0.139269 0.197436
0.165209 0.183047 0.298833
0.557534 0.205203 0.681331
0.843214 0.273274 0.743648
0.877836 0.275105 0.739315
0.87866 0.274952 0.735241
0.878889 0.274968 0.733928
0.215396 0.26392 0.33344
0.222004 0.272465 0.342336
0.209384 0.25687 0.325307
0.248463 0.264698 0.3243
0.346319 0.300313 0.458808
0.742718 0.3308 0.663371
0.900114 0.347555 0.669139
0.899977 0.339895 0.6551
0.899931 0.337453 0.650416
0.31632 0.431571 0.514916
0.320897 0.438575 0.522515
0.30753 0.418158 0.500374
0.324605 0.393866 0.45864
0.399069 0.41207 0.451469
0.6383 0.424613 0.601846
0.910735 0.455726 0.571145
0.923018 0.437552 0.558862
0.923003 0.433921 0.55169
0.356252 0.609842 0.653407
0.35787 0.613367 0.656504
0.348272 0.591592 0.636667
0.348638 0.555734 0.60177
0.447364 0.546365 0.582528
0.562982 0.566033 0.582345
0.846372 0.581613 0.534524
0.94638 0.567605 0.508797
0.946349 0.561791 0.501305
0.405005 0.774655 0.729915
0.405859 0.776349 0.731548
0.397208 0.75993 0.71545
0.38352 0.725093 0.682399
0.472724 0.706355 0.660441
0.603769 0.707378 0.654719
0.745663 0.728664 0.607172
0.945937 0.731151 0.532128
0.947204 0.723522 0.520653
0.418372 0.807523 0.724315
0.418387 0.807553 0.724712
0.418158 0.806821 0.717144
0.418723 0.804959 0.703365
0.484977 0.810025 0.696406
0.63946 0.824231 0.717678
0.758282 0.845426 0.737545
0.876677 0.874128 0.66421
0.922194 0.877104 0.608545
0.418112 0.806943 0.718685
0.418051 0.806882 0.717968
0.418265 0.80592 0.710155
0.419272 0.803952 0.695872
0.475181 0.807553 0.687694
0.616663 0.822095 0.704814
0.742947 0.854688 0.731868
0.856031 0.905913 0.680415
0.921355 0.920043 0.649699
0.0704356 0.102403 0.146487
0.0704356 0.102403 0.146487
0.0956588 0.125216 0.184054
0.244709 0.171878 0.419379
0.641382 0.216403 0.730999
0.862226 0.27509 0.774762
0.871015 0.277043 0.775906
0.871015 0.277043 0.775906
0.871015 0.277043 0.775906
0.0704356 0.102403 0.146487
0.0704356 0.102403 0.146487
0.0900893 0.122087 0.176669
0.231861 0.172351 0.405615
0.647272 0.217853 0.733074
0.865064 0.2757 0.775097
0.871015 0.277043 0.775906
0.871015 0.277043 0.775906
0.871015 0.277043 0.775906
0.0982986 0.137194 0.191241
0.101457 0.139773 0.195697
0.103365 0.136797 0.193668
0.159152 0.180896 0.294347
0.541817 0.203235 0.68632
0.831724 0.270832 0.771572
0.870985 0.277394 0.775876
0.871 0.277333 0.775891
0.871015 0.277119 0.775906
0.215381 0.263142 0.334493
0.221622 0.270802 0.342489
0.209598 0.256275 0.327138
0.245762 0.261006 0.330358
0.349828 0.304753 0.487617
0.722362 0.327245 0.767269
0.876509 0.352499 0.789014
0.876081 0.345251 0.786679
0.875944 0.342901 0.785946
0.336873 0.43154 0.519966
0.340307 0.437583 0.526406
0.329412 0.418585 0.50605
0.343801 0.397543 0.471901
0.407675 0.417929 0.477852
0.540307 0.445289 0.648951
0.871473 0.457313 0.791226
0.904219 0.4421 0.785367
0.904311 0.438514 0.780697
0.410071 0.602945 0.690471
0.411048 0.606317 0.693355
0.402899 0.585534 0.673823
0.402777 0.551537 0.636728
0.479133 0.544991 0.607523
0.559747 0.569528 0.611048
0.802625 0.576181 0.75903
0.924086 0.567391 0.745556
0.923995 0.561563 0.738293
0.439063 0.768277 0.801175
0.439841 0.769833 0.802579
0.430411 0.752895 0.786664
0.415396 0.717983 0.753735
0.487129 0.697383 0.734142
0.610285 0.703426 0.735668
0.725093 0.723308 0.740261
0.94107 0.720958 0.702739
0.943389 0.712535 0.692103
0.439323 0.812909 0.807507
0.439551 0.812924 0.807965
0.436072 0.812772 0.801144
0.43061 0.812314 0.787823
0.478233 0.818936 0.780774
0.614389 0.835172 0.78761
0.755779 0.846555 0.79762
0.87361 0.866361 0.763302
0.929458 0.868208 0.71223
0.436622 0.812802 0.80238
0.436423 0.812787 0.801709
0.433112 0.812604 0.794354
0.427909 0.811963 0.779858
0.466194 0.817838 0.770428
0.586618 0.837797 0.774227
0.738003 0.862013 0.793683
0.856931 0.903288 0.792081
0.923171 0.921569 0.752438
0.0704356 0.102403 0.146487
0.0704356 0.102403 0.146487
0.0937514 0.124239 0.181399
0.236378 0.171984 0.410071
0.635477 0.215015 0.728939
0.861265 0.274876 0.774655
0.871015 0.277043 0.775906
0.871015 0.277043 0.775906
0.871015 0.277043 0.775906
0.0704356 0.102403 0.146487
0.0704356 0.102403 0.146487
0.089662 0.121431 0.176043
0.22681 0.172564 0.400946
0.64419 0.217151 0.732021
0.864652 0.275608 0.775113
0.871015 0.277043 0.775906
0.871015 0.277043 0.775906
0.871015 0.277043 0.775906
0.0970932 0.135943 0.189364
0.10045 0.138872 0.194232
0.102144 0.135882 0.192111
0.158709 0.179599 0.293019
0.538674 0.201984 0.684581
0.83003 0.269795 0.771374
0.871122 0.277424 0.775876
0.871015 0.277119 0.775906
0.871015 0.277043 0.775906
0.213855 0.261357 0.33257
0.220325 0.268894 0.340566
0.20795 0.254246 0.325002
0.241825 0.257984 0.326894
0.343236 0.301427 0.481773
0.715984 0.323171 0.765148
0.875929 0.349813 0.788815
0.875517 0.342321 0.787259
0.875273 0.339956 0.786801
0.334798 0.427878 0.516075
0.337972 0.433448 0.521996
0.326574 0.414038 0.501015
0.338888 0.391745 0.466453
0.403464 0.41178 0.473869
0.559304 0.433783 0.677943
0.862837 0.450904 0.813916
0.897444 0.441413 0.815961
0.896452 0.437781 0.814588
0.410346 0.596658 0.68629
0.4112 0.599756 0.688991
0.404562 0.579156 0.669902
0.406134 0.545052 0.634134
0.48069 0.539239 0.6065
0.561227 0.566476 0.618799
0.778759 0.570855 0.833799
0.907729 0.568017 0.849073
0.907149 0.562249 0.847532
0.456046 0.761669 0.813321
0.45655 0.763348 0.814496
0.450141 0.745388 0.802014
0.442023 0.709468 0.776379
0.508858 0.689097 0.757137
0.619211 0.695674 0.752544
0.722347 0.723995 0.762509
0.917144 0.719966 0.882399
0.922423 0.71136 0.878813
0.479164 0.81413 0.847227
0.479164 0.81413 0.847227
0.479164 0.81413 0.847227
0.478889 0.81413 0.84712
0.522393 0.819898 0.850095
0.642115 0.83151 0.858976
0.757244 0.845212 0.869688
0.867399 0.860533 0.881224
0.934478 0.857008 0.865827
0.479164 0.81413 0.847227
0.479164 0.81413 0.847227
0.479164 0.81413 0.847227
0.477775 0.814115 0.846448
0.505379 0.820127 0.845212
0.605692 0.840986 0.855512
0.726116 0.872236 0.873182
0.857847 0.905516 0.88777
0.926863 0.923018 0.873045
0.0704356 0.102403 0.146487
0.0704356 0.102403 0.146487
0.0934768 0.124147 0.181079
0.235737 0.172015 0.409476
0.635355 0.214908 0.728939
0.861143 0.274861 0.774655
0.871015 0.277043 0.775906
0.871015 0.277043 0.775906
0.871015 0.277043 0.775906
0.0704356 0.102403 0.146487
0.0704356 0.102403 0.146487
0.0896315 0.121386 0.175982
0.226123 0.172625 0.400351
0.644327 0.217166 0.732036
0.86453 0.275578 0.774975
0.871015 0.277043 0.775906
0.871015 0.277043 0.775906
0.871015 0.277043 0.775906
0.0968643 0.135729 0.189151
0.100313 0.138766 0.194049
0.101869 0.135683 0.191745
0.158572 0.179217 0.292744
0.538003 0.201801 0.684306
0.829496 0.269551 0.771267
0.871122 0.277501 0.775876
0.871015 0.277043 0.775906
0.871015 0.277043 0.775906
0.213855 0.26125 0.332448
0.220005 0.268528 0.340215
0.207294 0.253574 0.324208
0.240665 0.25713 0.32578
0.341772 0.300267 0.480385
0.713588 0.32163 0.764263
0.875853 0.348943 0.788708
0.875441 0.341527 0.787152
0.875196 0.339101 0.786679
0.334417 0.427054 0.515236
0.337224 0.432029 0.520546
0.325505 0.412451 0.49926
0.337514 0.390051 0.46482
0.401343 0.409873 0.472114
0.556222 0.431998 0.675044
0.860594 0.449332 0.813046
0.897124 0.440116 0.815473
0.895994 0.436362 0.814084
0.409873 0.59498 0.684718
0.410636 0.597635 0.687236
0.403845 0.577203 0.668177
0.404776 0.542992 0.632227
0.478508 0.536995 0.604379
0.558724 0.56405 0.616541
0.775464 0.568383 0.832319
0.9075 0.565835 0.848463
0.90692 0.560067 0.847059
0.455283 0.759991 0.812146
0.455817 0.76141 0.813184
0.449439 0.743465 0.800717
0.441245 0.707286 0.774823
0.507179 0.68629 0.754849
0.616709 0.69276 0.74995
0.719371 0.720806 0.759945
0.914534 0.717144 0.886152
0.920821 0.709133 0.88455
0.479164 0.81413 0.847227
0.479164 0.81413 0.847227
0.479164 0.81413 0.847227
0.479164 0.81413 0.847227
0.524681 0.819013 0.851835
0.630396 0.826658 0.861051
0.748638 0.839307 0.873945
0.862516 0.860761 0.885618
0.925994 0.854887 0.921523
0.479164 0.81413 0.847227
0.479164 0.81413 0.847227
0.479164 0.81413 0.847227
0.479164 0.81413 0.847227
0.515999 0.820356 0.852232
0.619074 0.840299 0.869215
0.738796 0.87071 0.895644
0.864515 0.906142 0.923873
0.924407 0.921736 0.935225
