public/luts/C&W_SLOG3_16.REST_4220.cube
TITLE "Generated by Resolve"
LUT_3D_SIZE 9
0 0 0
0.0256962 0 0.000183108
0.144869 0 0.00140383
0.392874 0 0.00976577
0.734417 0 0.0410468
1 0 0.0883955
1 0 0.107362
1 0 0.110353
1 0 0.111101
0 0.00383001 0
0.0206302 0.00115969 0.000122072
0.13727 0 0.0012665
0.376654 0 0.00883497
0.718669 0 0.0388342
0.998764 0 0.0867781
1 0 0.107012
1 0 0.110231
1 0 0.111101
0 0.0806134 0
0 0.076463 0
0.117769 0.0697948 0
0.357717 0.0452583 0.00161746
0.701442 0 0.0305943
0.99292 0 0.0802625
1 0 0.10312
1 0 0.107042
1 0 0.108125
0 0.207858 0
0 0.200412 0
0.0524453 0.191821 0
0.330098 0.17763 0
0.68098 0.133211 0.00799573
0.985809 0.0193484 0.0613565
1 0 0.0903792
1 0 0.0959029
1 0 0.0980087
0 0.450629 0
0 0.439216 0
0 0.427482 0
0.226612 0.41387 0
0.641489 0.39144 0
0.970336 0.355352 0
1 0.322835 0.0108034
1 0.304433 0.0192721
1 0.288792 0.0258793
0 0.717754 0
0 0.706798 0
0 0.695735 0
0 0.683772 0
0.549462 0.667903 0
0.926009 0.64625 0
1 0.626612 0
1 0.613092 0
1 0.600809 0
0 0.955734 0
0 0.947601 0
0 0.939376 0
0 0.930694 0
0.3234 0.919768 0
0.84358 0.904463 0
1 0.889525 0
1 0.878309 0
1 0.867933 0
0 1 0
0 1 0
0 1 0
0 1 0
0 1 0
0.763485 1 0
0.993896 1 0
1 1 0
1 1 0
0 1 0
0 1 0
0 1 0
0 1 0
0 1 0
0.721874 1 0
0.978546 1 0
1 1 0
1 1 0
0 0 0.0285191
0.0065156 0 0.0114137
0.115038 0 0.0010071
0.325414 0 0.00650034
0.665309 0 0.0324254
0.979767 0 0.0803388
1 0 0.105592
1 0 0.109926
1 0 0.111101
0 0.00337224 0.0269322
0.00242618 0.00256352 0.0102693
0.108431 0.000335698 0.000900282
0.310109 0 0.00582895
0.649027 0 0.0304875
0.971557 0 0.0783093
1 0 0.105043
1 0 0.10985
1 0 0.111101
0 0.078706 0.018143
0 0.07776 0.00387579
0.0856184 0.0735332 0
0.291478 0.0565805 3.0518e-05
0.631373 0.00015259 0.0222019
0.95671 0 0.0707561
1 0 0.100633
1 0 0.106462
1 0 0.107973
0 0.211429 0
0 0.205173 0
0.0121004 0.197314 0
0.260639 0.18555 0
0.610071 0.150729 0.00148013
0.940078 0.0478523 0.049012
1 0 0.0867933
1 0 0.0947585
1 0 0.0972763
0 0.457984 0
0 0.447059 0
0 0.435599 0
0.0907759 0.422827 0
0.564569 0.402945 0
0.912047 0.370199 0
1 0.335149 0.00654612
1 0.3149 0.0153201
1 0.299016 0.022034
0 0.725231 0
0 0.714458 0
0 0.703227 0
0 0.691905 0
0.448905 0.677165 0
0.85716 0.656886 0
1 0.635935 0
1 0.621561 0
1 0.609171 0
0 0.961288 0
0 0.953277 0
0 0.945144 0
0 0.936675 0
0.0910658 0.926314 0
0.762463 0.912764 0
1 0.897246 0
1 0.885496 0
1 0.875059 0
0 1 0
0 1 0
0 1 0
0 1 0
0 1 0
0.669871 1 0
0.972061 1 0
1 1 0
1 1 0
0 1 0
0 1 0
0 1 0
0 1 0
0 1 0
0.620813 1 0
0.950591 1 0
1 1 0
1 1 0
0 0 0.161883
0 0 0.124437
0.0837873 0 0.0935378
0.263523 0 0.070573
0.594842 0 0.0681315
0.924361 0 0.0897383
1 0 0.107759
1 0 0.109606
1 0 0.111101
0 0 0.159335
0 0 0.12224
0.0775158 0 0.0916915
0.250019 0 0.0688182
0.578637 0 0.0656596
0.909895 0 0.0870527
1 0 0.106447
1 0 0.109514
1 0 0.111101
0 0.0412604 0.153796
0 0.053315 0.11603
0.0489509 0.0575723 0.0845197
0.232547 0.0509346 0.0605478
0.56051 0.0024567 0.0568399
0.893767 0 0.0792706
1 0 0.101167
1 0 0.105913
1 0 0.107805
0 0.203342 0.137652
0 0.200992 0.0963912
0 0.196185 0.0603952
0.196353 0.1879 0.0348058
0.53756 0.161135 0.032166
0.875883 0.0796368 0.0576486
1 0 0.0858778
1 0 0.0935378
1 0 0.0965591
0 0.461433 0.0344091
0 0.451713 0.0033875
0 0.441581 0
0.0110781 0.429755 0
0.483238 0.412604 0
0.844907 0.38378 0
1 0.347814 0.00399786
1 0.325505 0.01149
1 0.309239 0.018204
0 0.730617 0
0 0.720562 0
0 0.710094 0
0 0.699351 0
0.326268 0.685832 0
0.782284 0.666926 0
1 0.645457 0
1 0.630091 0
1 0.617533 0
0 0.965545 0
0 0.958007 0
0 0.949966 0
0 0.942046 0
0 0.932265 0
0.671168 0.919951 0
0.989136 0.905165 0
1 0.89276 0
1 0.882185 0
0 1 0
0 1 0
0 1 0
0 1 0
0 1 0
0.558938 1 0
0.936477 1 0
1 1 0
1 1 0
0 1 0
0 1 0
0 1 0
0 1 0
0 1 0
0.497459 1 0
0.912551 1 0
1 1 0
1 1 0
0 0 0.468238
0 0 0.394507
0.00669871 0 0.32163
0.20235 0 0.254902
0.522286 0 0.203693
0.858946 0 0.177325
1 0 0.168154
1 0 0.1552
1 0 0.143206
0 0 0.463981
0 0 0.390249
0.00296025 0 0.317647
0.190814 0 0.251377
0.505669 0 0.200595
0.843748 0 0.174426
1 0 0.16611
1 0 0.154101
1 0 0.142596
0 0 0.458961
0 0 0.385061
0 0 0.312276
0.172259 0.000686656 0.246021
0.486976 1.5259e-05 0.195209
0.827329 0 0.168963
1 0 0.16141
1 0 0.150637
1 0 0.1393
0 0.0338445 0.451591
0 0.0925307 0.376944
0 0.137926 0.30338
0.121584 0.157092 0.236042
0.462074 0.148913 0.184024
0.808469 0.0855726 0.157183
1 0 0.150546
1 0 0.140826
1 0 0.129595
0 0.429236 0.429633
0 0.431952 0.350484
0 0.431189 0.270024
0 0.426719 0.19237
0.394247 0.415457 0.125887
0.773754 0.39176 0.0902266
1 0.35668 0.0867781
1 0.332982 0.0763104
1 0.317113 0.0621347
0 0.719066 0.378759
0 0.7149 0.281453
0 0.709163 0.156542
0 0.701823 0.0371405
0.116609 0.690639 0
0.701549 0.674495 0
0.997665 0.653513 0
1 0.63772 0
1 0.625055 0
0 0.957778 0.282933
0 0.955352 0.120439
0 0.950545 0
0 0.944732 0
0 0.936858 0
0.567224 0.925383 0
0.948226 0.911238 0
1 0.899351 0
1 0.888914 0
0 1 0.18909
0 1 0
0 1 0
0 1 0
0 1 0
0.415625 1 0
0.889036 1 0
1 1 0
1 1 0
0 1 0.158694
0 1 0
0 1 0
0 1 0
0 1 0
0.320012 1 0
0.861311 1 0
1 1 0
1 1 0
0 0 0.808576
0 0 0.740444
0 0 0.670314
0.0218967 0 0.598795
0.43122 0 0.527169
0.786358 0 0.45803
1 0 0.393118
1 0 0.329503
1 0 0.27216
0 0 0.804669
0 0 0.736446
0 0 0.666499
0.00418097 0 0.59469
0.414115 0 0.522957
0.770687 0 0.453681
1 0 0.388937
1 0 0.325887
1 0 0.269139
0 0 0.800443
0 0 0.732036
0 0 0.661738
0 0 0.590036
0.393301 0 0.518059
0.753353 0 0.448554
1 0 0.383825
1 0 0.321141
1 0 0.264775
0 0 0.795056
0 0 0.726421
0 0 0.655879
0 0 0.583871
0.363561 0 0.511528
0.733333 0.000335698 0.441535
1 0 0.376486
1 0 0.313771
1 0 0.257237
0 0.261311 0.783673
0 0.298177 0.714229
0 0.328252 0.642588
0 0.350149 0.569299
0.261814 0.361807 0.495171
0.694148 0.356771 0.422751
1 0.335729 0.355093
1 0.320119 0.289021
1 0.312779 0.227863
0 0.66128 0.761593
0 0.66743 0.689677
0 0.671214 0.614816
0 0.673075 0.53724
0 0.671626 0.456825
0.608011 0.663844 0.375479
0.966415 0.649653 0.295079
1 0.637156 0.209461
1 0.627985 0.107164
0 0.921904 0.730159
0 0.926116 0.653239
0 0.927916 0.571878
0 0.928023 0.484932
0 0.925917 0.3888
0.427405 0.919844 0.27895
0.890669 0.909972 0.126696
1 0.901076 0.0225071
1 0.892714 0
0 1 0.709392
0 1 0.628214
0 1 0.540612
0 1 0.443595
0 1 0.327703
0.147372 1 0.146624
0.823941 1 0.0225376
1 1 0
1 1 0
0 1 0.701183
0 1 0.61857
0 1 0.528954
0 1 0.427329
0 1 0.301793
0.0573434 1 0.112657
0.79144 1 0
0.993194 1 0
1 1 0
0 0 0.998642
0 0 0.983856
0 0 0.953643
0 0 0.9131
0.275288 0 0.859464
0.695323 0 0.796078
1 0 0.730709
1 0 0.663066
1 0 0.593027
0 0 0.998444
0 0 0.982422
0 0 0.951797
0 0 0.910292
0.25066 0 0.855802
0.678691 0 0.792172
0.992462 0 0.726696
1 0 0.659083
1 0 0.589029
0 0 0.998062
0 0 0.980728
0 0 0.949584
0 0 0.907012
0.214405 0 0.851865
0.660319 0 0.7879
0.983139 0 0.722316
1 0 0.654643
1 0 0.584527
0 0 0.997101
0 0 0.978256
0 0 0.946593
0 0 0.902953
0.142473 0 0.847089
0.638056 0 0.782757
0.972137 0 0.716991
1 0 0.649241
1 0 0.578973
0 0.0136568 0.992798
0 0 0.971435
0 0 0.938872
0 0.0218204 0.894469
0.0114595 0.0822766 0.83769
0.590295 0.0918441 0.772702
0.949294 0.1084 0.706264
1 0.142535 0.638041
1 0.174777 0.566491
0 0.589181 0.980682
0 0.58584 0.957321
0 0.586648 0.923369
0 0.590433 0.877607
0 0.597528 0.819028
0.475517 0.601678 0.752087
0.895811 0.597436 0.683574
1 0.59472 0.612711
1 0.595544 0.537789
0 0.879942 0.961654
0 0.878782 0.936843
0 0.879957 0.900847
0 0.881529 0.852796
0 0.884321 0.791058
0.158465 0.884947 0.7205
0.806989 0.881788 0.647334
1 0.877989 0.570459
1 0.877073 0.486717
0 0.992065 0.950286
0 0.994186 0.92369
0 0.998199 0.885893
0 0.999542 0.835416
0 0.999542 0.770535
0 1 0.696086
0.727092 1 0.618173
0.982361 1 0.534249
1 1 0.43949
0 1 0.946807
0 1 0.918959
0 1 0.880217
0 1 0.828443
0 1 0.761898
0 1 0.685863
0.686687 1 0.605783
0.96492 1 0.518914
1 1 0.419272
0 0 1
0 0 1
0 0 1
0 0 1
0.0220493 0 1
0.592538 0 0.998611
0.946426 0 0.981445
1 0 0.950652
1 0 0.906874
0 0 1
0 0 1
0 0 1
0 0 1
0 0 1
0.573327 0 0.998428
0.931624 0 0.97995
1 0 0.948241
1 0 0.904082
0 0 1
0 0 1
0 0 1
0 0 1
0 0 1
0.552087 0 0.998077
0.915846 0 0.978149
1 0 0.945541
1 0 0.900877
0 0 1
0 0 1
0 0 1
0 0 1
0 0 1
0.525261 0 0.997086
0.897978 0 0.975372
1 0 0.942321
1 0 0.897108
0 0 1
0 0 1
0 0 1
0 0 1
0 0 1
0.461585 0 0.992462
0.866056 0 0.969009
1 0 0.935546
1 0 0.889677
0 0.580972 1
0 0.566247 1
0 0.552422 1
0 0.53872 1
0 0.525505 0.995789
0.263493 0.513542 0.980194
0.801877 0.498024 0.955764
1 0.48809 0.921492
1 0.493858 0.87451
0 0.87483 0.999512
0 0.867658 0.998535
0 0.860945 0.995697
0 0.854932 0.98938
0 0.847745 0.978393
0 0.840665 0.960784
0.693706 0.832319 0.935134
0.985748 0.825879 0.899351
1 0.826429 0.850172
0 0.984604 0.991348
0 0.983017 0.989044
0 0.981765 0.985229
0 0.981231 0.978149
0 0.980926 0.966201
0 0.980255 0.946975
0.592523 0.978454 0.919768
0.937911 0.97789 0.882094
1 0.982834 0.830335
0 1 0.98909
0 1 0.986572
0 1 0.982406
0 1 0.974929
0 1 0.962264
0 1 0.942077
0.53933 1 0.913909
0.917784 1 0.875135
0.99968 1 0.821973
0 0 1
0 0 1
0 0 1
0 0 1
0 0 1
0.500862 0 1
0.876509 0 1
1 0 1
1 0 1
0 0 1
0 0 1
0 0 1
0 0 1
0 0 1
0.479698 0 1
0.860319 0 1
1 0 1
1 0 1
0 0 1
0 0 1
0 0 1
0 0 1
0 0 1
0.455421 0 1
0.84303 0 1
1 0 1
1 0 1
0 0 1
0 0 1
0 0 1
0 0 1
0 0 1
0.422492 0 1
0.822812 0 1
1 0 1
1 0 1
0 0 1
0 0 1
0 0 1
0 0 1
0 0 1
0.332006 0 1
0.785977 0 1
1 0 1
1 0 1
0 0.588678 1
0 0.57258 1
0 0.556466 1
0 0.540246 1
0 0.523339 1
0 0.502174 1
0.710582 0.471351 1
0.996429 0.436271 1
1 0.41529 1
0 0.878386 1
0 0.870542 1
0 0.862715 1
0 0.854948 1
0 0.847074 1
0 0.835737 1
0.575601 0.821164 1
0.944533 0.804776 0.999344
1 0.793988 0.994949
0 0.984451 0.998413
0 0.9823 0.998611
0 0.980133 0.998795
0 0.978134 0.99826
0 0.976761 0.994247
0 0.973037 0.992309
0.434974 0.966339 0.991196
0.890288 0.958343 0.988861
0.997559 0.954559 0.981659
0 1 0.996445
0 1 0.996475
0 1 0.996506
0 1 0.995514
0 1 0.991409
0 1 0.989212
0.354086 0.999557 0.987778
0.867018 0.995224 0.985031
0.985077 0.994263 0.977234
0 0 1
0 0 1
0 0 1
0 0 1
0 0 1
0.406165 0 1
0.805066 0 1
1 0 1
1 0 1
0 0 1
0 0 1
0 0 1
0 0 1
0 0 1
0.38088 0 1
0.788083 0 1
1 0 1
1 0 1
0 0 1
0 0 1
0 0 1
0 0 1
0 0 1
0.3514 0 1
0.769833 0 1
1 0 1
1 0 1
0 0 1
0 0 1
0 0 1
0 0 1
0 0 1
0.308232 0 1
0.748272 0 1
1 0 1
1 0 1
0 0 1
0 0 1
0 0 1
0 0 1
0 0 1
0.125216 0 1
0.706233 0 1
0.999695 0 1
1 0 1
0 0.600031 1
0 0.583917 1
0 0.567819 1
0 0.551629 1
0 0.534112 1
0 0.511986 1
0.615534 0.481788 1
0.97026 0.442878 1
1 0.413046 1
0 0.883909 1
0 0.876066 1
0 0.868238 1
0 0.860395 1
0 0.852354 1
0 0.841505 1
0.433677 0.826719 1
0.896483 0.808774 1
1 0.795193 1
0 0.985977 0.998291
0 0.983825 0.998474
0 0.981659 0.998657
0 0.979492 0.998856
0 0.977172 0.99913
0 0.973938 0.999588
0.132296 0.967208 1
0.836149 0.958022 1
0.987503 0.95198 0.999847
0 1 0.996414
0 1 0.996445
0 1 0.996475
0 1 0.996521
0 1 0.996551
0 1 0.996902
0.034638 0.999313 0.997955
0.808606 0.993164 0.999786
0.973632 0.990005 0.998337
