public/luts/C&W_SLOG3_16.REST_4220.cube
TITLE "Generated by Resolve"
LUT_3D_SIZE 5
0 0 0
0.144869 0 0.00140383
0.734417 0 0.0410468
1 0 0.107362
1 0 0.111101
0 0.0806134 0
0.117769 0.0697948 0
0.701442 0 0.0305943
1 0 0.10312
1 0 0.108125
0 0.450629 0
0 0.427482 0
0.641489 0.39144 0
1 0.322835 0.0108034
1 0.288792 0.0258793
0 0.955734 0
0 0.939376 0
0.3234 0.919768 0
1 0.889525 0
1 0.867933 0
0 1 0
0 1 0
0 1 0
0.978546 1 0
1 1 0
0 0 0.161883
0.0837873 0 0.0935378
0.594842 0 0.0681315
1 0 0.107759
1 0 0.111101
0 0.0412604 0.153796
0.0489509 0.0575723 0.0845197
0.56051 0.0024567 0.0568399
1 0 0.101167
1 0 0.107805
0 0.461433 0.0344091
0 0.441581 0
0.483238 0.412604 0
1 0.347814 0.00399786
1 0.309239 0.018204
0 0.965545 0
0 0.949966 0
0 0.932265 0
0.989136 0.905165 0
1 0.882185 0
0 1 0
0 1 0
0 1 0
0.912551 1 0
1 1 0
0 0 0.808576
0 0 0.670314
0.43122 0 0.527169
1 0 0.393118
1 0 0.27216
0 0 0.800443
0 0 0.661738
0.393301 0 0.518059
1 0 0.383825
1 0 0.264775
0 0.261311 0.783673
0 0.328252 0.642588
0.261814 0.361807 0.495171
1 0.335729 0.355093
1 0.312779 0.227863
0 0.921904 0.730159
0 0.927916 0.571878
0 0.925917 0.3888
0.890669 0.909972 0.126696
1 0.892714 0
0 1 0.701183
0 1 0.528954
0 1 0.301793
0.79144 1 0
1 1 0
0 0 1
0 0 1
0.0220493 0 1
0.946426 0 0.981445
1 0 0.906874
0 0 1
0 0 1
0 0 1
0.915846 0 0.978149
1 0 0.900877
0 0 1
0 0 1
0 0 1
0.866056 0 0.969009
1 0 0.889677
0 0.87483 0.999512
0 0.860945 0.995697
0 0.847745 0.978393
0.693706 0.832319 0.935134
1 0.826429 0.850172
0 1 0.98909
0 1 0.982406
0 1 0.962264
0.53933 1 0.913909
0.99968 1 0.821973
0 0 1
0 0 1
0 0 1
0.805066 0 1
1 0 1
0 0 1
0 0 1
0 0 1
0.769833 0 1
1 0 1
0 0 1
0 0 1
0 0 1
0.706233 0 1
1 0 1
0 0.883909 1
0 0.868238 1
0 0.852354 1
0.433677 0.826719 1
1 0.795193 1
0 1 0.996414
0 1 0.996475
0 1 0.996551
0.034638 0.999313 0.997955
0.973632 0.990005 0.998337
