public/luts/C&W_SLOG3_16.REST_4220.cube
TITLE "Generated by Resolve"
LUT_3D_SIZE 33
0 0 0
0 0 0
0 0 0
0.00297551 0 1.5259e-05
0.0256962 0 0.000183108
0.0517433 0 0.000366217
0.0793927 0 0.000579843
0.108949 0 0.0009308
0.144869 0 0.00140383
0.188144 0 0.00227359
0.241611 0 0.00358587
0.311131 0 0.00587472
0.392874 0 0.00976577
0.478874 0 0.015198
0.564813 0 0.0220951
0.65037 0 0.0306249
0.734417 0 0.0410468
0.816953 0 0.0531624
0.896971 0 0.0660716
0.972732 0 0.0784924
1 0 0.0883955
1 0 0.0958267
1 0 0.101289
1 0 0.105089
1 0 0.107362
1 0 0.108751
1 0 0.109438
1 0 0.10985
1 0 0.110353
1 0 0.111101
1 0 0.111101
1 0 0.111101
1 0 0.111101
0 0 0
0 0 0
0 0 0
0.0019379 0 1.5259e-05
0.0245518 0 0.000167849
0.0504311 0 0.000350958
0.0780041 0 0.000564584
0.107317 0 0.000915541
0.142962 0 0.00137331
0.185931 0 0.00222782
0.238911 0 0.00350958
0.307301 0 0.00570687
0.388815 0 0.00953689
0.474784 0 0.0149233
0.560739 0 0.0217441
0.646326 0 0.0302129
0.73048 0 0.0404822
0.813107 0 0.0525521
0.893217 0 0.0654459
0.968963 0 0.0778821
1 0 0.088014
1 0 0.0955367
1 0 0.101076
1 0 0.104936
1 0 0.107286
1 0 0.108721
1 0 0.109422
1 0 0.109834
1 0 0.110307
1 0 0.111101
1 0 0.111101
1 0 0.111101
1 0 0.111101
0 0 0
0 0 0
0 0 0
0.000900282 0 0
0.0233158 0 0.00015259
0.0491188 0 0.000350958
0.0766918 0 0.000549325
0.105715 0 0.000900282
0.14107 0 0.00134279
0.183719 0 0.00218204
0.23621 0 0.00344854
0.303929 0 0.0055848
0.384771 0 0.009308
0.470695 0 0.0146334
0.556664 0 0.0213931
0.642283 0 0.0298009
0.726543 0 0.0399329
0.808988 0 0.0518959
0.889464 0 0.0648356
0.965438 0 0.0773022
1 0 0.0876326
1 0 0.0952316
1 0 0.100847
1 0 0.104768
1 0 0.10721
1 0 0.108675
1 0 0.109392
1 0 0.109819
1 0 0.110277
1 0 0.111101
1 0 0.111101
1 0 0.111101
1 0 0.111101
0 0 0
0 0 0
0 0 0
0 0 0
0.0221561 0 0.00015259
0.0478065 0 0.000350958
0.0753948 0 0.000534066
0.104326 0 0.000885023
0.139162 0 0.00129702
0.181506 0 0.002121
0.233509 0 0.00337224
0.300572 0 0.00547799
0.380713 0 0.00906386
0.466606 0 0.0143435
0.55259 0 0.0210422
0.637964 0 0.0293584
0.722606 0 0.0393835
0.805127 0 0.0512856
0.88571 0 0.0642252
0.961898 0 0.0767224
1 0 0.0872511
1 0 0.0949416
1 0 0.100633
1 0 0.104601
1 0 0.107118
1 0 0.108629
1 0 0.109377
1 0 0.109804
1 0 0.110262
1 0 0.111101
1 0 0.111101
1 0 0.111101
1 0 0.111101
0 0.00383001 0
0 0.00317388 0
0 0.00251774 0
0 0.00184634 0
0.0206302 0.00115969 0.000122072
0.0463264 0.000503548 0.000335698
0.0740826 0 0.000534066
0.102937 0 0.000869764
0.13727 0 0.0012665
0.179294 0 0.00207523
0.230808 0 0.00329595
0.297215 0 0.00537118
0.376654 0 0.00883497
0.462516 0 0.0140536
0.548516 0 0.0206912
0.633921 0 0.0289311
0.718669 0 0.0388342
0.801282 0 0.0506752
0.881941 0 0.0635996
0.958373 0 0.0761425
0.998764 0 0.0867781
1 0 0.0946365
1 0 0.100404
1 0 0.104433
1 0 0.107012
1 0 0.108583
1 0 0.109346
1 0 0.109773
1 0 0.110231
1 0 0.111101
1 0 0.111101
1 0 0.111101
1 0 0.111101
0 0.0200198 0
0 0.0192874 0
0 0.018555 0
0 0.0178225 0
0.0144961 0.0166323 0
0.0400854 0.0152895 0
0.068574 0.0138857 0
0.0984817 0.0124208 1.5259e-05
0.13315 0.0105592 9.15541e-05
0.175494 0.00801099 0.000701915
0.226978 0.00450141 0.00196841
0.293065 0.000656138 0.00410468
0.372061 0 0.00753796
0.457801 0 0.012665
0.544137 0 0.0193179
0.629679 0 0.0275731
0.714488 0 0.0375219
0.797269 0 0.0492409
0.878096 0 0.0622721
0.954772 0 0.0749828
0.997345 0 0.085832
1 0 0.0939651
1 0 0.099855
1 0 0.104021
1 0 0.106706
1 0 0.10837
1 0 0.109178
1 0 0.109667
1 0 0.110155
1 0 0.11107
1 0 0.111101
1 0 0.111101
1 0 0.111101
0 0.0381323 0
0 0.0373083 0
0 0.0364691 0
0 0.0356298 0
0.00781262 0.0343786 0
0.0332799 0.0330205 0
0.0622263 0.0315251 0
0.0933547 0.0297856 0
0.128496 0.0276799 0
0.171221 0.0247501 4.57771e-05
0.222736 0.020325 0.000503548
0.288365 0.01355 0.00238041
0.367422 0.00460822 0.00576791
0.453132 0 0.0107729
0.53959 0 0.0173648
0.625238 0 0.0255436
0.71017 0 0.0354162
0.793164 0 0.0470436
0.874098 0 0.0601358
0.951064 0 0.0730755
0.995911 0 0.0841688
1 0 0.0925917
1 0 0.0986191
1 0 0.102861
1 0 0.105684
1 0 0.107378
1 0 0.108217
1 0 0.108751
1 0 0.109285
1 0 0.110109
1 0 0.110185
1 0 0.110231
1 0 0.110262
0 0.0585946 0
0 0.0576944 0
0 0.0567788 0
0 0.0558785 0
0.00125124 0.0545968 0
0.0255894 0.0531777 0
0.0549325 0.0516213 0
0.0873884 0.0498207 0
0.123476 0.0475776 0
0.166384 0.0446326 0
0.218235 0.040177 3.0518e-05
0.283726 0.0331579 0.000732433
0.362646 0.0221256 0.0037232
0.448371 0.00842298 0.00862135
0.535012 0 0.0152285
0.620752 0 0.0233616
0.705837 0 0.0331426
0.789044 0 0.0446784
0.8701 0 0.0578012
0.947326 0 0.070985
0.99443 0 0.0823377
1 0 0.0910811
1 0 0.0972305
1 0 0.101549
1 0 0.104479
1 0 0.106233
1 0 0.107149
1 0 0.107683
1 0 0.108232
1 0 0.109041
1 0 0.109163
1 0 0.109209
1 0 0.109239
0 0.0806134 0
0 0.0796368 0
0 0.0786755 0
0 0.0777142 0
0 0.076463 0
0.0167697 0.0750286 0
0.0462654 0.0735332 0
0.0800488 0.071809 0
0.117769 0.0697948 0
0.161196 0.0669718 0
0.213321 0.0628214 0
0.278737 0.0561227 6.10361e-05
0.357717 0.0452583 0.00161746
0.443473 0.0295415 0.00621042
0.530312 0.010544 0.012726
0.616251 0.000259403 0.0208133
0.701442 0 0.0305943
0.784802 0 0.0419623
0.866072 0 0.0551156
0.943526 0 0.0686046
0.99292 0 0.0802625
1 0 0.0892348
1 0 0.0956436
1 0 0.100114
1 0 0.10312
1 0 0.104906
1 0 0.105943
1 0 0.106493
1 0 0.107042
1 0 0.107851
1 0 0.108019
1 0 0.108064
1 0 0.108125
0 0.105165 0
0 0.104036 0
0 0.102907 0
0 0.101778 0
0 0.100404 0
0.00639353 0.098909 0
0.0347143 0.0973678 0
0.0700999 0.0956283 0
0.110216 0.0935836 0
0.154864 0.0911116 0
0.20763 0.0875868 0
0.273213 0.0820935 0
0.352377 0.073106 0.000167849
0.4383 0.0592813 0.0031281
0.525429 0.0383459 0.00965896
0.611536 0.0149386 0.0177005
0.69688 0.00169375 0.0274205
0.780453 0 0.0387732
0.861952 0 0.0518654
0.939651 0 0.0656748
0.991257 0 0.0777295
1 0 0.0869917
1 0 0.0937209
1 0 0.0983291
1 0 0.101442
1 0 0.103349
1 0 0.104463
1 0 0.105013
1 0 0.105562
1 0 0.106416
1 0 0.106645
1 0 0.106722
1 0 0.106798
0 0.133898 0
0 0.13257 0
0 0.131243 0
0 0.129915 0
0 0.128435 0
0.000579843 0.126986 0
0.0188602 0.125307 0
0.0550088 0.123507 0
0.0990311 0.121492 0
0.146273 0.119112 0
0.200412 0.115938 0
0.266667 0.11136 0
0.346319 0.104204 0
0.432609 0.0934768 0.000381476
0.520165 0.0772259 0.00529488
0.606546 0.054078 0.0133364
0.692134 0.0262608 0.0230716
0.775876 0.00205997 0.0344091
0.857404 0 0.047425
0.935653 0 0.0616159
0.989609 0 0.0742351
1 0 0.0839399
1 0 0.0910353
1 0 0.0958419
1 0 0.0990921
1 0 0.101122
1 0 0.102327
1 0 0.102953
1 0 0.103548
1 0 0.104448
1 0 0.104784
1 0 0.104906
1 0 0.105013
0 0.167681 0
0 0.16614 0
0 0.164599 0
0 0.163073 0
0 0.161379 0
0 0.159609 0
0.00378424 0.157809 0
0.0328222 0.155901 0
0.0813916 0.153841 0
0.134035 0.151492 0
0.190723 0.148501 0
0.258457 0.144549 0
0.339117 0.138674 0
0.426139 0.130266 0
0.51426 0.118379 0.00103761
0.601068 0.101579 0.00714122
0.686702 0.0782025 0.0168612
0.770977 0.0468757 0.0282292
0.852842 0.0173495 0.0413062
0.931426 0 0.0557412
0.987823 0 0.0691386
1 0 0.0794537
1 0 0.0870527
1 0 0.092195
1 0 0.0956436
1 0 0.0978103
1 0 0.0991073
1 0 0.0998856
1 0 0.100526
1 0 0.101442
1 0 0.101854
1 0 0.102022
1 0 0.10219
0 0.207858 0
0 0.206149 0
0 0.204273 0
0 0.202411 0
0 0.200412 0
0 0.198398 0
0 0.196292 0
0.00866712 0.194125 0
0.0524453 0.191821 0
0.11458 0.189273 0
0.176852 0.186358 0
0.247517 0.18265 0
0.330098 0.17763 0
0.418357 0.170779 0
0.507164 0.161608 3.0518e-05
0.594919 0.149294 0.00138857
0.68098 0.133211 0.00799573
0.765652 0.111452 0.0193942
0.847868 0.0816663 0.0324559
0.926894 0.0473487 0.0470893
0.985809 0.0193484 0.0613565
1 0.00230411 0.0726635
1 0 0.0809186
1 0 0.0866255
1 0 0.0903792
1 0 0.0927901
1 0 0.0942397
1 0 0.09514
1 0 0.0959029
1 0 0.09691
1 0 0.0974899
1 0 0.0977493
1 0 0.0980087
0 0.257893 0
0 0.255543 0
0 0.253208 0
0 0.250858 0
0 0.248447 0
0 0.245777 0
0 0.243519 0
0 0.24094 0
0.0153658 0.2383 0
0.0781872 0.235431 0
0.154314 0.232319 0
0.231571 0.228458 0
0.317601 0.223987 0
0.408438 0.218082 0
0.498817 0.210636 0
0.587518 0.200931 6.10361e-05
0.674281 0.188952 0.00112917
0.759487 0.173724 0.00703441
0.842222 0.155184 0.0192721
0.921767 0.129961 0.0340429
0.983413 0.0982376 0.0488899
1 0.0699321 0.0614481
1 0.052781 0.0709544
1 0.0406043 0.0774853
1 0.0313878 0.0818494
1 0.0247959 0.0847028
1 0.0202029 0.0864576
1 0.0168765 0.0875563
1 0.0139773 0.0885481
1 0.010956 0.0897841
1 0.00863661 0.0905928
1 0.00669871 0.0910201
1 0.00476081 0.0914473
0 0.317586 0
0 0.314931 0
0 0.312276 0
0 0.309621 0
0 0.30692 0
0 0.304158 0
0 0.301122 0
0 0.298558 0
0 0.295674 0
0.0209812 0.292683 0
0.110262 0.289372 0
0.204883 0.285695 0
0.299168 0.281178 0
0.39443 0.275883 0
0.487495 0.269352 0
0.577951 0.261433 0
0.665919 0.251896 0
0.751949 0.240482 0.00077821
0.835355 0.227024 0.00387579
0.915694 0.210788 0.0133516
0.980285 0.192523 0.028687
1 0.174151 0.0420996
1 0.156558 0.0528573
1 0.140337 0.0608835
1 0.126421 0.0663615
1 0.114794 0.0700389
1 0.105303 0.0724498
1 0.0974899 0.0740673
1 0.0896468 0.0755779
1 0.0816358 0.0771649
1 0.0742962 0.0784466
1 0.068574 0.0792554
1 0.0628367 0.0800488
0 0.38291 0
0 0.380087 0
0 0.377264 0
0 0.374441 0
0 0.371588 0
0 0.368704 0
0 0.365759 0
0 0.362814 0
0 0.359579 0
0 0.356771 0
0.0269932 0.353521 0
0.157946 0.349813 0
0.271031 0.345617 0
0.374487 0.340673 0
0.47216 0.334951 0
0.565332 0.328191 0
0.655131 0.320226 0
0.742473 0.311101 0
0.826856 0.300664 0
0.908278 0.288594 0.00166323
0.976059 0.275593 0.00663767
1 0.263127 0.0136263
1 0.251835 0.0237278
1 0.24184 0.0328832
1 0.233295 0.0395209
1 0.226825 0.0439918
1 0.221103 0.0472572
1 0.216129 0.0496681
1 0.211444 0.0517586
1 0.206317 0.054139
1 0.201541 0.0561837
1 0.197467 0.0575723
1 0.193774 0.0588235
0 0.450629 0
0 0.447776 0
0 0.444938 0
0 0.4421 0
0 0.439216 0
0 0.436316 0
0 0.433387 0
0 0.430457 0
0 0.427482 0
0 0.424445 0
0 0.421286 0
0.0652018 0.417807 0
0.226612 0.41387 0
0.346502 0.409354 0
0.451514 0.40415 0
0.54905 0.39826 0
0.641489 0.39144 0
0.730694 0.383764 0
0.816434 0.375189 0
0.899184 0.365591 0
0.970336 0.355352 0
1 0.345708 0.000701915
1 0.336965 0.00376898
1 0.32932 0.00755322
1 0.322835 0.0108034
1 0.317388 0.013489
1 0.312657 0.0156863
1 0.308415 0.0175174
1 0.304433 0.0192721
1 0.300145 0.0212711
1 0.296056 0.0231632
1 0.292424 0.0245212
1 0.288792 0.0258793
0 0.518105 0
0 0.515267 0
0 0.512444 0
0 0.509621 0
0 0.506767 0
0 0.503868 0
0 0.500969 0
0 0.4981 0
0 0.495171 0
0 0.492149 0
0 0.489082 0
0.00595102 0.485786 0
0.1505 0.482033 0
0.307073 0.477913 0
0.424735 0.473259 0
0.528695 0.467948 0
0.624689 0.462013 0
0.716396 0.45539 0
0.804028 0.448096 0
0.887861 0.44007 0
0.962875 0.431571 0
1 0.42359 0
1 0.416358 0
1 0.409979 0
1 0.404456 0
1 0.399741 0
1 0.395575 0
1 0.391775 0
1 0.388449 0
1 0.384604 0
1 0.38088 0
1 0.377523 0
1 0.374182 0
0 0.585458 0
0 0.58265 0
0 0.579828 0
0 0.57702 0
0 0.573953 0
0 0.571374 0
0 0.568505 0
0 0.565606 0
0 0.562753 0
0 0.559777 0
0 0.556725 0
0 0.553567 0
0.0415351 0.550072 0
0.246616 0.546166 0
0.389258 0.541894 0
0.502892 0.537118 0
0.604212 0.531716 0
0.699306 0.525887 0
0.789288 0.519493 0
0.874937 0.512505 0
0.953002 0.505226 0
0.998596 0.498329 0
1 0.492042 0
1 0.486458 0
1 0.481514 0
1 0.477241 0
1 0.473411 0
1 0.469902 0
1 0.466484 0
1 0.462959 0
1 0.45951 0
1 0.456321 0
1 0.453147 0
0 0.651942 0
0 0.649165 0
0 0.646387 0
0 0.64361 0
0 0.640818 0
0 0.638041 0
0 0.635218 0
0 0.63238 0
0 0.629526 0
0 0.626642 0
0 0.623682 0
0 0.6206 0
0.00788891 0.617273 0
0.135058 0.61355 0
0.340948 0.609522 0
0.470619 0.605173 0
0.579431 0.600229 0
0.678691 0.594949 0
0.772015 0.589151 0
0.859922 0.582986 0
0.940536 0.576486 0
0.993225 0.570367 0
1 0.564706 0
1 0.55964 0
1 0.555077 0
1 0.5514 0
1 0.547799 0
1 0.544442 0
1 0.541176 0
1 0.537865 0
1 0.534585 0
1 0.531518 0
1 0.528466 0
0 0.717754 0
0 0.715023 0
0 0.712276 0
0 0.709545 0
0 0.706798 0
0 0.704067 0
0 0.701335 0
0 0.698497 0
0 0.695735 0
0 0.692882 0
0 0.689967 0
0 0.686992 0
0 0.683772 0
0.0579385 0.680308 0
0.267002 0.676524 0
0.428489 0.672419 0
0.549462 0.667903 0
0.654551 0.66302 0
0.751797 0.65774 0
0.842527 0.652155 0
0.926009 0.64625 0
0.984802 0.64065 0
1 0.635523 0
1 0.630854 0
1 0.626612 0
1 0.622889 0
1 0.61944 0
1 0.61593 0
1 0.613092 0
1 0.609888 0
1 0.606744 0
1 0.603769 0
1 0.600809 0
0 0.782055 0
0 0.77937 0
0 0.776699 0
0 0.774014 0
0 0.771328 0
0 0.768643 0
0 0.765942 0
0 0.763195 0
0 0.760494 0
0 0.757687 0
0 0.754879 0
0 0.751995 0
0 0.748959 0
0 0.745617 0
0.139712 0.742016 0
0.372869 0.738186 0
0.513085 0.734035 0
0.626093 0.729488 0
0.728405 0.724605 0
0.822599 0.719402 0
0.908812 0.714031 0
0.973663 0.709102 0
1 0.704341 0
1 0.700008 0
1 0.696025 0
1 0.69247 0
1 0.689158 0
1 0.686076 0
1 0.68307 0
1 0.680003 0
1 0.67689 0
1 0.674022 0
1 0.671138 0
0 0.845029 0
0 0.84242 0
0 0.839796 0
0 0.837186 0
0 0.834562 0
0 0.831907 0
0 0.829267 0
0 0.826642 0
0 0.823987 0
0 0.821286 0
0 0.81854 0
0 0.815747 0
0 0.812787 0
0 0.809644 0
0.0673381 0.806241 0
0.289158 0.802625 0
0.466911 0.798795 0
0.592386 0.794522 0
0.70132 0.790005 0
0.799847 0.785199 0
0.88925 0.780194 0
0.959213 0.775418 0
0.997955 0.770932 0
1 0.766827 0
1 0.763073 0
1 0.759701 0
1 0.756527 0
1 0.753552 0
1 0.750637 0
1 0.747707 0
1 0.744671 0
1 0.741863 0
1 0.739071 0
0 0.90454 0
0 0.902083 0
0 0.899626 0
0 0.897169 0
0 0.894713 0
0 0.89221 0
0 0.889754 0
0 0.887297 0
0 0.884749 0
0 0.882261 0
0 0.879683 0
0 0.877104 0
0 0.874327 0
0 0.871382 0
0 0.868223 0
0.170214 0.864851 0
0.407126 0.861295 0
0.552422 0.85771 0
0.670085 0.853529 0
0.77409 0.849027 0
0.867369 0.844358 0
0.941176 0.839811 0
0.98909 0.83566 0
1 0.831556 0
1 0.828244 0
1 0.824933 0
1 0.821958 0
1 0.819059 0
1 0.816236 0
1 0.813413 0
1 0.810559 0
1 0.807858 0
1 0.805158 0
0 0.955734 0
0 0.953704 0
0 0.951659 0
0 0.94963 0
0 0.947601 0
0 0.945571 0
0 0.943542 0
0 0.941466 0
0 0.939376 0
0 0.937133 0
0 0.935164 0
0 0.933013 0
0 0.930694 0
0 0.928267 0
0 0.925582 0
0.0725261 0.922759 0
0.3234 0.919768 0
0.506325 0.91632 0
0.635218 0.912856 0
0.745876 0.908782 0
0.84358 0.904463 0
0.921523 0.900282 0
0.976196 0.896437 0
1 0.892836 0
1 0.889525 0
1 0.886442 0
1 0.883665 0
1 0.880934 0
1 0.878309 0
1 0.875685 0
1 0.872999 0
1 0.870466 0
1 0.867933 0
0 0.992905 0
0 0.991485 0
0 0.990082 0
0 0.988663 0
0 0.987243 0
0 0.985824 0
0 0.984405 0
0 0.982956 0
0 0.981506 0
0 0.980087 0
0 0.978576 0
0 0.977066 0
0 0.975479 0
0 0.973754 0
0 0.971923 0
0 0.969833 0
0.225742 0.967468 0
0.458137 0.964889 0
0.600397 0.962005 0
0.718105 0.958572 0
0.820081 0.954894 0
0.901823 0.951308 0
0.96022 0.947921 0
0.994415 0.944869 0
1 0.942046 0
1 0.939437 0
1 0.937102 0
1 0.934859 0
1 0.932677 0
1 0.930541 0
1 0.928252 0
1 0.926162 0
1 0.924086 0
0 1 0
0 1 0
0 1 0
0 1 0
0 1 0
0 1 0
0 1 0
0 1 0
0 1 0
0 1 0
0 1 0
0 1 0
0 1 0
0 1 0
0 1 0
0 1 0
0.14818 1 0
0.406348 1 0
0.567041 0.999527 0
0.692363 0.997955 0
0.79881 0.994827 0
0.883726 0.991684 0
0.945052 0.988876 0
0.986175 0.986221 0
1 0.983886 0
1 0.98175 0
1 0.979828 0
1 0.978042 0
1 0.976303 0
1 0.974578 0
1 0.972702 0
1 0.971054 0
1 0.96939 0
0 1 0
0 1 0
0 1 0
0 1 0
0 1 0
0 1 0
0 1 0
0 1 0
0 1 0
