public/luts/Chicago_Slog3_LUT.cube
TITLE "Chicago_Slog3_LUT"
LUT_3D_SIZE 33
# MLUTS-Log3/Sony S-Gamut3.cine -> LA - Chicago_Slog3_LUT/LA - Chicago_Slog3_LUT, CineEI Shift 0.00, Black Level 2.53% IRE, Input 109% -> Output 100% - Created with LUTCalc v4.06 by Ben Turley February 2024
0.02327108 0.02468469 0.02309570
0.02327108 0.02468469 0.02309570
0.02327108 0.02468469 0.02309570
0.02323129 0.02526685 0.02362426
0.02495360 0.02569245 0.02471787
0.03652245 0.02999560 0.02858147
0.05166915 0.03603824 0.03456268
0.06667774 0.04010436 0.03875710
0.08386590 0.04370442 0.04229544
0.10985650 0.04783447 0.04683555
0.14744916 0.05278088 0.05197998
0.19464788 0.05746244 0.05683112
0.24639039 0.06061536 0.06022545
0.31230534 0.06232648 0.06197599
0.39725938 0.06111252 0.06086209
0.50146758 0.05948528 0.05928093
0.58354569 0.05137398 0.05117734
0.68196272 0.04412933 0.04391913
0.76155396 0.03448312 0.03818950
0.83013820 0.02493143 0.03260287
0.88666080 0.02200579 0.03661859
0.93870529 0.01827387 0.04257820
0.96098240 0.01650846 0.05308691
0.96502739 0.01572631 0.06558172
0.96706212 0.01576030 0.08234209
0.96700130 0.01650842 0.09938762
0.96614796 0.01665804 0.12240451
0.96418662 0.01590992 0.15519668
0.96309502 0.01554857 0.19355895
0.96423437 0.01625081 0.23826058
0.96536056 0.01676579 0.28838910
0.96621033 0.01606355 0.33473754
0.96709463 0.01536130 0.37715142
0.02327108 0.02468469 0.02309570
0.02327108 0.02468469 0.02309570
0.02327108 0.02468469 0.02309570
0.02323885 0.02527177 0.02363246
0.02496471 0.02569710 0.02472572
0.03655362 0.03000616 0.02859068
0.05171050 0.03604877 0.03457650
0.06671669 0.04011383 0.03876613
0.08390402 0.04371316 0.04230380
0.10990242 0.04783985 0.04684079
0.14749350 0.05278463 0.05198372
0.19468474 0.05746546 0.05683423
0.24642177 0.06061573 0.06022617
0.31234124 0.06232641 0.06197614
0.39730421 0.06111066 0.06085988
0.50151931 0.05948291 0.05927825
0.58358013 0.05137030 0.05117505
0.68198984 0.04412516 0.04391654
0.76157707 0.03447870 0.03818813
0.83015977 0.02492850 0.03260128
0.88666856 0.02200545 0.03662071
0.93870939 0.01827387 0.04258167
0.96098368 0.01650846 0.05101282
0.96502739 0.01572631 0.06287593
0.96709463 0.01566097 0.08092317
0.96706212 0.01632218 0.09988135
0.96658162 0.01680547 0.12105217
0.96514981 0.01655784 0.14988311
0.96379730 0.01587985 0.18955834
0.96430300 0.01571134 0.23639703
0.96542100 0.01629825 0.28647491
0.96621033 0.01606355 0.33430895
0.96709463 0.01536130 0.37676229
0.02327108 0.02468469 0.02309570
0.02327108 0.02468469 0.02309570
0.02327108 0.02468469 0.02309570
0.02323885 0.02527177 0.02363246
0.02497427 0.02570120 0.02473248
0.03656676 0.03001439 0.02859786
0.05174470 0.03605852 0.03458928
0.06675516 0.04012556 0.03877731
0.08394182 0.04372354 0.04231373
0.10994985 0.04784700 0.04684775
0.14753953 0.05279062 0.05198971
0.19472405 0.05746972 0.05683837
0.24645802 0.06061781 0.06022835
0.31237418 0.06232679 0.06197690
0.39733793 0.06111059 0.06086002
0.50157218 0.05948063 0.05927555
0.58363043 0.05136790 0.05117233
0.68201694 0.04412099 0.04391396
0.76161036 0.03447428 0.03818593
0.83018201 0.02492557 0.03259962
0.88668909 0.02200376 0.03661944
0.93871637 0.01827353 0.04258415
0.96098754 0.01650846 0.05101601
0.96502895 0.01572631 0.06117761
0.96709463 0.01566097 0.07725431
0.96709463 0.01622285 0.09869118
0.96664113 0.01661923 0.12147732
0.96557267 0.01670527 0.14811829
0.96475312 0.01652777 0.18477318
0.96502792 0.01604262 0.23281058
0.96549078 0.01575878 0.28423030
0.96627177 0.01559601 0.33257822
0.96709463 0.01536130 0.37637391
0.02306452 0.02558121 0.02417775
0.02306566 0.02558326 0.02418386
0.02306566 0.02558326 0.02418386
0.02376708 0.02554886 0.02423798
0.02538344 0.02617853 0.02509776
0.03468793 0.02963174 0.02819953
0.04944078 0.03552031 0.03381667
0.06807860 0.04033162 0.03896621
0.08673329 0.04433164 0.04292443
0.11512200 0.04832437 0.04724934
0.15413698 0.05330285 0.05234436
0.20266040 0.05791330 0.05709930
0.25874163 0.06076333 0.06026174
0.32596949 0.06224506 0.06175098
0.41579893 0.06028772 0.05972362
0.51951731 0.05824194 0.05763017
0.59845560 0.04991311 0.04928776
0.69210691 0.04248969 0.04180722
0.77089322 0.03255466 0.03593494
0.83956900 0.02320733 0.03003066
0.88869056 0.02132043 0.03176957
0.94003006 0.01759544 0.03789822
0.96098108 0.01659724 0.04447225
0.96458890 0.01604509 0.05335704
0.96669682 0.01548391 0.06838796
0.96674099 0.01573589 0.09050105
0.96690345 0.01616375 0.11470573
0.96650294 0.01631549 0.13890417
0.96543215 0.01648839 0.17528249
0.96489434 0.01654141 0.22490410
0.96527696 0.01605311 0.27444623
0.96628125 0.01563656 0.32333798
0.96709463 0.01547379 0.36858993
0.02407125 0.02730560 0.02539333
0.02407770 0.02731039 0.02539644
0.02408329 0.02731454 0.02539911
0.02507897 0.02724438 0.02542190
0.02568130 0.02706832 0.02544459
0.03539909 0.03023502 0.02863908
0.04734592 0.03502638 0.03313425
0.06552887 0.03967806 0.03824540
0.08845116 0.04465629 0.04322960
0.11799258 0.04890227 0.04784010
0.16037778 0.05391271 0.05285411
0.20905304 0.05860899 0.05756053
0.26976524 0.06109003 0.06044855
0.33929083 0.06242037 0.06179072
0.43423382 0.06007714 0.05924995
0.53618069 0.05685915 0.05590927
0.62187595 0.04868570 0.04773287
0.70570595 0.04069680 0.03950812
0.78111570 0.03069537 0.03341580
0.84888184 0.02352777 0.02747207
0.89919639 0.02045964 0.02896891
0.94230228 0.01680805 0.03250987
0.96243449 0.01581509 0.03884840
0.96451302 0.01618292 0.04570409
0.96616991 0.01585173 0.06071449
0.96629832 0.01548391 0.08183889
0.96650003 0.01560187 0.10441519
0.96690345 0.01582869 0.12949095
0.96649519 0.01606730 0.16503790
0.96540406 0.01647909 0.21579581
0.96497338 0.01652895 0.26373406
0.96605570 0.01602013 0.31331604
0.96709463 0.01560359 0.35975757
0.02556169 0.02976000 0.02722300
0.02556268 0.02976355 0.02722588
0.02556445 0.02976940 0.02722977
0.02575095 0.02960010 0.02723962
0.02716721 0.02950113 0.02727482
0.03182965 0.03149433 0.02862304
0.04430477 0.03623278 0.03311266
0.06325166 0.04156290 0.03816602
0.08635282 0.04666191 0.04320510
0.11683785 0.05000308 0.04792909
0.15823023 0.05438276 0.05280601
0.20670730 0.05895330 0.05749460
0.26515195 0.06115613 0.06045811
0.33600907 0.06256422 0.06189811
0.42646788 0.06061766 0.05994272
0.53279381 0.05721722 0.05623374
0.62036581 0.04912767 0.04820708
0.70313526 0.04107572 0.03988621
0.78060123 0.03100676 0.03223347
0.84780995 0.02336481 0.02610719
0.90262564 0.02023009 0.03050424
0.94717719 0.01657850 0.03437494
0.96241332 0.01544783 0.03590261
0.96434660 0.01579979 0.04184937
0.96607131 0.01630301 0.04544022
0.96644822 0.01613310 0.06186250
0.96637348 0.01579394 0.09049406
0.96651069 0.01584644 0.12090007
0.96686589 0.01603453 0.15419047
0.96636829 0.01629223 0.20685479
0.96543361 0.01662866 0.25448398
0.96590499 0.01633305 0.30665396
0.96702069 0.01582422 0.35261700
0.02765774 0.03310848 0.02908189
0.02765945 0.03311172 0.02908275
0.02766185 0.03311597 0.02908462
0.02792728 0.03289457 0.02909188
0.02829494 0.03265825 0.02910409
0.03324541 0.03497130 0.03060445
0.03953574 0.03757353 0.03286113
0.05944582 0.04311069 0.03796115
0.08413929 0.04923717 0.04340323
0.11513385 0.05302549 0.04815013
0.15434233 0.05553699 0.05264644
0.20304311 0.05939307 0.05714789
0.25819755 0.06123591 0.06030136
0.32823488 0.06248113 0.06179153
0.41419782 0.06088931 0.06026897
0.52139251 0.05820217 0.05727998
0.60549877 0.05000587 0.04918058
0.69464019 0.04220413 0.04118191
0.77481329 0.03216022 0.03326767
0.84274855 0.02302470 0.02564229
0.89755987 0.02067481 0.03017449
0.94884319 0.01657850 0.03750744
0.96368563 0.01544783 0.03887706
0.96367294 0.01557763 0.03929568
0.96523594 0.01606499 0.04225187
0.96659461 0.01668669 0.04274442
0.96677388 0.01654544 0.06634234
0.96638790 0.01624928 0.10702530
0.96647783 0.01626305 0.14332439
0.96669993 0.01634464 0.19798263
0.96636314 0.01652698 0.24554514
0.96642809 0.01637351 0.29895117
0.96692027 0.01607790 0.34725933
0.03062807 0.03942505 0.03254748
0.03062993 0.03942835 0.03254917
0.03063180 0.03943109 0.03255022
0.02958238 0.03667174 0.03134013
0.02988990 0.03646948 0.03134894
0.03301763 0.03764795 0.03219195
0.03934263 0.04031637 0.03463083
0.05119820 0.04803428 0.03812969
0.07529906 0.05417333 0.04359975
0.10928363 0.06143508 0.04846491
0.14898136 0.06410323 0.05298716
0.19800030 0.06582070 0.05712780
0.25281163 0.06750982 0.06020197
0.32008798 0.06674686 0.06183663
0.40306751 0.06134976 0.06048950
0.50914598 0.05932090 0.05811463
0.59318038 0.05085020 0.04993889
0.68789192 0.04322242 0.04213162
0.76814223 0.03354708 0.03421265
0.83618415 0.02378319 0.02594893
0.89174132 0.02134331 0.02870635
0.94216426 0.01721524 0.03630616
0.96413381 0.01544783 0.03821482
0.96412096 0.01557763 0.03862442
0.96416664 0.01556898 0.03900168
0.96542057 0.01614058 0.03944727
0.96666757 0.01656552 0.04400100
0.96657883 0.01635455 0.07761359
0.96576381 0.01621539 0.12223028
0.96524176 0.01636731 0.17840712
0.96564018 0.01694844 0.22910662
0.96642712 0.01865304 0.28443088
0.96649235 0.01849956 0.33524165
0.03506906 0.04786346 0.03701681
0.03507097 0.04786682 0.03701852
0.03507288 0.04786985 0.03701988
0.03314999 0.04384671 0.03554174
0.03166262 0.04010160 0.03405550
0.03461525 0.04125326 0.03477593
0.03822590 0.04312359 0.03579640
0.05007002 0.05056134 0.03919972
0.06531514 0.06162475 0.04409217
0.09913281 0.06789237 0.04887482
0.14140462 0.07641978 0.05339828
0.19162559 0.07955850 0.05758587
0.24669696 0.08065177 0.06028020
0.31397414 0.07929810 0.06182905
0.39350648 0.06588827 0.06074979
0.49512630 0.06028971 0.05878262
0.58149375 0.05180256 0.05054299
0.68154664 0.04420390 0.04288556
0.76051395 0.03475726 0.03494545
0.82859410 0.02514688 0.02650440
0.88503150 0.02197174 0.02865996
0.93696756 0.01801177 0.03399492
0.95946873 0.01619126 0.03610539
0.96399173 0.01557763 0.03556116
0.96403726 0.01556898 0.03593968
0.96413402 0.01543918 0.03626391
0.96527260 0.01581402 0.04040971
0.96633625 0.01594382 0.05049235
0.96581491 0.01588984 0.08974925
0.96383894 0.01618241 0.14769234
0.96351274 0.01683386 0.20510832
0.96508567 0.02066197 0.26080454
0.96586617 0.02236657 0.31811562
0.03940578 0.06085124 0.04191469
0.03940718 0.06085454 0.04191618
0.03940901 0.06085749 0.04191813
0.03798542 0.05569813 0.04034424
0.03621842 0.05084350 0.03853096
0.03666183 0.04924551 0.03801502
0.03987240 0.05079827 0.03879909
0.04688481 0.05639700 0.04066956
0.06233230 0.06657608 0.04567027
0.08898059 0.08401049 0.04971291
0.13088651 0.09143039 0.05430643
0.18801569 0.10259726 0.05806658
0.24524459 0.10584452 0.06045996
0.31270120 0.10648025 0.06159433
0.39236438 0.09691836 0.06020977
0.48911762 0.08519936 0.05833616
0.57452301 0.07605184 0.05027821
0.67802381 0.06761594 0.04266800
0.75509967 0.05799523 0.03464759
0.82322654 0.04826200 0.02609800
0.87928188 0.02894159 0.02806560
0.93364408 0.02374794 0.03252488
0.95713006 0.01796067 0.03486732
0.96157826 0.01729394 0.03410879
0.96393196 0.01565529 0.03424101
0.96402846 0.01552550 0.03466572
0.96433894 0.01551003 0.03504199
0.96536414 0.01564157 0.04460891
0.96570021 0.01656659 0.06172879
0.96379339 0.01742303 0.11672472
0.96216587 0.02269056 0.17853591
0.96314638 0.05059208 0.23842405
0.96470458 0.05952055 0.29967431
0.04497615 0.07860830 0.04779217
0.04497722 0.07861377 0.04779301
0.04497887 0.07861866 0.04779430
0.04348317 0.07227221 0.04648478
0.04168300 0.06651707 0.04477598
0.04131103 0.06420870 0.04373896
0.04241298 0.06346171 0.04350783
0.04807256 0.06795721 0.04521631
0.05639931 0.07610351 0.04735041
0.08336128 0.09249959 0.05153363
0.12075142 0.11524108 0.05577588
0.17638203 0.12482653 0.05965783
0.24729271 0.14232342 0.06062983
0.31693844 0.14545673 0.06162108
0.39636355 0.14474767 0.05918192
0.49427073 0.13514378 0.05665671
0.57604882 0.12695110 0.04902773
0.67784234 0.11968363 0.04138390
0.75439078 0.10804638 0.03311625
0.82207047 0.09691932 0.02524017
0.87738138 0.06968041 0.02618137
0.93042116 0.04731860 0.03029926
0.95423668 0.02955577 0.03285756
0.96177413 0.02017522 0.03393210
0.96413106 0.01835682 0.03410170
0.96395024 0.01571047 0.03502164
0.96426012 0.01569499 0.03537783
0.96489589 0.01585100 0.03571787
0.96520296 0.01677777 0.05208549
0.96357414 0.01988968 0.08958666
0.96202331 0.02462313 0.14444150
0.96199822 0.10686379 0.21782985
0.96296967 0.13860997 0.27993310
0.04941501 0.09943725 0.05276012
0.04941574 0.09944268 0.05276090
0.04941662 0.09944734 0.05276184
0.04829642 0.09257540 0.05147379
0.04691787 0.08653580 0.04981796
0.04651899 0.08344756 0.04903154
0.04670099 0.08141857 0.04848888
0.04874008 0.08132627 0.04880154
0.05594874 0.08836310 0.05068953
0.07081660 0.10160357 0.05288958
0.11031443 0.12294792 0.05726082
0.15888962 0.15023776 0.06037073
0.23197801 0.17010797 0.06125548
0.31798875 0.19174689 0.06074442
0.40201440 0.19557052 0.05712391
0.50056939 0.19477075 0.05377217
0.57951272 0.18754536 0.04654811
0.67831387 0.17863435 0.03877689
0.74969769 0.17026561 0.03023458
0.81707272 0.15701211 0.02302501
0.87308671 0.13883120 0.02318145
0.92486056 0.10973011 0.02649941
0.95175063 0.09060694 0.03006462
0.96083221 0.06787365 0.03139056
0.96451996 0.05142105 0.03285471
0.96431757 0.04565355 0.03382852
0.96398288 0.03666605 0.03505839
0.96461512 0.03698023 0.03539849
0.96530865 0.03780203 0.03544803
0.96383818 0.04453342 0.06903864
0.96243775 0.05447938 0.11294830
0.96235626 0.12624246 0.18612127
0.96233064 0.21174485 0.25364637
0.05328819 0.12541339 0.05672833
0.05328866 0.12541970 0.05672884
0.05328945 0.12542460 0.05672970
0.05227217 0.11752443 0.05567089
0.05091555 0.10898568 0.05417761
0.05024412 0.10497807 0.05338928
0.05010203 0.10254991 0.05288740
0.05062253 0.09951592 0.05272951
0.05309897 0.09859808 0.05335936
0.06581473 0.11278152 0.05530313
0.08928923 0.13148749 0.05760610
0.13584436 0.16088676 0.06060772
0.20708838 0.19977067 0.06089576
0.29059780 0.22015973 0.06038980
0.40637782 0.25024965 0.05227622
0.51053067 0.25397789 0.04860080
0.58341146 0.25078819 0.04102850
0.67945698 0.24378550 0.03347133
0.74220434 0.24275552 0.02523612
0.80430696 0.23576528 0.02226666
0.86194985 0.23452725 0.02205100
0.91474043 0.22245095 0.02322399
0.94492849 0.20967390 0.02402786
0.96190952 0.19992182 0.02791110
0.96566715 0.18029541 0.02920215
0.96504821 0.16467511 0.03063152
0.96461469 0.15335701 0.03183641
0.96393809 0.13760904 0.03360678
0.96462347 0.13851696 0.03366364
0.96546639 0.14101261 0.03281312
0.96416456 0.15213251 0.07193154
0.96383921 0.18739222 0.14785246
0.96375268 0.25722071 0.22175825
0.05686071 0.15634862 0.06030891
0.05688001 0.15399978 0.06032337
0.05688053 0.15400779 0.06032374
0.05602013 0.14510266 0.05962825
0.05478848 0.13409257 0.05836433
0.05424706 0.12939433 0.05772985
0.05385402 0.12679050 0.05722713
0.05396624 0.12314511 0.05703533
0.05474678 0.11980419 0.05718111
0.06206894 0.12201237 0.05777646
0.08301027 0.14178316 0.05978405
0.11503466 0.17080409 0.06079801
0.18412020 0.20863431 0.06108761
0.25663968 0.24772514 0.05976579
0.37751293 0.28335311 0.05157141
0.51211049 0.31899719 0.04371196
0.59379319 0.32403930 0.03521023
0.68236824 0.32088682 0.02742606
0.74597158 0.32005776 0.02375668
0.79877961 0.31950863 0.01995462
0.85253959 0.31886752 0.01964028
0.90641532 0.32022216 0.02030828
0.93764611 0.31667273 0.02159680
0.95890004 0.31222088 0.02366666
0.96648067 0.30133225 0.02481281
0.96574984 0.28338230 0.02578446
0.96550221 0.26501311 0.02811919
0.96472164 0.24875354 0.02956054
0.96411410 0.23614333 0.03100069
0.96495060 0.23834469 0.03026730
0.96570271 0.24067315 0.03089883
0.96540162 0.27291338 0.10240236
0.96506921 0.30781175 0.18037966
0.05832609 0.19939979 0.06125959
0.05842730 0.18920131 0.06133243
0.05844805 0.18710256 0.06134731
0.05840996 0.18338799 0.06132306
0.05748539 0.17458971 0.06071631
0.05709416 0.16948293 0.06046487
0.05684017 0.16656870 0.06027216
0.05653759 0.16076019 0.06000242
0.05674188 0.15420169 0.05991561
0.06087496 0.14960001 0.05992745
0.07085088 0.15232919 0.06026902
0.10045598 0.18064212 0.06116287
0.14911235 0.21770550 0.06108538
0.22596771 0.25712565 0.05976302
0.33344448 0.31992783 0.04990616
0.45560470 0.35365364 0.04187866
0.59527202 0.40633891 0.02671697
0.68932895 0.41153143 0.02302619
0.75624854 0.41025669 0.02164487
0.80873073 0.40954076 0.01846557
0.85427160 0.40402470 0.01793713
0.90466116 0.40219100 0.01846240
0.93681504 0.39645545 0.01826792
0.95890004 0.38977420 0.01912520
0.96614305 0.38114627 0.02092084
0.96475994 0.36819012 0.02192333
0.96501069 0.35314488 0.02309305
0.96622721 0.33851397 0.02309147
0.96552032 0.32488276 0.02377280
0.96511951 0.31510834 0.02518612
0.96587242 0.31765222 0.02553738
0.96601963 0.32087571 0.03523687
0.96571833 0.35091894 0.10636852
0.05941534 0.23857081 0.06195985
0.05958906 0.22906096 0.06211103
0.05967261 0.22012297 0.06218561
0.05966488 0.21524554 0.06218219
0.05962859 0.21116276 0.06215349
0.05963532 0.20771279 0.06217191
0.05959037 0.20499359 0.06215010
0.05950960 0.19976093 0.06207640
0.05931572 0.19294821 0.06188717
0.06186579 0.18666641 0.06177714
0.06873037 0.18230100 0.06167771
0.08886656 0.19043489 0.06154161
0.13345878 0.22626389 0.06140609
0.19364801 0.26632812 0.05993162
0.29928094 0.32840324 0.05006817
0.40193252 0.38423718 0.04005115
0.54949515 0.44506947 0.02530155
0.68988474 0.51285225 0.01929828
0.76474231 0.51823457 0.01776777
0.81683095 0.51725730 0.01653429
0.86179308 0.51186355 0.01647703
0.90547712 0.50487715 0.01678820
0.93554735 0.49498061 0.01653908
0.95820050 0.48332917 0.01591336
0.96621748 0.46825138 0.01612783
0.96450530 0.45185357 0.01726152
0.96409532 0.43500965 0.01857705
0.96579934 0.41796508 0.02039122
0.96685969 0.40332269 0.02185035
0.96634945 0.39317246 0.02253399
0.96601719 0.38442887 0.02344021
0.96616492 0.38729958 0.02854695
0.96631432 0.39021461 0.03816930
0.05524524 0.29461726 0.05846041
0.05683557 0.27957223 0.06007779
0.05703380 0.26777429 0.06022975
0.05719746 0.26449465 0.06035753
0.05719914 0.26046902 0.06036306
0.05778089 0.25261409 0.06078306
0.05802007 0.24781778 0.06096492
0.05844709 0.24120709 0.06127424
0.05867385 0.23368948 0.06142385
0.05887709 0.22560413 0.06153476
0.06189502 0.21775156 0.06176692
0.07471287 0.21867656 0.06153178
0.10557460 0.23482634 0.06112729
0.15937208 0.27538246 0.05997454
0.24145223 0.32659049 0.05261817
0.35224861 0.38259157 0.04272155
0.50164454 0.46884520 0.02302381
0.64180106 0.53059566 0.01800773
0.75010287 0.56424958 0.01745499
0.80971813 0.56814248 0.01637194
0.85505263 0.56267900 0.01566018
0.90021954 0.55701266 0.01573335
0.93396572 0.54918027 0.01606299
0.95806306 0.54116899 0.01582310
0.96665351 0.53284750 0.01535037
0.96560460 0.52220687 0.01569870
0.96482177 0.50726710 0.01656241
0.96579934 0.48774275 0.01747294
0.96657520 0.46950226 0.01877137
0.96498840 0.45456682 0.01881221
0.96473831 0.44276714 0.01945792
0.96596000 0.43274395 0.02011755
0.96610733 0.43643752 0.02334350
0.05147933 0.34757740 0.05424083
0.05295795 0.33408524 0.05580445
0.05445341 0.32019160 0.05745846
0.05469861 0.31692137 0.05775517
0.05485876 0.31504635 0.05795915
0.05543041 0.30789215 0.05864494
0.05618543 0.29900989 0.05947984
0.05685628 0.29001064 0.06011734
0.05756959 0.27963755 0.06063604
0.05821599 0.26804554 0.06107595
0.05892102 0.25543906 0.06152461
0.06685379 0.25178706 0.06162063
0.09221408 0.26360377 0.06111758
0.12818413 0.28614975 0.05962938
0.21125220 0.33441828 0.05266145
0.29790735 0.38095980 0.04553384
0.43641126 0.46648990 0.02512457
0.57576055 0.54602002 0.01671717
0.68820501 0.58395405 0.01616444
0.79437709 0.63348496 0.01605917
0.85014415 0.63241947 0.01549784
0.89431035 0.62234596 0.01491651
0.92713341 0.61072545 0.01500814
0.95558619 0.59806456 0.01534700
0.96647502 0.58458319 0.01526010
0.96602847 0.57167286 0.01492124
0.96592421 0.55909537 0.01499958
0.96654512 0.54424382 0.01545830
0.96657520 0.53202408 0.01585310
0.96471849 0.52135431 0.01573324
0.96341077 0.50943281 0.01573614
0.96468164 0.49898751 0.01613525
0.96590280 0.48867529 0.01679488
0.04476211 0.39183482 0.04698516
0.04550591 0.38798510 0.04764189
0.04684295 0.37550157 0.04901171
0.04711404 0.37335446 0.04931269
0.04724964 0.37186133 0.04947519
0.04790361 0.36824000 0.05024081
0.04859023 0.36172509 0.05101729
0.05004792 0.35040322 0.05261158
0.05114061 0.34011475 0.05378676
0.05231430 0.32975259 0.05507991
0.05347392 0.31777520 0.05636227
0.05721779 0.30379890 0.05761167
0.07180884 0.29745614 0.05890081
0.10591320 0.31259007 0.05716179
0.17938398 0.34604353 0.05163894
0.25926038 0.39078830 0.04470198
0.37670880 0.47124938 0.02485457
0.52763371 0.54932432 0.01655506
0.66133421 0.62186427 0.01638185
0.76786981 0.66724656 0.01627658
0.84214307 0.68314174 0.01575173
0.88920570 0.67936842 0.01516395
0.92441218 0.67272611 0.01529233
0.95365280 0.66475809 0.01566970
0.96625932 0.65181310 0.01542252
0.96659910 0.63471314 0.01491522
0.96632715 0.61731220 0.01478750
0.96662163 0.59812698 0.01510236
0.96706172 0.57743705 0.01547873
0.96633679 0.56150893 0.01553869
0.96467780 0.55048244 0.01538963
0.96460105 0.53988503 0.01519836
0.96589836 0.53282348 0.01559747
0.03721457 0.44403938 0.03903165
0.03782032 0.44003284 0.03970154
0.03848770 0.43518457 0.04044255
0.03878137 0.43225919 0.04076958
0.03890421 0.43140836 0.04091349
0.03961488 0.42649020 0.04174017
0.04055754 0.42052954 0.04283114
0.04220910 0.40918481 0.04466111
0.04452098 0.39652309 0.04675367
0.04621389 0.38543749 0.04832993
0.04780430 0.37457508 0.05014382
0.05169969 0.36292866 0.05186736
0.06133208 0.34536242 0.05411364
0.08593979 0.34289187 0.05435018
0.15381904 0.37025367 0.04949527
0.22815862 0.40264034 0.04350915
0.34373179 0.48550675 0.02366371
0.46225171 0.55285247 0.01629759
0.59192063 0.62717268 0.01612437
0.72756314 0.69221355 0.01660170
0.80585391 0.71341477 0.01607685
0.87930594 0.73362754 0.01544712
0.91726467 0.72604180 0.01556905
0.95027211 0.71353579 0.01605229
0.96494572 0.69868362 0.01584362
0.96643529 0.68540087 0.01508366
0.96696452 0.67383308 0.01478750
0.96696452 0.66232773 0.01497649
0.96706172 0.64498193 0.01520899
0.96693876 0.61957225 0.01535887
0.96641318 0.59839323 0.01538963
0.96598575 0.58212028 0.01505077
0.96590821 0.56910119 0.01485950
0.02333632 0.52793940 0.02361803
0.02328404 0.52618004 0.02378260
0.02394818 0.52332371 0.02465584
0.02384977 0.51941733 0.02496771
0.02402298 0.51875909 0.02507214
0.02421706 0.51365103 0.02538892
0.02508569 0.50817487 0.02593058
0.02620148 0.49753465 0.02785099
0.02849259 0.48209262 0.02977595
0.03149515 0.46490956 0.03344768
0.03448835 0.45010718 0.03652576
0.03741116 0.43213866 0.03944367
0.04520481 0.41012403 0.04329169
0.06449911 0.39211076 0.04603538
0.12895842 0.39144288 0.04640260
0.20198620 0.42263622 0.04059749
0.29689245 0.48674860 0.02475943
0.40556723 0.55276954 0.01673156
0.53961781 0.62707832 0.01534772
0.67317535 0.69215696 0.01582504
0.77779095 0.75082757 0.01667408
0.84618420 0.76868450 0.01604434
0.90624922 0.77376237 0.01567349
0.94139278 0.76655030 0.01606011
0.96265827 0.75477236 0.01614909
0.96616748 0.73480269 0.01552353
0.96709463 0.71478667 0.01488973
0.96709463 0.69824533 0.01482530
0.96709463 0.68511308 0.01515070
0.96703708 0.66985516 0.01559427
0.96693059 0.65225128 0.01563076
0.96678212 0.63013974 0.01505077
0.96634408 0.61251111 0.01471191
0.01809789 0.60301679 0.01737489
0.01798120 0.60077827 0.01737489
0.01794717 0.59816549 0.01743691
0.01790372 0.59250890 0.01760687
0.01781820 0.58707272 0.01774964
0.01788202 0.58106066 0.01796004
0.01794797 0.57378081 0.01822364
0.01869834 0.56516315 0.01896098
0.01970499 0.55499838 0.01989998
0.02112754 0.54372762 0.02145373
0.02305755 0.53300881 0.02367056
0.02303190 0.51987063 0.02410548
0.02759390 0.49718275 0.02903923
0.04615162 0.47210611 0.03326763
0.10910342 0.44787028 0.03734050
0.17727998 0.44845783 0.03711124
0.26268646 0.50542435 0.02305275
0.36030579 0.55121077 0.01735728
0.49165113 0.62482344 0.01576915
0.61191351 0.69129159 0.01491859
0.71386042 0.74936310 0.01576763
0.81543365 0.78962473 0.01670959
0.87704232 0.79526388 0.01633874
0.93318915 0.79655173 0.01609733
0.95604917 0.78832953 0.01608969
0.96407707 0.77982596 0.01583370
