public/luts/Chicago_Slog3_LUT.cube
TITLE "Chicago_Slog3_LUT"
LUT_3D_SIZE 9
# MLUTS-Log3/Sony S-Gamut3.cine -> LA - Chicago_Slog3_LUT/LA - Chicago_Slog3_LUT, CineEI Shift 0.00, Black Level 2.53% IRE, Input 109% -> Output 100% - Created with LUTCalc v4.06 by Ben Turley February 2024
0.02327108 0.02468469 0.02309570
0.02495360 0.02569245 0.02471787
0.08386590 0.04370442 0.04229544
0.24639039 0.06061536 0.06022545
0.58354569 0.05137398 0.05117734
0.88666080 0.02200579 0.03661859
0.96706212 0.01576030 0.08234209
0.96309502 0.01554857 0.19355895
0.96709463 0.01536130 0.37715142
0.02407125 0.02730560 0.02539333
0.02568130 0.02706832 0.02544459
0.08845116 0.04465629 0.04322960
0.26976524 0.06109003 0.06044855
0.62187595 0.04868570 0.04773287
0.89919639 0.02045964 0.02896891
0.96616991 0.01585173 0.06071449
0.96649519 0.01606730 0.16503790
0.96709463 0.01560359 0.35975757
0.03506906 0.04786346 0.03701681
0.03166262 0.04010160 0.03405550
0.06531514 0.06162475 0.04409217
0.24669696 0.08065177 0.06028020
0.58149375 0.05180256 0.05054299
0.88503150 0.02197174 0.02865996
0.96403726 0.01556898 0.03593968
0.96581491 0.01588984 0.08974925
0.96586617 0.02236657 0.31811562
0.05328819 0.12541339 0.05672833
0.05091555 0.10898568 0.05417761
0.05309897 0.09859808 0.05335936
0.20708838 0.19977067 0.06089576
0.58341146 0.25078819 0.04102850
0.86194985 0.23452725 0.02205100
0.96566715 0.18029541 0.02920215
0.96462347 0.13851696 0.03366364
0.96375268 0.25722071 0.22175825
0.05524524 0.29461726 0.05846041
0.05719914 0.26046902 0.06036306
0.05867385 0.23368948 0.06142385
0.10557460 0.23482634 0.06112729
0.50164454 0.46884520 0.02302381
0.85505263 0.56267900 0.01566018
0.96665351 0.53284750 0.01535037
0.96657520 0.46950226 0.01877137
0.96610733 0.43643752 0.02334350
0.02333632 0.52793940 0.02361803
0.02402298 0.51875909 0.02507214
0.02849259 0.48209262 0.02977595
0.04520481 0.41012403 0.04329169
0.29689245 0.48674860 0.02475943
0.77779095 0.75082757 0.01667408
0.96265827 0.75477236 0.01614909
0.96709463 0.68511308 0.01515070
0.96634408 0.61251111 0.01471191
0.01919737 0.82707586 0.07850216
0.01940042 0.82251140 0.07551128
0.01889466 0.79967774 0.06081017
0.01765511 0.77017234 0.03480293
0.29399803 0.69357572 0.01671467
0.63149326 0.78597397 0.01877554
0.91404240 0.88473859 0.01617283
0.96424299 0.84446106 0.01578042
0.96607547 0.77827917 0.01471191
0.17038542 0.96159108 0.57267024
0.17467140 0.96140082 0.57232118
0.23577076 0.96025127 0.56849564
0.41317762 0.95404213 0.55920759
0.55519804 0.93662339 0.53194130
0.67866754 0.91771000 0.48454881
0.82921815 0.93995406 0.39239368
0.96624458 0.96155589 0.11191905
0.96554118 0.90716342 0.03380584
0.82136462 1.00035789 0.91173873
0.82231377 0.99948880 0.91148784
0.83095199 0.99889069 0.91340497
0.83391447 0.99742043 0.91703632
0.84774202 0.99500594 0.91772775
0.87570920 0.99599201 0.92327062
0.90329981 0.99131717 0.92416864
0.92659937 0.99256956 0.87115357
0.96709463 0.99261220 0.72586349
0.02546144 0.02828235 0.03478142
0.02834490 0.02828165 0.03016657
0.09011129 0.04504354 0.04463278
0.25142784 0.06073331 0.06052655
0.60149202 0.04997740 0.04902917
0.90069830 0.02032716 0.02841676
0.96513032 0.01612068 0.07397575
0.96531183 0.01635688 0.19281264
0.96666186 0.01550015 0.38150767
0.02488899 0.02767403 0.03006202
0.02619601 0.02850526 0.02879651
0.08780393 0.04454305 0.04347763
0.26009803 0.06097524 0.06033076
0.60729604 0.04959990 0.04866966
0.89845613 0.02056144 0.03439217
0.96589130 0.01595630 0.04702942
0.96373609 0.01641308 0.16261190
0.96086618 0.01718661 0.35333345
0.03798956 0.05567228 0.04505001
0.03600493 0.04890861 0.04152596
0.07092518 0.06583829 0.04597359
0.25533789 0.08632171 0.06050335
0.60319242 0.05164891 0.04912378
0.89540174 0.02125374 0.02915576
0.96566190 0.01661506 0.03738495
0.96548347 0.01594492 0.08182084
0.96596169 0.04651880 0.31526732
0.05476101 0.13734153 0.05948643
0.05265867 0.11968486 0.05723272
0.05729721 0.10443078 0.05389314
0.22001108 0.20758442 0.06073096
0.60496051 0.26859564 0.03747250
0.87346515 0.26173222 0.02069837
0.96518053 0.19967082 0.02877464
0.96535812 0.14299297 0.03336713
0.96363646 0.26282955 0.22475353
0.05555647 0.29359914 0.05897184
0.05808840 0.25257492 0.06100526
0.05884747 0.22714217 0.06154632
0.11643335 0.24327025 0.06107835
0.52184623 0.48550083 0.02339281
0.85766840 0.56798221 0.01560939
0.96653152 0.53518917 0.01497629
0.96629176 0.47219865 0.01919185
0.96676666 0.43866493 0.02565617
0.02323019 0.52443157 0.02446587
0.02524913 0.51179038 0.02559622
0.02964261 0.47419204 0.03119421
0.04802771 0.40299675 0.04470010
0.31107864 0.49709006 0.02302236
0.78182046 0.75263778 0.01565212
0.96421280 0.75225901 0.01573037
0.96663097 0.68458702 0.01520008
0.96522877 0.61315793 0.01471191
0.01929253 0.82593545 0.07759746
0.01987163 0.81884181 0.07411297
0.01760466 0.79569885 0.05945110
0.02015253 0.76590587 0.03278426
0.30217295 0.69275854 0.01711152
0.64008665 0.78857708 0.01885717
0.91468737 0.88800817 0.01606172
0.96633705 0.84280997 0.01527196
0.96665769 0.77827867 0.01491338
0.17438766 0.96143556 0.57292276
0.17591201 0.96166024 0.57302756
0.24421754 0.95886045 0.57027084
0.41600847 0.95178202 0.55634085
0.55554116 0.93637221 0.53329492
0.67758530 0.91936743 0.48585791
0.83198462 0.93930649 0.39044405
0.96697934 0.95919400 0.10962543
0.96636416 0.90496216 0.03153889
0.82294921 0.99886720 0.91448980
0.82302562 0.99975190 0.91639730
0.82719102 0.99779665 0.91221463
0.83435091 0.99708686 0.91623776
0.84822050 0.99500932 0.91987000
0.87479710 0.99451081 0.92215017
0.90363740 0.98886229 0.92399835
0.92967650 0.99268622 0.86998089
0.96680265 0.99198721 0.72436645
0.03740493 0.04059216 0.10717055
0.04214588 0.04120363 0.10857216
0.09697946 0.04732805 0.09474496
0.30518248 0.06139578 0.11593748
0.65605366 0.04616806 0.09593871
0.91131606 0.01941372 0.04989652
0.96658455 0.01615591 0.06402193
0.96198346 0.01566841 0.18287089
0.96709463 0.01632255 0.38769334
0.03842055 0.04418255 0.11119982
0.03811069 0.04257371 0.10307435
0.09762109 0.04782623 0.10073960
0.30786719 0.06146687 0.11504898
0.65354317 0.04644068 0.08731975
0.90829164 0.01991272 0.04031433
0.96468114 0.01577445 0.04154769
0.96606520 0.01599480 0.15813543
0.96632683 0.01682955 0.36612786
0.04422910 0.07116558 0.09340901
0.04391378 0.06987911 0.09068121
0.08394724 0.08591847 0.10182054
0.29760092 0.07154215 0.08982125
0.65324219 0.04667129 0.05284893
0.90749121 0.01993786 0.02854436
0.96496592 0.01654657 0.03597965
0.96515735 0.01639177 0.07253103
0.96490005 0.08884011 0.33361874
0.05790927 0.19082630 0.11965251
0.05759716 0.17535401 0.11466804
0.06166981 0.17766260 0.10771897
0.25546710 0.23426264 0.06258953
0.64121857 0.27126965 0.03451649
0.88420962 0.29383317 0.01970911
0.96593806 0.25743077 0.02650033
0.96551857 0.16839145 0.03004798
0.96619087 0.28009868 0.23131906
0.04741710 0.36910194 0.09863408
0.05065045 0.34198795 0.08174172
0.05352206 0.31778778 0.08802550
0.13845225 0.27622122 0.06286396
0.55951061 0.51303983 0.02195066
0.87469805 0.57871096 0.01594509
0.96597319 0.54588766 0.01580156
0.96544676 0.48139740 0.01935448
0.96633232 0.43984240 0.03526376
0.02124861 0.57077759 0.02336733
0.02148999 0.56605595 0.02234238
0.02366427 0.53123470 0.02531461
0.06619253 0.42670830 0.04066924
0.35682568 0.52712815 0.02351254
0.79786661 0.76173101 0.01548340
0.96312994 0.75789630 0.01551131
0.96668915 0.68318036 0.01516598
0.96513605 0.61023236 0.01497009
0.01966954 0.82778513 0.07840477
0.01973955 0.82118591 0.07381249
0.01775122 0.79385560 0.05344901
0.05803129 0.75732194 0.03102074
0.33350202 0.69403532 0.01712742
0.66160098 0.79663203 0.01910148
0.92295567 0.88961273 0.01583933
0.96611650 0.84360374 0.01497849
0.96539357 0.77472621 0.01526254
0.17778775 0.96207233 0.57695767
0.17925443 0.96304680 0.57782074
0.26553511 0.95978778 0.57285624
0.42464029 0.95327502 0.55561941
0.55834867 0.93620846 0.53085251
0.68369154 0.91671350 0.48942545
0.83726897 0.94041548 0.39026606
0.96628475 0.96041510 0.11464727
0.96663813 0.90368358 0.03147964
0.82100672 0.99980403 0.91259023
0.82252532 0.99808758 0.91080731
0.82815675 0.99876743 0.91479040
0.83544831 0.99745986 0.91546640
0.84642799 0.99761498 0.92115949
0.87770141 0.99287642 0.92320035
0.90353382 0.99119230 0.91938346
0.92634368 0.99352843 0.86849396
0.96702196 0.99387472 0.72293055
0.05221891 0.05626465 0.28914516
0.05242390 0.05632874 0.29398022
0.18989375 0.06060764 0.31503388
0.36794751 0.06044184 0.30889498
0.73567740 0.03451811 0.35011017
0.93994904 0.01660373 0.34542879
0.96466950 0.01546514 0.27477983
0.96472982 0.01603190 0.24298579
0.96359460 0.01546514 0.41198675
0.05342744 0.06246729 0.31235273
0.05255919 0.05970678 0.29230715
0.18047634 0.06063061 0.32042319
0.36937407 0.06049546 0.31615122
0.73120548 0.03512917 0.34354551
0.93627159 0.01717015 0.33329137
0.96664791 0.01593206 0.26501959
0.96619100 0.01581752 0.23007283
0.96566052 0.01673817 0.39383131
0.05452423 0.11015199 0.24156252
0.05405481 0.10555145 0.23681920
0.10092102 0.12106376 0.29443907
0.35832674 0.10966162 0.31030754
0.71303795 0.04156544 0.33661143
0.93021746 0.01786058 0.31157727
0.96564965 0.01595777 0.23541802
0.96559529 0.01613353 0.16594597
0.96639402 0.10187910 0.35463585
0.05730708 0.23753380 0.27480122
0.05802021 0.22395068 0.25551624
0.05825609 0.24696326 0.27430593
0.29365701 0.29139052 0.29358286
0.67817434 0.26161829 0.23856034
0.91109231 0.23363312 0.19008354
0.96517642 0.22408552 0.09879731
0.96690837 0.16801414 0.03256248
0.96565752 0.26649776 0.28635098
0.02404821 0.50318297 0.35661460
0.02784753 0.46802534 0.32443196
0.02681702 0.47832144 0.31666706
0.20849552 0.42491427 0.26512416
0.60563168 0.55366332 0.13507106
0.88470765 0.55751872 0.02343475
0.96595281 0.52775830 0.01551176
0.96615906 0.47050205 0.01866021
0.96709463 0.42366508 0.06973164
0.01597648 0.67924072 0.32479540
0.01615197 0.67858068 0.31955396
0.01592265 0.67550402 0.29758892
0.11004041 0.60915093 0.23224438
0.37455135 0.54402892 0.10062678
0.81571767 0.77503408 0.01612705
0.96522951 0.75116088 0.01577907
0.96705840 0.67759216 0.01538210
0.96709463 0.58548413 0.01719766
0.02128463 0.86085017 0.34572779
0.02111743 0.86093230 0.34126494
0.02082013 0.84935935 0.33461655
0.09494637 0.81166180 0.25404401
0.35824442 0.72152544 0.08747363
0.67359467 0.80685176 0.01944873
0.93351653 0.88832386 0.01610354
0.96694714 0.83847596 0.01524856
0.96667413 0.76571726 0.01657013
0.17557608 0.96500820 0.59015596
0.17872306 0.96486838 0.58894720
0.26986227 0.96089806 0.59724318
0.41968897 0.95342574 0.56085384
0.55570997 0.93762017 0.53557595
0.68487778 0.91956755 0.49426334
0.83979467 0.94150510 0.38901072
0.96631139 0.96055974 0.10982442
0.96632236 0.89716124 0.02931655
0.81893848 0.99878835 0.91156350
0.82334688 0.99858882 0.91413213
0.82708001 0.99838156 0.91350397
0.83647301 0.99805491 0.91843696
0.84393192 0.99994049 0.91834975
0.87076520 0.99480994 0.92316548
0.90001205 0.99367599 0.92264975
0.92925426 0.99080080 0.87331939
0.96709463 0.98963097 0.71083270
0.05938243 0.06277004 0.57254883
0.05944151 0.06267222 0.58026197
0.28289768 0.06064763 0.62676296
0.60650945 0.04983470 0.68238978
0.78055339 0.03890657 0.67280453
0.95676295 0.04780360 0.66179147
0.96673611 0.03754178 0.59455771
0.96570215 0.02311051 0.54003446
0.96634970 0.16569594 0.54135671
0.06047677 0.09017303 0.62129176
0.05970702 0.07954223 0.58809610
0.26824044 0.06127163 0.63492921
0.59361361 0.05103952 0.68170761
0.77595840 0.03856892 0.67062835
0.95453253 0.04717878 0.66459390
0.96612757 0.03944840 0.60111060
0.96448361 0.05041952 0.54474685
0.96572827 0.17139170 0.53089797
0.05889868 0.15408325 0.53719277
0.05849901 0.15626975 0.54615515
0.15355816 0.18382014 0.59644539
0.55340251 0.20501017 0.67428447
0.76524632 0.15636386 0.67004970
0.94164918 0.20390723 0.66576040
0.96633283 0.22299704 0.61323052
0.96492714 0.30431482 0.58140122
0.96554818 0.33599788 0.54210980
0.05036404 0.30673717 0.52513792
0.05196631 0.29289053 0.50851851
0.05006024 0.30833769 0.52887041
0.38464848 0.37850468 0.62126117
0.70559056 0.43735190 0.66173630
0.90471080 0.47783732 0.66185088
0.96627992 0.48202666 0.62337194
0.96627432 0.47353279 0.55819890
0.96281698 0.35770686 0.44554594
0.02227919 0.52929118 0.55985145
0.02376623 0.51403756 0.54697984
0.02285891 0.53947710 0.55919868
0.19490071 0.56586373 0.57801368
0.60918761 0.61348991 0.60709472
0.86490692 0.57879576 0.52870343
0.96516383 0.54479829 0.42431217
0.96608788 0.47756669 0.27199242
0.96580966 0.38599729 0.22368904
0.01630518 0.78477529 0.66875775
0.01528436 0.78568479 0.66682356
0.01584333 0.78722860 0.66692117
0.21618245 0.77878104 0.64010854
0.50018768 0.70362865 0.53812270
0.81162382 0.79118597 0.42553900
0.96372350 0.72753781 0.13508570
0.96625398 0.64955530 0.02221808
0.96669672 0.55312123 0.01527398
0.03981608 0.90221996 0.65588777
0.04122877 0.90021200 0.65482244
0.03666002 0.89715023 0.64722393
0.20553902 0.88445927 0.61784024
0.44023877 0.83636906 0.52663897
0.64421485 0.79583453 0.30234493
0.93451710 0.89234086 0.08371981
0.96677112 0.82415157 0.01591143
0.96663240 0.73656998 0.01682391
0.17843146 0.97011398 0.70485596
0.17800562 0.97125535 0.69961023
0.19059421 0.97213381 0.69472657
0.46155189 0.96193357 0.69838645
0.56554976 0.94771198 0.65331074
0.67573957 0.92186314 0.53136654
0.83702897 0.93992871 0.40169404
0.96673572 0.95900465 0.10061389
0.96451657 0.89097326 0.02324489
0.81918532 0.99999616 0.91213397
0.82126506 1.00026650 0.91330076
0.82663743 0.99838285 0.91379873
0.83363918 0.99904485 0.91607247
0.84157488 0.99775111 0.91683897
0.86198201 0.99692241 0.92160522
0.89875107 0.99228554 0.92410920
0.92494057 0.99196919 0.88146139
0.96709463 0.98746363 0.70854202
0.09670211 0.10458778 0.82389708
0.15361783 0.09785412 0.83355268
0.42459439 0.08191154 0.84464628
0.67737728 0.08257317 0.87389300
0.87033769 0.12416794 0.89370913
0.95687419 0.07062931 0.86965936
0.96421121 0.08048111 0.82233996
0.96576940 0.25711533 0.77756417
0.96611173 0.50756944 0.77091143
0.11498272 0.18486406 0.84638521
0.14499833 0.16384815 0.82957470
0.41247587 0.14283976 0.84581395
0.66781131 0.13634050 0.87082472
0.85945783 0.17650837 0.89434036
0.95237788 0.08622177 0.86657594
0.96635200 0.14809459 0.82545632
0.96558354 0.37363730 0.78278572
0.96686269 0.50737123 0.76685836
0.06433779 0.26682149 0.80763967
0.06545460 0.26601104 0.81480089
0.34170765 0.31406523 0.83748458
0.62952749 0.35648443 0.86078743
0.83484944 0.43028544 0.88605896
0.93840897 0.34587307 0.86341569
0.96662589 0.47010037 0.83248111
0.96576127 0.56125692 0.80525222
0.96508984 0.61427524 0.78170669
0.04216848 0.39158219 0.77372101
0.04173355 0.38939413 0.77229983
0.06459567 0.41838375 0.80131893
0.52585667 0.51099976 0.83967046
0.77617028 0.59929826 0.86773062
0.89762112 0.59267475 0.85703644
0.96515461 0.67363133 0.84726589
0.96651975 0.69146024 0.82920522
0.96599482 0.70881416 0.81773653
0.01642351 0.57905293 0.77771359
0.01750618 0.57097211 0.77344077
0.01694026 0.58149227 0.77825144
0.16143920 0.59218927 0.78607416
0.66886933 0.68691855 0.83688689
0.84396301 0.74605900 0.84876113
0.94428298 0.77740759 0.84893594
0.96608186 0.77564104 0.83357732
0.96673336 0.75187411 0.78845631
0.01589480 0.77261889 0.79090630
0.01596425 0.77459028 0.79179769
0.01595089 0.78201019 0.79846123
0.20707972 0.78817890 0.80904516
0.58065950 0.80230059 0.81543139
0.78180132 0.82180573 0.81716762
0.93408129 0.79405512 0.77750536
0.96623000 0.73890361 0.66155802
0.96293952 0.57747394 0.38493710
0.05230656 0.93327871 0.84892505
0.05030959 0.93217458 0.85094181
0.13934920 0.93082877 0.85194402
0.45612330 0.92139260 0.84668242
0.63108210 0.90562896 0.83489602
0.68982673 0.85772639 0.75267394
0.90065286 0.89985539 0.66388936
0.96668980 0.81311157 0.24508506
0.96596831 0.68727282 0.01909573
0.21319266 0.97845346 0.84163198
0.21264165 0.97988142 0.84287747
0.28008111 0.97846140 0.83907498
0.49299184 0.97438186 0.83341176
0.63494020 0.96490366 0.82813956
0.69979113 0.94545535 0.77865730
0.81007687 0.93657176 0.63673331
0.96478524 0.95821539 0.20717685
0.96487087 0.86671535 0.01617671
0.80624763 0.99736588 0.92149526
0.80715743 1.00073894 0.92299041
0.81441411 1.00195576 0.92183089
0.83079713 0.99818107 0.92265250
0.84116171 0.99949315 0.92222754
0.84932940 0.99937729 0.92054666
0.89118922 0.99399042 0.92371682
0.92122423 0.99212544 0.88685820
0.96440631 0.99249875 0.69884592
0.40976655 0.32673529 0.95052004
0.46139238 0.32844783 0.95113563
0.57914216 0.34044373 0.95632209
0.71312386 0.36920663 0.96049538
0.85040654 0.41569540 0.96282866
0.95704986 0.47144842 0.96739073
0.96709463 0.28725369 0.95815054
0.96610093 0.45769990 0.90525042
0.96661158 0.67275980 0.88412592
0.42772402 0.38358372 0.95770206
0.45547030 0.37143037 0.95522290
0.56970015 0.38430108 0.95425724
0.70790282 0.41771962 0.95860852
0.84404346 0.47803370 0.96138231
0.95151608 0.53581333 0.96419379
0.96695985 0.40629744 0.95316521
0.96637812 0.53052680 0.90419351
0.96704536 0.67616122 0.88809956
0.30652222 0.45855571 0.94513889
0.38634059 0.46172874 0.94159376
0.55203702 0.51780339 0.94671185
0.69198385 0.54521897 0.95283781
0.82538720 0.59870378 0.95735207
0.92609194 0.67111784 0.95996178
0.96604219 0.59569359 0.94812380
0.96662264 0.66865685 0.91153523
0.96617357 0.71621407 0.89179082
0.13929705 0.55251621 0.93377711
0.19468255 0.55418662 0.93356899
0.45226282 0.59202379 0.93406583
0.65497645 0.65442310 0.94136574
0.79010754 0.69835995 0.94646218
0.89958839 0.76973225 0.95257617
0.96085977 0.73734368 0.94178596
0.96623279 0.77765822 0.92134468
0.96640955 0.79134891 0.90429541
0.06136273 0.66185648 0.91580902
0.05971342 0.65809891 0.91253159
0.10668298 0.66590770 0.91372382
0.49089071 0.69174933 0.92558284
0.73182373 0.77006249 0.93383384
0.86656703 0.82873224 0.94594734
0.93550930 0.82956144 0.93737529
0.96691617 0.84939168 0.92695899
0.96594643 0.84788988 0.91399531
0.05543992 0.78694065 0.91420186
0.05628424 0.78771975 0.91360303
0.08710366 0.78975947 0.91617732
0.27820269 0.79003463 0.91287802
0.55788914 0.79103757 0.90517187
0.80704788 0.85385646 0.92816666
0.90683395 0.88730344 0.93562540
0.96282399 0.89566534 0.93360555
0.96509196 0.88669012 0.92094142
0.06124158 0.90242790 0.91741051
0.05830347 0.90210294 0.91134945
0.09083391 0.90096360 0.91311641
0.36904346 0.90195573 0.91516440
0.61730337 0.90503818 0.91451586
0.76985826 0.91031431 0.91297043
0.87302759 0.91669256 0.91344321
0.96357797 0.89996047 0.89132542
0.96709463 0.84742696 0.82425020
0.19191165 0.98658907 0.93476368
0.19088969 0.98465393 0.93431884
0.32889671 0.98260270 0.93224853
0.56531578 0.98032173 0.93456705
0.69728393 0.97630199 0.93299399
0.78749685 0.96720085 0.92280393
0.82646235 0.94490732 0.87873547
0.95308495 0.96020742 0.81498303
0.96646255 0.84103152 0.10190099
0.78894894 1.00067747 0.95437470
0.79010062 1.00223929 0.95568736
0.80173055 1.00091626 0.95089368
0.82158166 1.00011218 0.95099738
0.83770723 0.99860716 0.94289393
0.84980310 0.99659624 0.94084505
0.87794615 0.99494254 0.93337529
0.91893754 0.99353214 0.90201118
0.96655989 0.98640450 0.67656353
0.67785655 0.67325940 1.00099366
0.68846625 0.67588344 0.99895892
0.72827408 0.67903028 0.99619959
0.78491880 0.68979005 0.99580406
0.84894289 0.70571980 0.99590270
0.91539127 0.73947359 0.99064214
0.96656806 0.74637178 0.98780026
0.96633066 0.67288834 0.98600641
0.96709463 0.75354345 0.95868839
0.67894295 0.68627014 0.99502911
0.68874660 0.68784214 0.99460832
0.73049012 0.69369520 0.99296009
0.78447490 0.70474911 0.99409276
0.84746548 0.72548321 0.99287095
0.91201095 0.75618394 0.99227444
0.96584929 0.75738801 0.98987748
0.96650617 0.67590048 0.98297094
0.96709463 0.75671157 0.95462782
0.67563239 0.73095299 0.99113277
0.68641968 0.73408058 0.99075044
0.73106600 0.75396271 0.98913182
0.78233463 0.76716526 0.99002118
0.84346026 0.78102098 0.98884845
0.90454238 0.79597027 0.98839789
0.96120062 0.80114255 0.98768344
0.96656975 0.74732858 0.98025011
0.96429741 0.77368293 0.95686481
0.66387691 0.78110812 0.98966588
0.67436051 0.78198054 0.98621817
0.71524274 0.78983920 0.98620256
0.77760559 0.80937691 0.98886196
0.83684842 0.82607132 0.98548280
0.89422807 0.84435252 0.98577936
0.94845199 0.85368252 0.98424034
0.96704602 0.81330060 0.97643984
0.96582591 0.82827884 0.96103163
0.54056386 0.79885877 0.98519187
0.56500104 0.79917603 0.98483577
0.66031390 0.82259261 0.98340444
0.74448664 0.84302214 0.98255348
0.81671029 0.85685198 0.98122242
0.88106932 0.87648700 0.98171769
0.93601602 0.89297753 0.98221997
0.96560503 0.87251867 0.97764260
0.96585692 0.87853907 0.96156913
0.43725742 0.84846438 0.97954731
0.46701175 0.85029333 0.98017671
0.53825787 0.85228775 0.98014944
0.62530588 0.85620561 0.98103245
0.75068997 0.87108220 0.97810971
0.85162384 0.89888975 0.98098564
0.91854954 0.92188903 0.97865675
0.96089171 0.91391352 0.97878125
0.96647609 0.92217463 0.96508486
0.38412433 0.90646034 0.97733193
0.41616050 0.90705782 0.97858558
0.51456940 0.91004652 0.97765633
0.60082965 0.91054539 0.97502575
0.68992441 0.91270947 0.97685359
0.77607374 0.91104532 0.96913964
0.89322067 0.93599383 0.97315348
0.94353374 0.95023660 0.97655048
0.96464945 0.94969220 0.97267605
0.36490086 0.96246365 0.97527773
0.36201544 0.96315803 0.97411887
0.42091002 0.96362282 0.97403945
0.55921771 0.96523114 0.97149405
0.68427209 0.96562528 0.97108283
0.78618829 0.96432851 0.97002023
0.86782391 0.96689912 0.96841850
0.93377834 0.96891521 0.96974694
0.96651186 0.95744615 0.95490568
0.76692053 1.00193983 0.98149256
0.76956853 1.00318771 0.98329316
0.77963798 1.00152580 0.98224827
0.79672810 1.00129038 0.98116834
0.82324017 1.00013020 0.97941919
0.84395721 1.00009255 0.97754356
0.87215358 0.99568644 0.97328179
0.92521855 0.99213203 0.96679594
0.96387249 0.99196855 0.93816655
0.84414737 0.87946743 1.00444894
0.84417900 0.87949377 1.00200242
0.84965988 0.88382622 1.00224057
0.87028862 0.88086946 1.00415946
0.89638281 0.88444282 1.00287135
0.92358183 0.88836106 0.99988336
0.95168836 0.88999459 1.00048984
0.96470294 0.88261775 1.00203332
0.96561616 0.86817221 0.99775883
0.84047800 0.88391765 1.00430476
0.84429971 0.87959908 1.00444106
0.85397706 0.88077474 1.00243850
0.87037419 0.88193468 1.00208851
0.89404122 0.88602104 1.00211667
0.92293876 0.88778023 0.99900011
0.95340775 0.88861959 1.00006037
0.96654784 0.88377197 1.00298077
0.96161264 0.86686926 0.99450019
0.83841904 0.88821272 1.00202817
0.84134080 0.88939268 1.00355169
0.85255872 0.89211477 1.00304321
0.86873362 0.89043001 1.00298882
0.89441983 0.88786725 1.00345965
0.92273752 0.88721250 1.00193645
0.95734676 0.88871810 1.00360705
0.96685939 0.88198716 1.00158083
0.96699486 0.86467629 0.99391076
0.83485238 0.90295588 1.00249820
0.83843857 0.90350960 1.00115988
0.85042791 0.90535953 1.00115699
0.86665549 0.90594397 0.99924534
0.89103003 0.90197646 1.00029144
0.91810181 0.90396978 1.00024204
0.95229502 0.90060342 1.00145323
0.96657092 0.88230403 0.99960080
0.96701996 0.86349503 0.99231322
0.80533568 0.91060600 1.00155959
0.81243076 0.91116012 1.00054262
0.83592431 0.91704807 1.00089116
0.85679650 0.91809381 0.99991860
0.88530377 0.92078700 0.99748206
0.91506888 0.92221651 0.99967498
0.94361976 0.92177140 0.99552633
0.96610997 0.90708408 0.99787791
0.96360967 0.88443780 0.98675819
0.75170690 0.92117332 1.00156168
0.76118176 0.92357359 0.99914268
0.77823892 0.92457595 0.99913802
0.81240717 0.92970038 1.00102166
0.86344532 0.93374197 1.00010494
0.90032125 0.93781322 1.00036835
0.93542799 0.94029733 0.99534385
0.96361329 0.93746345 0.99433396
0.96506146 0.92225487 0.99134324
0.73822728 0.94440568 0.99702507
0.73614908 0.94725595 0.99754063
0.73956708 0.94510915 0.99771056
0.76779440 0.94480188 0.99954915
0.80298409 0.94828167 0.99843434
0.85912549 0.94903124 0.99513483
0.92249424 0.95770306 0.99644546
0.95960263 0.96020829 0.99349352
0.96571365 0.95312176 0.98844230
0.74647631 0.97617257 0.99430999
0.74541434 0.97567397 0.99376578
0.74580960 0.97468998 0.99248089
0.74794903 0.97340059 0.99288366
0.76271136 0.97199572 0.99210500
0.82777349 0.97168634 0.99353020
0.88643180 0.97216417 0.99386780
0.94180434 0.97926455 0.99547741
0.95907947 0.97939510 0.99303009
0.75681471 0.99543396 0.98903607
0.75785491 0.99660959 0.99106245
0.75564936 0.99546003 0.98936627
0.75908707 0.99771603 0.99139248
0.75890210 0.99729926 0.99099599
0.77740457 0.99842952 0.98749968
0.87282902 0.99206477 0.99014508
0.93444146 0.99244179 0.99147374
0.95318459 0.99557814 0.99396258
