public/luts/Chicago_Slog3_LUT.cube
TITLE "Chicago_Slog3_LUT"
LUT_3D_SIZE 5
# MLUTS-Log3/Sony S-Gamut3.cine -> LA - Chicago_Slog3_LUT/LA - Chicago_Slog3_LUT, CineEI Shift 0.00, Black Level 2.53% IRE, Input 109% -> Output 100% - Created with LUTCalc v4.06 by Ben Turley February 2024
0.02327108 0.02468469 0.02309570
0.08386590 0.04370442 0.04229544
0.58354569 0.05137398 0.05117734
0.96706212 0.01576030 0.08234209
0.96709463 0.01536130 0.37715142
0.03506906 0.04786346 0.03701681
0.06531514 0.06162475 0.04409217
0.58149375 0.05180256 0.05054299
0.96403726 0.01556898 0.03593968
0.96586617 0.02236657 0.31811562
0.05524524 0.29461726 0.05846041
0.05867385 0.23368948 0.06142385
0.50164454 0.46884520 0.02302381
0.96665351 0.53284750 0.01535037
0.96610733 0.43643752 0.02334350
0.01919737 0.82707586 0.07850216
0.01889466 0.79967774 0.06081017
0.29399803 0.69357572 0.01671467
0.91404240 0.88473859 0.01617283
0.96607547 0.77827917 0.01471191
0.82136462 1.00035789 0.91173873
0.83095199 0.99889069 0.91340497
0.84774202 0.99500594 0.91772775
0.90329981 0.99131717 0.92416864
0.96709463 0.99261220 0.72586349
0.03740493 0.04059216 0.10717055
0.09697946 0.04732805 0.09474496
0.65605366 0.04616806 0.09593871
0.96658455 0.01615591 0.06402193
0.96709463 0.01632255 0.38769334
0.04422910 0.07116558 0.09340901
0.08394724 0.08591847 0.10182054
0.65324219 0.04667129 0.05284893
0.96496592 0.01654657 0.03597965
0.96490005 0.08884011 0.33361874
0.04741710 0.36910194 0.09863408
0.05352206 0.31778778 0.08802550
0.55951061 0.51303983 0.02195066
0.96597319 0.54588766 0.01580156
0.96633232 0.43984240 0.03526376
0.01966954 0.82778513 0.07840477
0.01775122 0.79385560 0.05344901
0.33350202 0.69403532 0.01712742
0.92295567 0.88961273 0.01583933
0.96539357 0.77472621 0.01526254
0.82100672 0.99980403 0.91259023
0.82815675 0.99876743 0.91479040
0.84642799 0.99761498 0.92115949
0.90353382 0.99119230 0.91938346
0.96702196 0.99387472 0.72293055
0.05938243 0.06277004 0.57254883
0.28289768 0.06064763 0.62676296
0.78055339 0.03890657 0.67280453
0.96673611 0.03754178 0.59455771
0.96634970 0.16569594 0.54135671
0.05889868 0.15408325 0.53719277
0.15355816 0.18382014 0.59644539
0.76524632 0.15636386 0.67004970
0.96633283 0.22299704 0.61323052
0.96554818 0.33599788 0.54210980
0.02227919 0.52929118 0.55985145
0.02285891 0.53947710 0.55919868
0.60918761 0.61348991 0.60709472
0.96516383 0.54479829 0.42431217
0.96580966 0.38599729 0.22368904
0.03981608 0.90221996 0.65588777
0.03666002 0.89715023 0.64722393
0.44023877 0.83636906 0.52663897
0.93451710 0.89234086 0.08371981
0.96663240 0.73656998 0.01682391
0.81918532 0.99999616 0.91213397
0.82663743 0.99838285 0.91379873
0.84157488 0.99775111 0.91683897
0.89875107 0.99228554 0.92410920
0.96709463 0.98746363 0.70854202
0.40976655 0.32673529 0.95052004
0.57914216 0.34044373 0.95632209
0.85040654 0.41569540 0.96282866
0.96709463 0.28725369 0.95815054
0.96661158 0.67275980 0.88412592
0.30652222 0.45855571 0.94513889
0.55203702 0.51780339 0.94671185
0.82538720 0.59870378 0.95735207
0.96604219 0.59569359 0.94812380
0.96617357 0.71621407 0.89179082
0.06136273 0.66185648 0.91580902
0.10668298 0.66590770 0.91372382
0.73182373 0.77006249 0.93383384
0.93550930 0.82956144 0.93737529
0.96594643 0.84788988 0.91399531
0.06124158 0.90242790 0.91741051
0.09083391 0.90096360 0.91311641
0.61730337 0.90503818 0.91451586
0.87302759 0.91669256 0.91344321
0.96709463 0.84742696 0.82425020
0.78894894 1.00067747 0.95437470
0.80173055 1.00091626 0.95089368
0.83770723 0.99860716 0.94289393
0.87794615 0.99494254 0.93337529
0.96655989 0.98640450 0.67656353
0.84414737 0.87946743 1.00444894
0.84965988 0.88382622 1.00224057
0.89638281 0.88444282 1.00287135
0.95168836 0.88999459 1.00048984
0.96561616 0.86817221 0.99775883
0.83841904 0.88821272 1.00202817
0.85255872 0.89211477 1.00304321
0.89441983 0.88786725 1.00345965
0.95734676 0.88871810 1.00360705
0.96699486 0.86467629 0.99391076
0.80533568 0.91060600 1.00155959
0.83592431 0.91704807 1.00089116
0.88530377 0.92078700 0.99748206
0.94361976 0.92177140 0.99552633
0.96360967 0.88443780 0.98675819
0.73822728 0.94440568 0.99702507
0.73956708 0.94510915 0.99771056
0.80298409 0.94828167 0.99843434
0.92249424 0.95770306 0.99644546
0.96571365 0.95312176 0.98844230
0.75681471 0.99543396 0.98903607
0.75564936 0.99546003 0.98936627
0.75890210 0.99729926 0.99099599
0.87282902 0.99206477 0.99014508
0.95318459 0.99557814 0.99396258
