public/luts/Christmas-Sony-Slog-3-Alex-Don.cube
TITLE "Generated by Resolve"
LUT_3D_SIZE 9
0 0 0
0.0131838 0 0
0.0820325 0 0
0.224002 0 0
0.501015 0 0
0.800946 0 0
1 0 0
1 0 0
1 0 0
3.0518e-05 0.0116732 0
0.00601205 0.00581369 0.000213626
0.0717937 0.000640879 0.000213626
0.208057 0 0
0.500633 0 0
0.814694 0 0
1 0 0
1 0 0
1 0 0
0.000137331 0.0545052 0
0.000137331 0.0566262 0
0.0557717 0.0493782 0.00251774
0.19086 0.0284428 0.0011902
0.497856 0 0
0.8271 0 0
1 0 0
1 0 0
1 0 0
0.000335698 0.13315 0
0.000366217 0.142367 0
0.00164797 0.147738 0
0.15462 0.135531 0.00714122
0.474128 0.0933547 0.0043946
0.840696 0.0470283 0.00274662
1 0.0170748 0.00292973
1 0.00729381 0.00291447
1 0 0
0.000808728 0.315785 0
0.000869764 0.341924 0
0.0009308 0.366918 0
0.0168154 0.390234 0
0.407858 0.349248 0.0197757
0.779202 0.320089 0.0315099
1 0.301946 0.0202335
1 0.291264 0.0188144
1 0.284321 0.0178988
0.0015259 0.596979 0
0.00161746 0.633768 0
0.00169375 0.663035 0
0.00177005 0.695033 0
0.254139 0.671656 0
0.717754 0.606714 0.0356756
1 0.57882 0.0681468
1 0.565881 0.0670329
1 0.559014 0.0661631
0.00224308 0.881956 0
0.00234989 0.918944 0
0.00242618 0.949264 0
0.00248722 0.975158 0
0.15053 0.955108 0
0.609384 0.891768 0
0.998337 0.840146 0.0500343
1 0.816754 0.0688792
1 0.805249 0.0696574
0.00254826 0.999588 0
0.00254826 0.999588 0
0.00254826 0.999588 0
0.00254826 0.999588 0
0.0816052 0.999405 0
0.512398 0.987442 0
0.920974 0.962188 0.0250095
1 0.954025 0.0570535
1 0.954025 0.0570535
0.00254826 0.999588 0
0.00254826 0.999588 0
0.00254826 0.999588 0
0.00254826 0.999588 0
0.0299077 0.999542 0
0.457389 0.990539 0
0.875593 0.964462 0.0184329
1 0.954025 0.0570535
1 0.954025 0.0570535
0 3.0518e-05 0.0126345
0.0133516 1.5259e-05 0.0142519
0.0817121 0 0.00898756
0.221454 0 0
0.497017 0 0
0.799954 0 0
1 0 0
1 0 0
1 0 0
0 0.00985733 0.00981155
0.00418097 0.00508125 0.00485237
0.0715801 0.000534066 0.000213626
0.209018 0 0
0.502739 0 0
0.817502 0 0
1 0 0
1 0 0
1 0 0
0.000137331 0.0550393 0
0.00015259 0.0575418 0
0.057084 0.0505531 0.00257877
0.194415 0.0294957 0.00123598
0.503685 0 0
0.833509 0 0
1 0 0
1 0 0
1 0 0
0.000350958 0.135912 0
0.000366217 0.145846 0
0.0012665 0.152285 0
0.1608 0.140719 0.00746166
0.484459 0.099794 0.00482185
0.851972 0.0552529 0.00288396
1 0.0265812 0.00294499
1 0.0163272 0.00291447
1 0.0077821 0.00291447
0.000823987 0.324056 0
0.000900282 0.351629 0
0.000961318 0.378698 0
0.0210574 0.402731 0
0.421546 0.360739 0.0204623
0.791455 0.332052 0.0335088
1 0.314321 0.0219883
1 0.304601 0.0205997
1 0.297856 0.0196689
0.00155642 0.609125 0
0.00164797 0.646281 0
0.00172427 0.676905 0
0.00180056 0.70837 0
0.270237 0.682261 0
0.731136 0.617945 0.036347
1 0.5897 0.0692607
1 0.577157 0.0683452
1 0.569863 0.0675212
0.00228885 0.89424 0
0.00238041 0.931502 0
0.0024567 0.96199 0
0.00251774 0.985443 0
0.164553 0.965331 0
0.622202 0.90135 0
1 0.849592 0.0505989
1 0.826841 0.0681621
1 0.815183 0.0690013
0.00254826 0.999588 0
0.00254826 0.999588 0
0.00254826 0.999588 0
0.00254826 0.999588 0
0.0963455 0.999329 0
0.528054 0.986496 0
0.934829 0.961532 0.0270695
1 0.954025 0.0570535
1 0.954025 0.0570535
0.00254826 0.999588 0
0.00254826 0.999588 0
0.00254826 0.999588 0
0.00254826 0.999588 0
0.0440833 0.999512 0
0.474418 0.989624 0
0.891081 0.963668 0.0206455
1 0.954025 0.0570535
1 0.954025 0.0570535
0 0.000183108 0.0868544
0.0107729 0.000167849 0.0876173
0.0776379 6.10361e-05 0.0792554
0.213703 0 0.0458381
0.489891 0 0
0.796353 0 0
1 0 0
1 0 0
1 0 0
0 0.00573739 0.079881
0.00149538 0.00311284 0.0771191
0.068513 4.57771e-05 0.0700389
0.206317 0 0.0431525
0.50103 0 0
0.817334 0 0
1 0 0
1 0 0
1 0 0
0 0.0529183 0.0506294
0 0.0557412 0.0535286
0.0486152 0.0514076 0.0494698
0.194003 0.0287633 0.0274662
0.505898 0 0
0.837278 0 0
1 0 0
1 0 0
1 0 0
0.000350958 0.136538 0
0.000366217 0.147265 0.00102235
0.000976577 0.15555 0
0.166583 0.145602 0.0078584
0.493751 0.106416 0.00531014
0.861524 0.0635691 0.00306706
1 0.0352941 0.00302129
1 0.0245365 0.00294499
1 0.0156405 0.00292973
0.000839246 0.330022 0
0.000915541 0.359777 0
0.000991836 0.389364 0
0.0265354 0.414313 0
0.434287 0.371389 0.0211185
0.802991 0.342947 0.0353094
1 0.325307 0.0236362
1 0.315999 0.0222477
1 0.309453 0.0213016
0.00157168 0.618585 0
0.00167849 0.655909 0
0.00175479 0.688319 0
0.00183108 0.719417 0
0.283864 0.691264 0
0.742336 0.627344 0.0369116
1 0.598642 0.070161
1 0.586221 0.0691997
1 0.578332 0.0684672
0.00230411 0.903975 0
0.00239567 0.941497 0
0.00248722 0.97258 0
0.002533 0.993576 0
0.175708 0.973495 0
0.631861 0.908965 0
1 0.856687 0.0510262
1 0.834394 0.0676127
1 0.822568 0.0684825
0.00254826 0.999588 0
0.00254826 0.999588 0
0.00254826 0.999588 0
0.00254826 0.999588 0
0.107378 0.999283 0
0.539849 0.985763 0
0.94548 0.961044 0.0286564
1 0.954025 0.0570535
1 0.954025 0.0570535
0.00254826 0.999588 0
0.00254826 0.999588 0
0.00254826 0.999588 0
0.00254826 0.999588 0
0.0557259 0.999481 0
0.487404 0.988907 0
0.903075 0.963058 0.022385
1 0.954025 0.0570535
1 0.954025 0.0570535
0 0.000549325 0.265446
0.00280766 0.000549325 0.266835
0.0639963 0.000427253 0.250538
0.192493 0.000137331 0.196201
0.474678 0 0.102083
0.787701 0 0.0168765
1 0 0
1 0 0
1 0 0
0 0.000961318 0.249104
0 0.000503548 0.245121
0.0569314 0.000411994 0.233585
0.19234 0.000137331 0.196216
0.490089 0 0.111788
0.811917 0 0.0267796
1 0 0
1 0 0
1 0 0
0 0.0442359 0.207782
0 0.0471199 0.215427
0.0392004 0.0433356 0.213931
0.184054 0.0223239 0.187655
0.499809 0 0.115434
0.837201 0 0.0437629
1 0 0.0109102
1 0 0
1 0 0
0 0.131991 0.126864
0 0.143252 0.138048
0 0.153414 0.147967
0.146746 0.152804 0.148562
0.494438 0.110552 0.107713
0.867109 0.0695354 0.0681468
1 0.0432136 0.0429236
1 0.0319371 0.0318303
1 0.0221103 0.0220493
0.000854505 0.335103 0
0.000900282 0.366079 0.00515755
0.000961318 0.396933 0.0129702
0.0335088 0.422751 0.0330663
0.442908 0.380484 0.0325475
0.813169 0.351797 0.0367437
1 0.333944 0.0249943
1 0.324895 0.0235752
1 0.318776 0.0226444
0.0016022 0.627405 0
0.00169375 0.665599 0
0.00178531 0.69868 0
0.0018616 0.728405 0
0.29427 0.698878 0
0.751644 0.63534 0.0373693
1 0.605982 0.0708476
1 0.593576 0.0698863
1 0.58526 0.0690929
0.00231937 0.911971 0
0.00242618 0.95021 0
0.00250248 0.981399 0
0.00254826 0.997238 0
0.183856 0.980224 0
0.639979 0.915328 0
1 0.862852 0.0513924
1 0.840574 0.067155
1 0.828611 0.06804
0.00254826 0.999588 0
0.00254826 0.999588 0
0.00254826 0.999588 0
0.00254826 0.999588 0
0.114992 0.999237 0
0.548226 0.985229 0
0.953063 0.960708 0.0297856
1 0.954025 0.0570535
1 0.954025 0.0570535
0.00254826 0.999588 0
0.00254826 0.999588 0
0.00254826 0.999588 0
0.00254826 0.999588 0
0.063508 0.999466 0
0.496406 0.988388 0
0.91133 0.962661 0.0235904
1 0.954025 0.0570535
1 0.954025 0.0570535
0 0.00129702 0.630732
0 0.00129702 0.630945
0.0331273 0.00120546 0.609934
0.15465 0.0009308 0.548913
0.435767 0.00030518 0.441978
0.756069 0 0.327977
1 0 0.238041
1 0 0.170321
1 0 0.123705
0 0.00125124 0.608499
0 0.00125124 0.605798
0.0278935 0.0011902 0.594156
0.159014 0.000946059 0.5552
0.455055 0.00030518 0.461646
0.782422 0 0.360647
1 0 0.282734
1 0 0.230655
1 0 0.194995
0 0.0200961 0.568826
0 0.0231479 0.579187
0.0129244 0.0201114 0.579538
0.154345 0.00483711 0.553887
0.470359 0.000320439 0.47686
0.812604 0 0.398138
1 0 0.340169
1 0 0.308003
1 0 0.284764
0 0.110643 0.483116
0 0.123186 0.502602
0 0.135134 0.519738
0.128603 0.137896 0.524147
0.477989 0.098085 0.483864
0.854582 0.0587015 0.443107
1 0.0340124 0.416236
1 0.0246738 0.401846
1 0.0171054 0.387671
0 0.324575 0.317296
0 0.355718 0.34818
0 0.386801 0.37911
0.0231022 0.413962 0.406241
0.382208 0.389212 0.384207
0.772778 0.356466 0.352941
1 0.332219 0.32958
1 0.322774 0.320165
1 0.316625 0.314031
0.000839246 0.623713 0.175784
0.000747692 0.66009 0.218463
0.000656138 0.691524 0.256428
0.000579843 0.719982 0.288243
0.265385 0.694957 0.265126
0.710658 0.637034 0.250309
1 0.609506 0.244633
1 0.596109 0.229465
1 0.587243 0.218158
0.00195315 0.908095 0.0835584
0.0018616 0.944121 0.127916
0.00178531 0.973419 0.164797
0.00172427 0.995697 0.1935
0.169345 0.97145 0.166674
0.605798 0.91313 0.114351
1 0.857542 0.132921
1 0.83418 0.128496
1 0.822263 0.115358
0.00244144 0.999619 0.0212406
0.00227359 0.99968 0.0661631
0.002121 0.999741 0.103746
0.00199893 0.999771 0.129
0.102327 0.999619 0.0990463
0.527672 0.98851 0.0352026
0.941573 0.961852 0.0425727
1 0.954131 0.0592966
1 0.954101 0.0584573
0.00254826 0.999588 0
0.0024567 0.999619 0.0186007
0.00234989 0.999649 0.0467536
0.00224308 0.999695 0.0724041
0.0553445 0.999603 0.0517433
0.486458 0.98938 0
0.904784 0.963027 0.0237125
1 0.954025 0.0570535
1 0.954025 0.0570535
0 0.00202945 0.986068
0 0.00202945 0.985153
0.00306706 0.00199893 0.97052
0.11487 0.00175479 0.922164
0.392065 0.0011902 0.827909
0.717281 0.000488289 0.725246
0.994934 0 0.646464
0.998856 0 0.585275
0.999176 0 0.541695
0 0.00199893 0.972396
0 0.00199893 0.972045
0.000686656 0.00198367 0.964797
0.122988 0.00175479 0.931701
0.415839 0.00120546 0.847181
0.747616 0.000503548 0.756069
0.998093 0 0.689082
0.998428 0 0.643687
0.998642 0 0.61323
0 0.00340276 0.944137
0 0.00424201 0.954314
0 0.00244144 0.955398
0.123568 0.00177005 0.934203
0.43801 0.00120546 0.86424
0.78497 0.000534066 0.793576
0.997711 6.10361e-05 0.743267
0.997909 0 0.715434
0.998047 0 0.695964
0 0.0881971 0.876326
0 0.101701 0.894514
0 0.116182 0.911131
0.109636 0.122332 0.918547
0.458915 0.0848554 0.882841
0.837766 0.0467994 0.846616
0.997253 0.0250401 0.82269
0.997314 0.0172427 0.809979
0.997375 0.0115969 0.798383
0 0.308415 0.734203
0 0.341436 0.760113
0 0.373861 0.786358
0.0113222 0.40267 0.812604
0.368139 0.378622 0.792447
0.759167 0.344701 0.764446
0.999039 0.319203 0.742779
0.999054 0.309438 0.733715
0.999069 0.303258 0.728817
0 0.610452 0.603403
0 0.647364 0.64007
0 0.679011 0.671336
0 0.70724 0.69955
0.24921 0.682292 0.676356
0.638804 0.642649 0.639948
0.982818 0.613626 0.612238
1 0.598825 0.597559
1 0.589136 0.587884
0 0.893462 0.513176
0 0.929885 0.551003
0 0.959167 0.580896
0 0.984054 0.606165
0.151217 0.957015 0.580331
0.538323 0.911589 0.537285
0.927123 0.860899 0.52578
1 0.837797 0.521614
1 0.826169 0.510201
0.000610361 1 0.444739
0.000396735 1 0.488334
0.000244144 1 0.520409
0.000137331 1 0.543053
0.0811017 1 0.515404
0.467613 0.999786 0.465843
0.858854 0.983932 0.433661
1 0.972839 0.442847
1 0.972274 0.431357
0.000823987 1 0.398749
0.000640879 1 0.438972
0.000488289 1 0.470573
0.000366217 1 0.494423
0.0349432 1 0.475685
0.429999 0.999756 0.427787
0.822599 0.98468 0.394812
1 0.971191 0.409216
1 0.970764 0.400336
0 0.00205997 0.997894
0 0.00205997 0.997894
0 0.00205997 0.997894
0.0833448 0.00195315 0.998489
0.355489 0.0016022 1
0.685603 0.00114443 1
0.979721 0.000656138 0.988693
0.996384 0.000518807 0.936507
0.996658 0.000411994 0.896056
0 0.00205997 0.997894
0 0.00205997 0.997894
0 0.00205997 0.997894
0.0931258 0.0019379 0.99855
0.383413 0.00157168 1
0.720333 0.00109865 1
0.995911 0.000671397 1
0.995972 0.000656138 0.997086
0.996155 0.000595102 0.96907
0 0.00205997 0.997894
0 0.00205997 0.997894
0 0.00205997 0.997894
0.0985428 0.00192264 0.998596
0.413031 0.0015259 1
0.76376 0.00103761 1
0.995911 0.000671397 1
0.995911 0.000671397 1
0.995911 0.000671397 1
0 0.0694438 0.997604
0 0.0838026 0.997543
0 0.100603 0.997467
0.0962844 0.109758 0.998093
0.446021 0.0747692 1
0.827146 0.0382391 1
0.995987 0.0195163 1
0.995972 0.0130465 1
0.995941 0.00866712 1
0 0.2972 0.996658
0 0.331685 0.996521
0 0.364767 0.996384
0.00584421 0.394415 0.996338
0.358633 0.370901 0.998627
0.749416 0.336522 1
0.997177 0.310384 1
0.997147 0.30045 1
0.997116 0.29398 1
0 0.602136 0.967544
0 0.639124 0.991913
0 0.670268 0.995178
0 0.698253 0.995178
0.237186 0.673365 0.996674
0.626337 0.633204 0.993713
0.970459 0.603433 0.974319
0.998611 0.587823 0.959243
0.998627 0.577707 0.949386
0 0.88394 0.876738
0 0.920378 0.912932
0 0.949187 0.941543
0 0.973541 0.965896
0.137087 0.946609 0.939956
0.524529 0.900328 0.896742
0.864622 0.86595 0.865003
1 0.844404 0.84419
1 0.832853 0.8327
0 1 0.806836
0 1 0.848127
0 1 0.878737
0 1 0.900725
0.0651713 1 0.873899
0.452949 1 0.824994
0.793164 0.999908 0.792325
1 0.989441 0.783337
1 0.988907 0.772519
0 1 0.761242
0 1 0.800015
0 1 0.830823
0 1 0.854063
0.020264 1 0.836408
0.416098 1 0.789319
0.75935 0.999893 0.758312
1 0.9879 0.75172
1 0.987488 0.743404
0 0.00205997 0.997894
0 0.00205997 0.997894
0 0.00205997 0.997894
0.0652476 0.00196841 0.998367
0.330343 0.00163272 1
0.66305 0.00117494 1
0.963607 0.000717174 1
0.995911 0.000671397 1
0.995911 0.000671397 1
0 0.00205997 0.997894
0 0.00205997 0.997894
0 0.00205997 0.997894
0.0786755 0.00195315 0.998459
0.363317 0.00158694 1
0.703059 0.00112917 1
0.995911 0.000671397 1
0.995911 0.000671397 1
0.995911 0.000671397 1
0 0.00205997 0.997894
0 0.00205997 0.997894
0 0.00205997 0.997894
0.087068 0.0019379 0.99852
0.399619 0.00154116 1
0.752178 0.00105287 1
0.995911 0.000671397 1
0.995911 0.000671397 1
0.995911 0.000671397 1
0 0.0591745 0.99765
0 0.0755169 0.997574
0 0.09308 0.997497
0.0904707 0.103975 0.998077
0.439765 0.0697642 1
0.821759 0.0340887 1
0.995987 0.0167849 1
0.995956 0.0109712 1
0.995941 0.0071107 1
0 0.289631 0.996674
0 0.325567 0.996536
0 0.359503 0.996399
0.0047303 0.38996 0.996338
0.355016 0.36733 0.998627
0.745846 0.33257 1
0.997162 0.306325 1
0.997131 0.296239 1
0.997101 0.289464 1
0 0.59556 0.995544
0 0.633692 0.995407
0 0.665583 0.995285
0 0.693965 0.995193
0.232486 0.669062 0.996658
0.621485 0.628412 0.999191
0.964553 0.597971 1
0.998291 0.581369 1
0.998245 0.57052 1
0 0.87715 0.994583
0 0.91429 0.994461
0 0.943313 0.994369
0 0.96762 0.994293
0.129763 0.940536 0.995148
0.516686 0.893446 0.997543
0.85594 0.858442 0.999695
0.999329 0.836545 1
0.999283 0.824979 1
0 1 0.994171
0 1 0.994171
0 1 0.994171
0 1 0.994171
0.0548714 1 0.994507
0.443412 1 0.996765
0.783597 1 0.998749
0.997665 0.997665 0.997665
0.997665 0.997665 0.997665
0 1 0.994171
0 1 0.994171
0 1 0.994171
0 1 0.994171
0.0103151 1 0.994247
0.406638 1 0.996551
0.749844 1 0.99855
0.997665 0.997665 0.997665
0.997665 0.997665 0.997665
0 0.00205997 0.997894
0 0.00205997 0.997894
0 0.00205997 0.997894
0.0530709 0.00198367 0.998291
0.311452 0.00166323 1
0.647211 0.00120546 1
0.949645 0.000747692 1
0.995911 0.000671397 1
0.995911 0.000671397 1
0 0.00205997 0.997894
0 0.00205997 0.997894
0 0.00205997 0.997894
0.0683604 0.00196841 0.998383
0.34844 0.00161746 1
0.690654 0.00114443 1
0.995911 0.000671397 1
0.995911 0.000671397 1
0.995911 0.000671397 1
0 0.00205997 0.997894
0 0.00205997 0.997894
0 0.00205997 0.997894
0.0791028 0.00195315 0.998459
0.388571 0.00155642 1
0.743465 0.00106813 1
0.995911 0.000671397 1
0.995911 0.000671397 1
0.995911 0.000671397 1
0 0.0524453 0.997681
0 0.0697185 0.997604
0 0.0869306 0.997528
0.0853895 0.0989395 0.998062
0.433509 0.065568 1
0.816312 0.0302129 1
0.995972 0.014374 1
0.995956 0.00923171 1
0.995941 0.00567636 1
0 0.283772 0.996704
0 0.320134 0.996567
0 0.354314 0.996429
0.00445563 0.385443 0.996368
0.351644 0.364034 0.998611
0.743542 0.32961 1
0.997162 0.303746 1
0.997116 0.293339 1
0.997086 0.286076 1
0 0.591852 0.995544
0 0.630594 0.995407
0 0.662654 0.995285
0 0.691279 0.995193
0.229313 0.666606 0.996658
0.618433 0.625589 0.999191
0.961227 0.594598 1
0.998276 0.577203 1
0.99823 0.565759 1
0 0.874479 0.994583
0 0.91133 0.994461
0 0.939757 0.994369
0 0.963668 0.994293
0.125017 0.936751 0.995117
0.512444 0.889204 0.997528
0.851637 0.854185 0.99968
0.999313 0.831998 1
0.999268 0.820737 1
0 1 0.994171
0 1 0.994171
0 1 0.994171
0 1 0.994171
0.0484779 1 0.994476
0.438849 1 0.996735
0.77882 1 0.998718
0.997665 0.997665 0.997665
0.997665 0.997665 0.997665
0 1 0.994171
0 1 0.994171
0 1 0.994171
0 1 0.994171
0.0052491 1 0.994217
0.402243 1 0.996521
0.745968 1 0.99852
0.997665 0.997665 0.997665
0.997665 0.997665 0.997665
