public/luts/Christmas-Sony-Slog-3-Alex-Don.cube
TITLE "Generated by Resolve"
LUT_3D_SIZE 5
0 0 0
0.0820325 0 0
0.501015 0 0
1 0 0
1 0 0
0.000137331 0.0545052 0
0.0557717 0.0493782 0.00251774
0.497856 0 0
1 0 0
1 0 0
0.000808728 0.315785 0
0.0009308 0.366918 0
0.407858 0.349248 0.0197757
1 0.301946 0.0202335
1 0.284321 0.0178988
0.00224308 0.881956 0
0.00242618 0.949264 0
0.15053 0.955108 0
0.998337 0.840146 0.0500343
1 0.805249 0.0696574
0.00254826 0.999588 0
0.00254826 0.999588 0
0.0299077 0.999542 0
0.875593 0.964462 0.0184329
1 0.954025 0.0570535
0 0.000183108 0.0868544
0.0776379 6.10361e-05 0.0792554
0.489891 0 0
1 0 0
1 0 0
0 0.0529183 0.0506294
0.0486152 0.0514076 0.0494698
0.505898 0 0
1 0 0
1 0 0
0.000839246 0.330022 0
0.000991836 0.389364 0
0.434287 0.371389 0.0211185
1 0.325307 0.0236362
1 0.309453 0.0213016
0.00230411 0.903975 0
0.00248722 0.97258 0
0.175708 0.973495 0
1 0.856687 0.0510262
1 0.822568 0.0684825
0.00254826 0.999588 0
0.00254826 0.999588 0
0.0557259 0.999481 0
0.903075 0.963058 0.022385
1 0.954025 0.0570535
0 0.00129702 0.630732
0.0331273 0.00120546 0.609934
0.435767 0.00030518 0.441978
1 0 0.238041
1 0 0.123705
0 0.0200961 0.568826
0.0129244 0.0201114 0.579538
0.470359 0.000320439 0.47686
1 0 0.340169
1 0 0.284764
0 0.324575 0.317296
0 0.386801 0.37911
0.382208 0.389212 0.384207
1 0.332219 0.32958
1 0.316625 0.314031
0.00195315 0.908095 0.0835584
0.00178531 0.973419 0.164797
0.169345 0.97145 0.166674
1 0.857542 0.132921
1 0.822263 0.115358
0.00254826 0.999588 0
0.00234989 0.999649 0.0467536
0.0553445 0.999603 0.0517433
0.904784 0.963027 0.0237125
1 0.954025 0.0570535
0 0.00205997 0.997894
0 0.00205997 0.997894
0.355489 0.0016022 1
0.979721 0.000656138 0.988693
0.996658 0.000411994 0.896056
0 0.00205997 0.997894
0 0.00205997 0.997894
0.413031 0.0015259 1
0.995911 0.000671397 1
0.995911 0.000671397 1
0 0.2972 0.996658
0 0.364767 0.996384
0.358633 0.370901 0.998627
0.997177 0.310384 1
0.997116 0.29398 1
0 0.88394 0.876738
0 0.949187 0.941543
0.137087 0.946609 0.939956
0.864622 0.86595 0.865003
1 0.832853 0.8327
0 1 0.761242
0 1 0.830823
0.020264 1 0.836408
0.75935 0.999893 0.758312
1 0.987488 0.743404
0 0.00205997 0.997894
0 0.00205997 0.997894
0.311452 0.00166323 1
0.949645 0.000747692 1
0.995911 0.000671397 1
0 0.00205997 0.997894
0 0.00205997 0.997894
0.388571 0.00155642 1
0.995911 0.000671397 1
0.995911 0.000671397 1
0 0.283772 0.996704
0 0.354314 0.996429
0.351644 0.364034 0.998611
0.997162 0.303746 1
0.997086 0.286076 1
0 0.874479 0.994583
0 0.939757 0.994369
0.125017 0.936751 0.995117
0.851637 0.854185 0.99968
0.999268 0.820737 1
0 1 0.994171
0 1 0.994171
0.0052491 1 0.994217
0.745968 1 0.99852
0.997665 0.997665 0.997665
