public/luts/Christmas-Sony-Slog-3-Alex-Don.cube
TITLE "Generated by Resolve"
LUT_3D_SIZE 33
0 0 0
0 0 0
0 0 0
0.00357061 0 0
0.0131838 0 0
0.0275883 0 0
0.0441138 0 0
0.0620584 0 0
0.0820325 0 0
0.105272 0 0
0.134005 0 0
0.173541 0 0
0.224002 0 0
0.283757 0 0
0.352209 0 0
0.426139 0 0
0.501015 0 0
0.578393 0 0
0.653498 0 0
0.727245 0 0
0.800946 0 0
0.872602 0 0
0.942641 0 0
1 0 0
1 0 0
1 0 0
1 0 0
1 0 0
1 0 0
1 0 0
1 0 0
1 0 0
1 0 0
0 0 0
0 0 0
0 0 0
0.00135805 0 0
0.0106355 0 0
0.0247196 0 0
0.0407721 0 0
0.0583505 0 0
0.07776 0 0
0.0999313 0 0
0.126955 0 0
0.162615 0 0
0.20885 0 0
0.265583 0 0
0.332174 0 0
0.40734 0 0
0.486137 0 0
0.565942 0 0
0.643412 0 0
0.718669 0 0
0.793347 0 0
0.866011 0 0
0.936858 0 0
1 0 0
1 0 0
1 0 0
1 0 0
1 0 0
1 0 0
1 0 0
1 0 0
1 0 0
1 0 0
0 0 0
0 0 0
0 0 0
0 0 0
0.00859083 0 0
0.0221866 0 0
0.0376593 0 0
0.0545663 0 0
0.0728923 0 0
0.0929885 0 0
0.118425 0 0
0.152575 0 0
0.198672 0 0
0.257084 0 0
0.325002 0 0
0.401205 0 0
0.481361 0 0
0.562417 0 0
0.641016 0 0
0.717159 0 0
0.792676 0 0
0.866178 0 0
0.93753 0 0
1 0 0
1 0 0
1 0 0
1 0 0
1 0 0
1 0 0
1 0 0
1 0 0
1 0 0
1 0 0
1.5259e-05 0.00341802 0
0 0.00213626 0
0 0.00114443 0
0 0.000640879 0
0.00750744 0.000686656 3.0518e-05
0.0200809 0 0
0.034226 0 0
0.0509499 0 0
0.0697642 0 0
0.0912947 0 0
0.117708 0 0
0.152834 0 0
0.200122 0 0
0.2598 0 0
0.328954 0 0
0.406394 0 0
0.487465 0 0
0.569268 0 0
0.64802 0 0
0.724727 0 0
0.800793 0 0
0.874907 0 0
0.946929 0 0
1 0 0
1 0 0
1 0 0
1 0 0
1 0 0
1 0 0
1 0 0
1 0 0
1 0 0
1 0 0
3.0518e-05 0.0116732 0
3.0518e-05 0.00961318 0
1.5259e-05 0.00733959 0
1.5259e-05 0.00611887 0
0.00601205 0.00581369 0.000213626
0.0180056 0.00491341 0.00030518
0.0337682 0.00363165 0.00015259
0.0517586 0.00216678 0.00015259
0.0717937 0.000640879 0.000213626
0.094316 0 0
0.121874 0 0
0.158526 0 0
0.208057 0 0
0.269322 0 0
0.340032 0 0
0.41886 0 0
0.500633 0 0
0.582483 0 0
0.661006 0 0
0.738186 0 0
0.814694 0 0
0.889067 0 0
0.961791 0 0
1 0 0
1 0 0
1 0 0
1 0 0
1 0 0
1 0 0
1 0 0
1 0 0
1 0 0
1 0 0
4.57771e-05 0.0185702 0
4.57771e-05 0.0168002 0
4.57771e-05 0.0157321 0
4.57771e-05 0.0155947 0
0.00250248 0.0161746 0
0.0155032 0.014374 0.00062562
0.0303655 0.0130007 0.00134279
0.047837 0.0115053 0.00062562
0.0677195 0.00950637 0.000396735
0.0908675 0.0071107 0.000335698
0.119387 0.00437934 0.000366217
0.157458 0.00132753 0.000457771
0.208682 0 0
0.271855 0 0
0.343786 0 0
0.423453 0 0
0.505791 0 0
0.587991 0 0
0.666941 0 0
0.744564 0 0
0.821469 0 0
0.896483 0 0
0.969085 0 0
1 0 0
1 0 0
1 0 0
1 0 0
1 0 0
1 0 0
1 0 0
1 0 0
1 0 0
1 0 0
7.62951e-05 0.0287938 0
7.62951e-05 0.0276188 0
7.62951e-05 0.0270695 0
7.62951e-05 0.0274052 0
7.62951e-05 0.0285191 0
0.00985733 0.0273899 0
0.0268254 0.0248875 0.00108339
0.0448157 0.0229038 0.00270085
0.0632944 0.021088 0.0016022
0.0858015 0.0182193 0.000900282
0.114092 0.0137789 0.000564584
0.152148 0.00680552 0.00047303
0.203647 0.000320439 0.000320439
0.267109 0 0
0.340688 0 0
0.42237 0 0
0.506722 0 0
0.5906 0 0
0.670298 0 0
0.74844 0 0
0.82594 0 0
0.901579 0 0
0.974151 0 0
1 0 0
1 0 0
1 0 0
1 0 0
1 0 0
1 0 0
1 0 0
1 0 0
1 0 0
1 0 0
0.000106813 0.0409857 0
0.000106813 0.0402533 0
0.000106813 0.0400549 0
0.000106813 0.04065 0
0.000106813 0.0420386 0
0.00550851 0.0414588 0
0.018555 0.0396429 0
0.0406958 0.0365301 0.00178531
0.0606241 0.034226 0.00399786
0.0816205 0.0320592 0.00299077
0.10869 0.028397 0.00166323
0.146151 0.0218814 0.000915541
0.197635 0.0118257 0.000656138
0.26157 0.00169375 0.000762951
0.335119 0 0
0.417426 0 0
0.50222 0 0
0.586542 0 0
0.66807 0 0
0.748394 0 0
0.827588 0 0
0.904845 0 0
0.978302 0 0
1 0 0
1 0 0
1 0 0
1 0 0
1 0 0
1 0 0
1 0 0
1 0 0
1 0 0
1 0 0
0.000137331 0.0545052 0
0.000137331 0.0540475 0
0.000137331 0.0541085 0
0.000137331 0.054963 0
0.000137331 0.0566262 0
0.00227359 0.0565957 0
0.0099031 0.0551919 0
0.0319066 0.0526741 0
0.0557717 0.0493782 0.00251774
0.0788586 0.04654 0.00527962
0.104585 0.0435798 0.00436408
0.140276 0.0380713 0.00231937
0.19086 0.0284428 0.0011902
0.254917 0.0155337 0.000839246
0.329625 0.00401312 0.000961318
0.4121 1.5259e-05 1.5259e-05
0.497856 0 0
0.583124 0 0
0.665476 0 0
0.746807 0 0
0.8271 0 0
0.905791 0 0
0.980789 0 0
1 0 0
1 0 0
1 0 0
1 0 0
1 0 0
1 0 0
1 0 0
1 0 0
1 0 0
1 0 0
0.000183108 0.0694438 0
0.000183108 0.0692454 0
0.000183108 0.0695659 0
0.000183108 0.0707408 0
0.000183108 0.072694 0
0.000427253 0.0732738 0
0.00173953 0.0721599 0
0.0207218 0.070573 0
0.0457923 0.0677043 0
0.0727245 0.0640421 0.00332647
0.101076 0.0602274 0.00677501
0.135134 0.0556191 0.00549325
0.183612 0.0475166 0.00276188
0.247852 0.0352941 0.00146487
0.322896 0.020325 0.00108339
0.407248 0.00648508 0.0011902
0.494057 0.000427253 0.000427253
0.580972 0 0
0.664561 0 0
0.747494 0 0
0.830014 0 0
0.910399 0 0
0.985092 0 0
1 0 0
1 0 0
1 0 0
1 0 0
1 0 0
1 0 0
1 0 0
1 0 0
1 0 0
1 0 0
0.000213626 0.0866102 0
0.000213626 0.0866102 0
0.000228885 0.0872358 0
0.000228885 0.0887465 0
0.000228885 0.0911727 0
0.000228885 0.0924697 0
0.000228885 0.0918441 0
0.0101778 0.090837 0
0.0308843 0.0892653 0
0.0600443 0.0859388 0
0.0927901 0.0815137 0.00427253
0.130327 0.076112 0.00869764
0.176974 0.0694743 0.00646983
0.23978 0.0589151 0.00326543
0.315297 0.0450904 0.00187686
0.400946 0.029099 0.00141909
0.490517 0.0137484 0.00144961
0.57995 0.00463874 0.00167849
0.665797 0.000595102 0.000595102
0.750637 0 0
0.83534 0 0
0.918257 0 0
0.989502 0 0
1 0 0
1 0 0
1 0 0
1 0 0
1 0 0
1 0 0
1 0 0
1 0 0
1 0 0
1 0 0
0.000274662 0.10695 0
0.000274662 0.107286 0
0.000274662 0.108354 0
0.000274662 0.110475 0
0.000289921 0.113664 0
0.000289921 0.115434 0
0.000289921 0.115908 0
0.00227359 0.115618 0
0.0143435 0.115145 0
0.0390936 0.113848 0
0.0745098 0.110155 0
0.118608 0.104219 0.00544747
0.170397 0.096849 0.0112612
0.230716 0.0885481 0.00801099
0.305989 0.076997 0.00436408
0.393423 0.0626078 0.00267033
0.485191 0.0477607 0.00204471
0.577432 0.033463 0.00189212
0.666484 0.0205844 0.00198367
0.754528 0.0113527 0.0021973
0.841505 0.00564584 0.0024567
0.926497 0.00221256 0.00221256
0.993194 0.000640879 0.000640879
1 1.5259e-05 1.5259e-05
1 0 0
1 0 0
1 0 0
1 0 0
1 0 0
1 0 0
1 0 0
1 0 0
1 0 0
0.000335698 0.13315 0
0.000335698 0.133867 0
0.000350958 0.135515 0
0.000350958 0.138369 0
0.000366217 0.142367 0
0.000366217 0.144915 0
0.000366217 0.146456 0
0.000381476 0.147036 0
0.00164797 0.147738 0
0.0147707 0.148501 0
0.0464485 0.148196 0
0.0922713 0.144152 0
0.15462 0.135531 0.00714122
0.221775 0.126665 0.0146792
0.294896 0.118105 0.0112764
0.380911 0.10663 0.00668345
0.474128 0.0933547 0.0043946
0.569131 0.0800946 0.00332647
0.66125 0.0680552 0.0028687
0.751293 0.0570993 0.00271611
0.840696 0.0470283 0.00274662
0.928206 0.0379339 0.00283818
0.995056 0.0299382 0.00296025
1 0.0229801 0.00294499
1 0.0170748 0.00292973
1 0.0135042 0.00291447
1 0.0111391 0.00291447
1 0.00927749 0.00289921
1 0.00729381 0.00291447
1 0.00531014 0.00291447
1 0.00308232 0.00291447
1 0.00122072 0.00122072
1 0 0
0.000427253 0.166354 0
0.000427253 0.16762 0
0.000427253 0.169924 0
0.000442512 0.173617 0
0.000457771 0.178698 0
0.000457771 0.18204 0
0.00047303 0.184573 0
0.00047303 0.187076 0
0.000488289 0.189578 0
0.00163272 0.192355 0
0.0185702 0.194232 0
0.0585184 0.194324 0
0.122988 0.187915 0
0.203098 0.176959 0.00950637
0.284276 0.166613 0.0189975
0.367376 0.157641 0.0163119
0.458244 0.147494 0.0107881
0.553353 0.136339 0.00756847
0.646357 0.125719 0.00585946
0.738369 0.116258 0.00494392
0.829877 0.107103 0.00440986
0.919112 0.0990158 0.0041352
0.992401 0.0917525 0.00399786
1 0.0858625 0.00384527
1 0.080415 0.0037232
1 0.0753948 0.00358587
1 0.0720531 0.00352483
1 0.0699779 0.00349432
1 0.0677653 0.00344854
1 0.0653849 0.00340276
1 0.0628519 0.00335698
1 0.0601511 0.00331121
1 0.0572824 0.00326543
0.000534066 0.207507 0
0.000534066 0.209598 0
0.000549325 0.212726 0
0.000549325 0.217533 0
0.000579843 0.224338 0
0.000579843 0.229099 0
0.000595102 0.233005 0
0.000610361 0.236988 0
0.000610361 0.241306 0
0.00062562 0.245686 0
0.00204471 0.249516 0
0.0269932 0.251896 0
0.0820935 0.250431 0
0.167666 0.240467 0
0.262348 0.227283 0.0124208
0.355215 0.215885 0.0238804
0.445319 0.207034 0.0231632
0.536934 0.198718 0.0171817
0.629374 0.190402 0.0129854
0.721401 0.182345 0.0103609
0.813214 0.174594 0.00868238
0.903212 0.167575 0.00762951
0.985626 0.161608 0.00695811
1 0.156222 0.00660716
1 0.151537 0.00637827
1 0.147158 0.00613413
1 0.143877 0.0059968
1 0.141711 0.00587472
1 0.139528 0.00578317
1 0.137362 0.00567636
1 0.135027 0.00556954
1 0.132525 0.00546273
1 0.130022 0.00534066
0.000656138 0.257664 0
0.000671397 0.260868 0
0.000671397 0.265309 0
0.000686656 0.271565 0
0.000717174 0.279667 0
0.000732433 0.285618 0
0.000747692 0.290364 0
0.000747692 0.294804 0
0.000762951 0.30074 0
0.00077821 0.306722 0
0.000793469 0.312306 0
0.00509651 0.31667 0
0.0461585 0.317601 0
0.121691 0.312581 0
0.224842 0.299901 0
0.33138 0.285344 0.0158999
0.431907 0.273396 0.0289464
0.525811 0.265141 0.0311284
0.615213 0.259113 0.0262608
0.704067 0.253254 0.0211032
0.794354 0.247028 0.0173648
0.883665 0.241215 0.0147555
0.970733 0.235828 0.0129397
1 0.230976 0.0120851
1 0.226429 0.0116579
1 0.22179 0.0112459
1 0.218235 0.0109407
1 0.216556 0.0107881
1 0.214878 0.0106508
1 0.213016 0.0104982
1 0.211002 0.0103304
1 0.208972 0.0101625
1 0.206607 0.0099794
0.000808728 0.315785 0
0.000808728 0.319768 0
0.000823987 0.32517 0
0.000854505 0.332494 0
0.000869764 0.341924 0
0.000885023 0.349004 0
0.000900282 0.354757 0
0.000915541 0.359854 0
0.0009308 0.366918 0
0.000961318 0.374563 0
0.000976577 0.381567 0
0.0010071 0.38735 0
0.0168154 0.390234 0
0.0829175 0.388342 0
0.177096 0.380026 0
0.295033 0.363943 0.00241093
0.407858 0.349248 0.0197757
0.511742 0.337713 0.033814
0.605432 0.329747 0.0389105
0.69279 0.324697 0.0365606
0.779202 0.320089 0.0315099
0.865034 0.315343 0.0267491
0.94992 0.310887 0.023209
1 0.306569 0.0208743
1 0.301946 0.0202335
1 0.297337 0.0196231
1 0.293843 0.0191501
1 0.292561 0.018967
1 0.291264 0.0188144
1 0.28983 0.018616
1 0.288212 0.0184024
1 0.28629 0.0181582
1 0.284321 0.0178988
0.000976577 0.380133 0
0.000976577 0.385168 0
0.000991836 0.391546 0
0.00102235 0.400122 0
0.00105287 0.410529 0
0.00106813 0.418418 0
0.00108339 0.425025 0
0.00109865 0.430976 0
0.00111391 0.438468 0
0.00114443 0.446952 0
0.00115969 0.455222 0
0.00117494 0.462226 0
0.00306706 0.466575 0
0.0494087 0.4663 0
0.137179 0.460487 0
0.249226 0.447913 0
0.374121 0.430533 0.00598154
0.487633 0.415625 0.0238651
0.589563 0.404669 0.0381018
0.681804 0.397009 0.0454871
0.768612 0.391577 0.046128
0.851804 0.387793 0.0425269
0.933043 0.384039 0.0378882
1 0.380606 0.0335393
1 0.375998 0.0321355
1 0.371054 0.03122
1 0.36669 0.0304417
1 0.365789 0.0303197
1 0.364706 0.0301366
1 0.36347 0.0299535
1 0.362097 0.0297093
1 0.360403 0.0294194
1 0.358557 0.029099
0.00114443 0.450034 0
0.00115969 0.455817 0
0.00117494 0.463127 0
0.00120546 0.472282 0
0.00123598 0.483467 0
0.00125124 0.491936 0
0.0012665 0.499229 0
0.00129702 0.505501 0
0.00131228 0.512612 0
0.00132753 0.521843 0
0.00135805 0.530694 0
0.00137331 0.538582 0
0.00138857 0.543725 0
0.024567 0.544152 0
0.105272 0.539681 0
0.207797 0.530083 0
0.332494 0.513466 0
0.457649 0.495521 0.010544
0.567315 0.481712 0.0279545
0.665141 0.471473 0.0419318
0.756771 0.46363 0.0508888
0.841413 0.45745 0.0540017
0.921324 0.453178 0.0526436
0.998535 0.449866 0.0489509
1 0.445731 0.0460517
1 0.440696 0.0450141
1 0.436011 0.0440528
1 0.435294 0.0439002
1 0.43444 0.0437171
1 0.433295 0.0434882
1 0.431998 0.0432288
1 0.430411 0.0429084
1 0.428687 0.0425422
0.00132753 0.522881 0
0.00134279 0.52929 0
0.00137331 0.536873 0
0.00138857 0.54667 0
0.00141909 0.558114 0
0.00144961 0.567025 0
0.00146487 0.574594 0
0.00148013 0.581155 0
0.00149538 0.587732 0
0.0015259 0.59736 0
0.00154116 0.606256 0
0.00157168 0.61413 0
0.00158694 0.619745 0
0.0099794 0.620844 0
0.0778058 0.616968 0
0.174762 0.60853 0
0.291783 0.594705 0
0.42179 0.575265 0
0.540459 0.558114 0.0153964
0.6439 0.545419 0.0318914
0.73959 0.534676 0.0458076
0.828397 0.526497 0.0554513
0.911254 0.520546 0.0603342
0.989288 0.516182 0.0610971
1 0.512551 0.0592203
1 0.507698 0.0581674
1 0.502495 0.0572213
1 0.501671 0.057084
1 0.500847 0.0569314
1 0.499748 0.0567178
1 0.498375 0.0564736
1 0.496727 0.0561685
1 0.494926 0.0558328
0.0015259 0.596979 0
0.00154116 0.603723 0
0.00155642 0.611994 0
0.00158694 0.621958 0
0.00161746 0.633768 0
0.00164797 0.642954 0
0.00166323 0.650599 0
0.00167849 0.657237 0
0.00169375 0.663035 0
0.00170901 0.672374 0
0.00173953 0.681147 0
0.00175479 0.689189 0
0.00177005 0.695033 0
0.00199893 0.69633 0
0.0509194 0.692332 0
0.144594 0.684398 0
0.254139 0.671656 0
0.380285 0.653544 0
0.507027 0.634516 0.00335698
0.617487 0.619165 0.0196689
0.717754 0.606714 0.0356756
0.810987 0.596902 0.0493172
0.897612 0.589029 0.0594644
0.978607 0.58323 0.0656596
1 0.57882 0.0681468
1 0.5738 0.0679789
1 0.568231 0.0673228
1 0.566979 0.0671702
1 0.565881 0.0670329
1 0.564645 0.0668803
1 0.562982 0.0666819
1 0.561196 0.066453
1 0.559014 0.0661631
0.00170901 0.671504 0
0.00172427 0.678477 0
0.00175479 0.686641 0
0.00177005 0.69659 0
0.00180056 0.708171 0
0.00183108 0.717296 0
0.00184634 0.725032 0
0.0018616 0.731731 0
0.00187686 0.737804 0
0.00190738 0.746136 0
0.00192264 0.754742 0
0.0019379 0.76228 0
0.00195315 0.767544 0
0.00196841 0.768795 0
0.027512 0.764965 0
0.117189 0.756954 0
0.22237 0.74551 0
0.342214 0.729702 0
0.470375 0.710445 0
0.588098 0.693172 0.00779736
0.694316 0.679179 0.0240482
0.790997 0.667689 0.0394293
0.88098 0.658198 0.0526894
0.965301 0.650858 0.0630808
1 0.64477 0.0702525
1 0.639368 0.0728771
1 0.633585 0.0726482
1 0.631479 0.0725414
1 0.630243 0.0724804
1 0.62858 0.0724041
1 0.626795 0.0722972
1 0.624582 0.0721752
1 0.622248 0.0720378
0.00189212 0.743862 0
0.00192264 0.750729 0
0.0019379 0.758862 0
0.00196841 0.768719 0
0.00198367 0.780209 0
0.00201419 0.789212 0
0.00202945 0.796979 0
0.00204471 0.803937 0
0.00205997 0.810056 0
0.00209049 0.8177 0
0.00210575 0.825788 0
0.002121 0.832898 0
0.00213626 0.838392 0
0.00213626 0.839826 0
0.00968948 0.835767 0
0.09308 0.828168 0
0.195651 0.817319 0
0.310277 0.802731 0
0.434958 0.784985 0
0.556542 0.766857 0
0.668299 0.750835 0.0125429
0.769512 0.737804 0.0283513
0.862531 0.727077 0.0430915
0.949218 0.718044 0.0559548
1 0.71046 0.0665141
1 0.704112 0.0732586
1 0.697643 0.0738842
1 0.694911 0.0738994
1 0.693385 0.0738994
1 0.691432 0.0739147
1 0.689204 0.0739147
1 0.686839 0.0739147
1 0.684047 0.0739147
0.00207523 0.813428 0
0.00209049 0.820478 0
0.002121 0.828748 0
0.00213626 0.838712 0
0.00216678 0.850202 0
0.0021973 0.859236 0
0.00221256 0.867063 0
0.00222782 0.873991 0
0.00224308 0.880156 0
0.00225834 0.887541 0
0.00228885 0.895445 0
0.00230411 0.902678 0
0.00231937 0.907973 0
0.00231937 0.909438 0
0.00230411 0.905486 0
0.0716259 0.897795 0
0.172213 0.886961 0
0.283665 0.873243 0
0.403159 0.85687 0
0.523964 0.839017 0
0.640116 0.821958 0.00247196
0.746044 0.807004 0.0172732
0.842283 0.794781 0.0325017
0.93164 0.784634 0.0466316
1 0.775784 0.0592355
1 0.767742 0.0699321
1 0.760891 0.0721294
1 0.757427 0.0722972
1 0.755596 0.0723583
1 0.753323 0.0724651
1 0.750774 0.0725719
1 0.747951 0.0726787
1 0.744991 0.0728008
0.00224308 0.881956 0
0.00227359 0.888991 0
0.00228885 0.897383 0
0.00231937 0.907271 0
0.00234989 0.918944 0
0.00236515 0.928054 0
0.00238041 0.935973 0
0.00241093 0.943145 0
0.00242618 0.949264 0
0.00244144 0.956725 0
0.0024567 0.964477 0
0.00247196 0.970871 0
0.00248722 0.975158 0
0.00248722 0.976379 0
0.00248722 0.973159 0
0.0510567 0.965957 0
0.15053 0.955108 0
0.259236 0.941634 0
0.374319 0.926101 0
0.49189 0.909575 0
0.609384 0.891768 0
0.719432 0.875441 0.00697337
0.819867 0.861738 0.0216983
0.91191 0.850187 0.0363622
0.998337 0.840146 0.0500343
1 0.831052 0.0625925
1 0.823117 0.0684367
1 0.819028 0.0687266
1 0.816754 0.0688792
1 0.814328 0.0690471
1 0.81149 0.0692454
1 0.808515 0.0694438
1 0.805249 0.0696574
0.00242618 0.950164 0
0.00244144 0.957488 0
0.00247196 0.966033 0
0.00248722 0.976089 0
0.00251774 0.987778 0
0.002533 0.994873 0
0.00254826 0.995926 0
0.00254826 0.996857 0
0.00254826 0.997665 0
0.00254826 0.998795 0
0.00254826 0.999542 0
0.00254826 0.999588 0
0.00254826 0.999588 0
0.00254826 0.999588 0
0.00254826 0.999588 0
0.0302281 0.999496 0
0.128374 0.998535 0
0.235004 0.995605 0
0.346944 0.98967 0
0.46009 0.977859 0
0.57615 0.960525 0
0.689113 0.943481 0
0.793378 0.928267 0.0111849
0.888548 0.915328 0.0255741
0.977584 0.90428 0.0397955
1 0.894148 0.0533608
1 0.884764 0.063508
1 0.880095 0.06392
1 0.877653 0.0641337
1 0.874937 0.0643626
1 0.872068 0.0646067
1 0.868925 0.0648661
1 0.865629 0.0651408
0.00254826 0.997787 0
0.00254826 0.998779 0
0.00254826 0.999588 0
0.00254826 0.999588 0
0.00254826 0.999588 0
0.00254826 0.999588 0
0.00254826 0.999588 0
0.00254826 0.999588 0
0.00254826 0.999588 0
0.00254826 0.999588 0
0.00254826 0.999588 0
0.00254826 0.999588 0
0.00254826 0.999588 0
0.00254826 0.999588 0
0.00254826 0.999588 0
0.0169833 0.999557 0
0.104326 0.999298 0
0.209857 0.998352 0
0.31986 0.996078 0
0.430457 0.991882 0
0.544198 0.985489 0
0.65655 0.977981 0
0.76257 0.970993 0.00361639
0.860792 0.965255 0.0163424
0.952605 0.960723 0.0297246
1 0.954818 0.0432288
1 0.946227 0.0565499
1 0.941527 0.0582589
1 0.938903 0.0585184
1 0.936294 0.0587778
1 0.93341 0.0590524
1 0.93022 0.0593576
1 0.927031 0.0596628
0.00254826 0.999588 0
0.00254826 0.999588 0
0.00254826 0.999588 0
0.00254826 0.999588 0
0.00254826 0.999588 0
0.00254826 0.999588 0
0.00254826 0.999588 0
0.00254826 0.999588 0
0.00254826 0.999588 0
