public/luts/Denis-BarbasxSony-WINTERFELL.cube
TITLE "Denis-BarbasxSony-WINTERFELL"
LUT_3D_SIZE 5
# MLUTS-Log3/Sony S-Gamut3.cine -> LA - Denis-BarbasxSony-WINTERFELL/LA - Denis-BarbasxSony-WINTERFELL, CineEI Shift 0.00, Black Level -7.48% IRE, Input 109% -> Output 100% - Created with LUTCalc v4.09 by Ben Turley February 2025
0.00000000 0.00000000 0.00000000
0.02027472 0.00000000 0.00000000
0.60105269 0.02953138 0.00803029
1.07848760 0.10909209 0.08856554
1.08213618 0.10987654 0.09196694
0.00000000 0.03807179 0.00000000
0.01052603 0.03276393 0.00000000
0.60267818 0.04003756 0.00827253
1.07853592 0.10910012 0.08848977
1.08213618 0.10987654 0.09196694
0.30936882 0.61252319 0.36113913
0.30696804 0.60825492 0.35822509
0.49393990 0.61005222 0.24697967
1.06805368 0.44784922 0.08330312
1.08224873 0.12718426 0.09055342
0.55921775 1.03560348 0.65408499
0.56061959 1.03523090 0.65339924
0.62273512 1.04001089 0.64284922
0.87794871 1.06929921 0.46025528
1.01130644 1.06033861 0.16078063
0.93191405 1.09018265 0.47725635
0.93283199 1.09018265 0.47561293
0.93827221 1.09018265 0.46557465
0.96817423 1.09018265 0.40650596
0.98633041 1.09018265 0.35395979
0.00000000 0.00000000 0.00000000
0.01692404 0.00000000 0.00000000
0.59729923 0.03216231 0.07892175
1.07846067 0.10910607 0.09255054
1.08213618 0.10987654 0.09196694
0.00000000 0.02084327 0.00508866
0.00457761 0.00987919 0.00000000
0.61290899 0.03539676 0.06680195
1.08213618 0.10987026 0.09053675
1.08213618 0.10987654 0.09201804
0.30751091 0.60819198 0.35979482
0.31093290 0.61475505 0.36351742
0.49115062 0.61048894 0.24983206
1.07601121 0.42296553 0.08558294
1.08213722 0.11002691 0.09088760
0.55913224 1.03550123 0.65402153
0.56243640 1.03843425 0.65565598
0.61683952 1.04199964 0.64655438
0.87819927 1.07043844 0.46206960
1.01377149 1.05355793 0.15280668
0.93189288 1.09018265 0.47729404
0.93523471 1.09018265 0.47078018
0.93972319 1.09018265 0.46238335
0.96769815 1.09018265 0.40757305
0.98633041 1.09018265 0.35395979
0.06017532 0.02969828 0.54260346
0.06470234 0.03006694 0.54155406
0.60074111 0.10250273 0.46028700
1.07086865 0.14821320 0.53474487
1.08108402 0.11693321 0.21380986
0.05992983 0.03023710 0.54078264
0.06737901 0.03251507 0.55541906
0.62316101 0.10709509 0.46947452
1.07485463 0.15004649 0.54167485
1.08182777 0.11206943 0.14963015
0.27332555 0.55921045 0.59433468
0.27594460 0.56168827 0.60251100
0.48291285 0.52507092 0.55905403
1.06249192 0.36710025 0.48949810
1.08208234 0.11029876 0.10856303
0.57443276 1.02509321 0.73020107
0.57659476 1.02957129 0.72257372
0.61927323 1.02890543 0.71403314
0.89118101 1.05778708 0.56271147
1.02019307 1.03576848 0.13296561
0.93157630 1.09018265 0.47780742
0.93502275 1.09018265 0.47113961
0.94112684 1.09018265 0.45916584
0.96604755 1.09018265 0.41135301
0.98633041 1.09018265 0.35395979
0.15838987 0.09961353 0.97177686
0.15837978 0.09960692 0.97173555
0.39759160 0.13680703 0.96338402
1.09018265 0.25258518 0.73735279
1.09018265 0.25793286 0.75566239
0.15837592 0.09960417 0.97171839
0.16136656 0.10169939 0.98429070
0.41272607 0.14119774 0.97635593
1.09018265 0.25699421 0.74331192
1.09018265 0.25941991 0.75131957
0.21303030 0.26005474 0.98670194
0.20757365 0.23781993 0.99840751
0.36409868 0.22533699 0.97661961
1.09018265 0.27715518 0.73791050
1.09018265 0.25646976 0.75764120
0.48744960 0.98776342 1.04321495
0.49172897 0.99065394 1.04663852
0.52570243 0.98413547 1.04512546
0.95719044 0.98591752 1.02089234
1.08810117 0.91452557 0.97078786
1.02585343 1.09018265 1.04322581
1.02769145 1.09018265 1.03611905
1.02809658 1.09018265 1.00505922
1.03505349 1.09018265 0.92904035
1.05578070 1.09018265 0.82195399
0.17607939 0.11266086 1.04521294
0.17607939 0.11266086 1.04521294
0.17734104 0.11278876 1.04513976
1.08030503 0.24494915 0.80243679
1.09018265 0.27023127 0.72728696
0.17607939 0.11266086 1.04521294
0.17607939 0.11266086 1.04521294
0.17609399 0.11266208 1.04521224
1.08186634 0.24523900 0.80019508
1.09018265 0.27023127 0.72728696
0.17607939 0.11266086 1.04521294
0.17607939 0.11266086 1.04521294
0.17658479 0.11271042 1.04518368
1.07715805 0.24323369 0.80477036
1.09018265 0.27023127 0.72728696
0.44700611 0.81444799 1.09018265
0.43670976 0.77794972 1.09018265
0.41981517 0.72567709 1.09018265
0.96969030 0.63045906 0.99608025
1.09018265 0.54450823 0.85348880
1.00688936 1.09018265 1.09018265
1.01000650 1.09018265 1.09018265
1.01705754 1.09018265 1.09018265
1.04707295 1.09018265 1.09018265
1.09018265 1.09018265 1.09018265
