public/luts/Denis-BarbasxSony-WINTERFELL.cube
TITLE "Denis-BarbasxSony-WINTERFELL"
LUT_3D_SIZE 9
# MLUTS-Log3/Sony S-Gamut3.cine -> LA - Denis-BarbasxSony-WINTERFELL/LA - Denis-BarbasxSony-WINTERFELL, CineEI Shift 0.00, Black Level -7.48% IRE, Input 109% -> Output 100% - Created with LUTCalc v4.09 by Ben Turley February 2025
0.00000000 0.00000000 0.00000000
0.00000000 0.00000000 0.00000000
0.02027472 0.00000000 0.00000000
0.24701644 0.00000000 0.00000000
0.60105269 0.02953138 0.00803029
0.88702019 0.07750948 0.05397846
1.07848760 0.10909209 0.08856554
1.08213618 0.10987220 0.09102399
1.08213618 0.10987654 0.09196694
0.00000000 0.00000000 0.00000000
0.00000000 0.00000000 0.00000000
0.02209434 0.00000000 0.00000000
0.25221553 0.00000000 0.00000000
0.60440486 0.03007332 0.00844901
0.88800333 0.07769937 0.05411885
1.07854170 0.10910191 0.08857678
1.08213618 0.10987220 0.09102476
1.08213618 0.10987654 0.09196694
0.00000000 0.03807179 0.00000000
0.00000000 0.03449245 0.00000000
0.01052603 0.03276393 0.00000000
0.24493182 0.04148231 0.00000000
0.60267818 0.04003756 0.00827253
0.88725393 0.07755308 0.05377183
1.07853592 0.10910012 0.08848977
1.08213618 0.10987220 0.09102553
1.08213618 0.10987654 0.09196694
0.11989325 0.28240002 0.13729946
0.11801480 0.27953372 0.13500457
0.11742214 0.27396106 0.13028200
0.21244453 0.27385975 0.08529530
0.58128892 0.26917945 0.00807205
0.87684440 0.18036933 0.05295251
1.07735009 0.12018080 0.08736418
1.08213618 0.10986876 0.09035938
1.08213618 0.10987654 0.09196694
0.30936882 0.61252319 0.36113913
0.30845702 0.61091124 0.36003517
0.30696804 0.60825492 0.35822509
0.32355811 0.60317098 0.34893272
0.49393990 0.61005222 0.24697967
0.83444101 0.56113495 0.02958979
1.06805368 0.44784922 0.08330312
1.08444410 0.29682159 0.08905909
1.08224873 0.12718426 0.09055342
0.44973587 0.86256797 0.53457641
0.44926820 0.86164845 0.53392153
0.44857526 0.86028854 0.53295307
0.44900613 0.85712359 0.53043906
0.52462413 0.86097787 0.50925072
0.70704908 0.87747141 0.37606057
1.00452437 0.82775938 0.01896186
1.08328041 0.77769288 0.03135334
1.08514977 0.65123967 0.04981341
0.55921775 1.03560348 0.65408499
0.55958480 1.03542550 0.65380396
0.56061959 1.03523090 0.65339924
0.57195333 1.03570695 0.65203461
0.62273512 1.04001089 0.64284922
0.73798889 1.05241448 0.60145450
0.87794871 1.06929921 0.46025528
1.00883196 1.06135633 0.14885951
1.01130644 1.06033861 0.16078063
0.74124020 1.08461804 0.63559222
0.74447307 1.08500166 0.63459871
0.74907171 1.08563350 0.63311639
0.76040174 1.08707110 0.62906622
0.78512257 1.09018265 0.61805075
0.83420410 1.09018265 0.58873034
0.90468648 1.09018265 0.51961245
0.97594536 1.09018265 0.38623553
0.98633041 1.09018265 0.35395979
0.93191405 1.09018265 0.47725635
0.93228029 1.09018265 0.47660300
0.93283199 1.09018265 0.47561293
0.93434188 1.09018265 0.47289232
0.93827221 1.09018265 0.46557465
0.94800463 1.09018265 0.44721360
0.96817423 1.09018265 0.40650596
0.98544290 1.09018265 0.35648985
0.98633041 1.09018265 0.35395979
0.00000000 0.00000000 0.00000000
0.00000000 0.00000000 0.00000000
0.01711576 0.00000000 0.00000000
0.24505913 0.00000000 0.00000000
0.60022739 0.02941488 0.01096507
0.88685019 0.07747946 0.05473827
1.07848164 0.10909105 0.08856415
1.08213618 0.10987220 0.09102399
1.08213618 0.10987654 0.09196694
0.00000000 0.00000000 0.00000000
0.00000000 0.00000000 0.00000000
0.02276188 0.00000000 0.00000000
0.26959662 0.00000000 0.00000000
0.63285827 0.03500285 0.01428716
0.91172253 0.08192753 0.05832912
1.08194162 0.10981654 0.08932664
1.08213618 0.10987220 0.09112096
1.08213618 0.10987654 0.09198561
0.00000000 0.03252193 0.00000000
0.00000000 0.03265215 0.00000000
0.00877633 0.02923612 0.00000000
0.25503745 0.03541476 0.00000000
0.62457296 0.04096725 0.01189052
0.90730232 0.08131016 0.05726918
1.08190544 0.10980771 0.08926364
1.08213618 0.10987220 0.09111555
1.08213618 0.10987654 0.09198574
0.11788621 0.27928712 0.13488662
0.12110833 0.28419221 0.13876030
0.11911411 0.27800538 0.13332617
0.21310317 0.27408796 0.08587949
0.59138476 0.26361504 0.01033392
0.88919900 0.17113114 0.05492778
1.08154015 0.11576117 0.08810909
1.08213618 0.10987026 0.09058511
1.08213618 0.10987654 0.09198172
0.30876197 0.61145417 0.36040885
0.31114962 0.61564784 0.36328930
0.30960417 0.61294146 0.36142972
0.32363169 0.60623948 0.35145291
0.49430344 0.61066267 0.24821372
0.84048008 0.55769077 0.03221215
1.07239879 0.43945205 0.08435606
1.08424917 0.28073377 0.08910525
1.08218663 0.11790961 0.09043970
0.44962428 0.86234761 0.53441980
0.45089293 0.86483469 0.53619831
0.45025507 0.86358482 0.53530443
0.44973176 0.85981826 0.53244892
0.52224088 0.86242751 0.51139207
0.70731012 0.87805022 0.37709532
1.00770571 0.82625448 0.01997370
1.08340139 0.77358994 0.03240712
1.08545532 0.63770274 0.05183459
0.55919075 1.03557348 0.65406739
0.56022171 1.03651544 0.65460237
0.56111091 1.03639078 0.65423747
0.57185631 1.03672652 0.65287988
0.62115207 1.04070019 0.64401189
0.73656365 1.05293413 0.60297054
0.87803112 1.06960138 0.46070523
1.00905259 1.06104975 0.14879932
1.01184868 1.05898318 0.15906779
0.74116977 1.08461173 0.63561349
0.74474879 1.08505183 0.63440642
0.74992229 1.08575397 0.63272264
0.76071682 1.08711630 0.62885617
0.78485479 1.09018265 0.61813237
0.83354471 1.09018265 0.58915138
0.90419996 1.09018265 0.52020184
0.97593100 1.09018265 0.38626380
0.98633041 1.09018265 0.35395979
0.93190569 1.09018265 0.47726950
0.93274922 1.09018265 0.47565672
0.93342434 1.09018265 0.47443383
0.93481666 1.09018265 0.47192392
0.93856175 1.09018265 0.46494186
0.94807204 1.09018265 0.44703359
0.96806661 1.09018265 0.40674859
0.98543953 1.09018265 0.35650196
0.98633041 1.09018265 0.35395979
0.00000000 0.00000000 0.00000000
0.00000000 0.00000000 0.00000000
0.01692404 0.00000000 0.00000000
0.23861918 0.00000000 0.03892456
0.59729923 0.03216231 0.07892175
0.88614197 0.07824671 0.08839008
1.07846067 0.10910607 0.09255054
1.08213618 0.10987220 0.09103557
1.08213618 0.10987654 0.09196694
0.00000000 0.00000000 0.00000000
0.00000000 0.00000000 0.00000000
0.02281525 0.00000000 0.00000000
0.26583995 0.00000000 0.04417842
0.63140717 0.03757999 0.07916241
0.91160783 0.08234156 0.08553257
1.08197025 0.10983135 0.09109970
1.08213618 0.10987295 0.09112586
1.08213618 0.10987654 0.09198652
0.00000000 0.02084327 0.00508866
0.00000000 0.01957629 0.00572770
0.00457761 0.00987919 0.00000000
0.24296367 0.00528875 0.01946087
0.61290899 0.03539676 0.06680195
0.90659035 0.08158389 0.08189868
1.08213618 0.10987026 0.09053675
1.08213618 0.10987340 0.09124341
1.08213618 0.10987654 0.09201804
0.11625247 0.26933294 0.14214166
0.11865261 0.27430133 0.14363714
0.11589284 0.26732466 0.13862305
0.20432464 0.26210003 0.09028307
0.58089405 0.25555244 0.01678670
0.89015975 0.16721546 0.05934380
1.08210393 0.11230655 0.08860066
1.08213618 0.10987205 0.09100725
1.08213618 0.10987654 0.09201454
0.30751091 0.60819198 0.35979482
0.30975923 0.61259666 0.36215997
0.31093290 0.61475505 0.36351742
0.32210353 0.60726479 0.35309842
0.49115062 0.61048894 0.24983206
0.84545192 0.55502812 0.03450252
1.07601121 0.42296553 0.08558294
1.08382106 0.24440014 0.08922529
1.08213722 0.11002691 0.09088760
0.44921610 0.86154599 0.53385047
0.45057601 0.86421318 0.53575507
0.45299781 0.86893241 0.53915124
0.45186872 0.86540063 0.53653691
0.51734108 0.86564273 0.51605541
0.70750285 0.87937951 0.38002970
1.01451033 0.82271162 0.02361129
1.08374655 0.76113290 0.03560092
1.08622452 0.59670392 0.05829237
0.55913224 1.03550123 0.65402153
0.56018584 1.03648920 0.65459140
0.56243640 1.03843425 0.65565598
0.57135942 1.03879532 0.65459746
0.61683952 1.04199964 0.64655438
0.73224300 1.05403620 0.60683352
0.87819927 1.07043844 0.46206960
1.00970358 1.06007579 0.14842766
1.01377149 1.05355793 0.15280668
0.74105952 1.08460066 0.63564726
0.74462661 1.08503488 0.63443985
0.75247149 1.08610101 0.63151497
0.76238297 1.08735239 0.62787500
0.78415926 1.09018265 0.61829084
0.83134402 1.09018265 0.59055302
0.90247249 1.09018265 0.52231245
0.97587569 1.09018265 0.38638056
0.98633041 1.09018265 0.35395979
0.93189288 1.09018265 0.47729404
0.93275477 1.09018265 0.47564033
0.93523471 1.09018265 0.47078018
0.93671153 1.09018265 0.46800791
0.93972319 1.09018265 0.46238335
0.94837588 1.09018265 0.44625087
0.96769815 1.09018265 0.40757305
0.98543200 1.09018265 0.35652676
0.98633041 1.09018265 0.35395979
0.00000000 0.00000000 0.21806793
0.00000000 0.00000000 0.21725222
0.03142217 0.00000000 0.21435385
0.24124908 0.01312956 0.18916513
0.58590105 0.05441183 0.27751615
0.88040173 0.08955083 0.27780693
1.07698754 0.11577663 0.23471347
1.08199419 0.11092663 0.12621657
1.08213618 0.10987654 0.09196694
0.00000000 0.00000000 0.21662314
0.00000000 0.00000000 0.23273278
0.04150500 0.00000000 0.23231259
0.26838768 0.01997677 0.21305811
0.61769351 0.06027104 0.29196096
0.90408747 0.09289493 0.28066686
1.08101265 0.11601664 0.22656281
1.08206056 0.11046048 0.11430331
1.08213618 0.10987654 0.09198561
0.00000000 0.00213860 0.21611214
0.00000000 0.00097790 0.23455105
0.02422770 0.00000000 0.21971988
0.24865748 0.01820593 0.19752353
0.60323362 0.05692864 0.28182829
0.90146645 0.09226764 0.27634703
1.08132158 0.11551888 0.21724780
1.08211948 0.11004775 0.10265879
1.08213618 0.10987654 0.09201843
0.09430403 0.24347322 0.24651132
0.09576482 0.24584267 0.25228559
0.09335123 0.23860096 0.24797096
0.19389211 0.21288784 0.22082674
0.57289739 0.18436115 0.23019062
0.87870666 0.13186033 0.23709324
1.08072474 0.11524350 0.20288240
1.08210001 0.11017882 0.10606368
1.08213618 0.10987699 0.09202168
0.31041270 0.59322898 0.40740391
0.31235030 0.59666993 0.40804307
0.31304231 0.59892747 0.40676084
0.31868861 0.58625745 0.39666520
0.48675606 0.58657999 0.31262766
0.83104361 0.53405167 0.14126375
1.06895580 0.42255348 0.12047407
1.08380130 0.24253416 0.09070679
1.08213618 0.10987295 0.09127939
0.45300425 0.85508959 0.55276832
0.45365905 0.85790031 0.55207309
0.45501117 0.86347777 0.55102052
0.45303959 0.85872249 0.54824905
0.51260890 0.85807844 0.52428949
0.70463018 0.87447328 0.39126096
1.00877511 0.82396064 0.03313668
1.08417310 0.75270776 0.03839145
1.08658035 0.55629037 0.06437575
0.55928501 1.03415828 0.65595650
0.56012955 1.03530327 0.65577978
0.56212734 1.03765998 0.65571983
0.57000155 1.03850262 0.65496744
0.61364706 1.04145410 0.64712931
0.72865115 1.05353178 0.60832213
0.87764575 1.07035191 0.46271492
1.01053523 1.05851961 0.14628348
1.01656650 1.04433744 0.14348911
0.74066028 1.08456368 0.63576179
0.74421848 1.08497597 0.63456760
0.75218397 1.08606598 0.63160026
0.76333343 1.08748762 0.62720103
0.78341111 1.09018265 0.61846511
0.82859821 1.09018265 0.59231325
0.90018351 1.09018265 0.52514281
0.97574578 1.09018265 0.38670119
0.98633041 1.09018265 0.35395979
0.93185264 1.09018265 0.47736580
0.93270221 1.09018265 0.47573781
0.93526984 1.09018265 0.47069693
0.93843575 1.09018265 0.46436762
0.94116841 1.09018265 0.45915661
0.94865289 1.09018265 0.44540491
0.96703908 1.09018265 0.40905548
0.98538367 1.09018265 0.35668836
0.98633041 1.09018265 0.35395979
0.06017532 0.02969828 0.54260346
0.06010308 0.02964320 0.54226918
0.06470234 0.03006694 0.54155406
0.22889571 0.05260337 0.53208785
0.60074111 0.10250273 0.46028700
0.86349814 0.13241821 0.54873147
1.07086865 0.14821320 0.53474487
1.07663594 0.14129790 0.46797049
1.08108402 0.11693321 0.21380986
0.06006002 0.02960966 0.54206698
0.06578927 0.03398747 0.56758689
0.07232080 0.03529871 0.57141947
0.24858665 0.05925669 0.56177537
0.62994054 0.10964865 0.47968132
0.88525026 0.13759517 0.56234819
1.07459326 0.14972440 0.54051610
1.07678387 0.14061988 0.46026563
1.08136270 0.11515965 0.19409416
0.05992983 0.03023710 0.54078264
0.06600562 0.03451320 0.56820970
0.06737901 0.03251507 0.55541906
0.24632431 0.05651745 0.54293712
0.62316101 0.10709509 0.46947452
0.88637002 0.13738461 0.56155586
1.07485463 0.15004649 0.54167485
1.07712363 0.13910744 0.44387261
1.08182777 0.11206943 0.14963015
0.11299554 0.17818602 0.55626798
0.11400942 0.17497492 0.57021745
0.11212928 0.16944167 0.57000746
0.20189161 0.14731848 0.54863860
0.58672164 0.14051533 0.47211652
0.86471917 0.14207746 0.54541901
1.07420003 0.14833394 0.53030215
1.07733752 0.13812067 0.43576669
1.08195528 0.11119151 0.13212797
0.27332555 0.55921045 0.59433468
0.27493998 0.56111193 0.59851978
0.27594460 0.56168827 0.60251100
0.27919563 0.54737762 0.59317544
0.48291285 0.52507092 0.55905403
0.82583943 0.46876433 0.53129775
1.06249192 0.36710025 0.48949810
1.08034912 0.22324341 0.38144448
1.08208234 0.11029876 0.10856303
0.44869571 0.84045503 0.64415591
0.45009609 0.84256346 0.64423548
0.45292083 0.84690388 0.64390779
0.45017956 0.84223774 0.64089213
0.51602596 0.83259353 0.63942835
0.73725143 0.84143871 0.59927238
1.01523607 0.79992652 0.42729891
1.08763543 0.73811765 0.25465955
1.08636144 0.51243380 0.07031786
0.57443276 1.02509321 0.73020107
0.57540506 1.02653520 0.72853282
0.57659476 1.02957129 0.72257372
0.57811479 1.03016634 0.71473602
0.61927323 1.02890543 0.71403314
0.74596688 1.03826989 0.69478207
0.89118101 1.05778708 0.56271147
1.01863074 1.05386426 0.22603910
1.02019307 1.03576848 0.13296561
0.74481773 1.08254708 0.67705075
0.74795408 1.08313033 0.67176358
0.75430974 1.08446284 0.65746060
0.76417521 1.08635051 0.64525858
0.78411007 1.08902058 0.63734529
0.83040154 1.09018265 0.61448644
0.90186145 1.09018265 0.54626930
0.97637945 1.09018265 0.39787702
0.98633041 1.09018265 0.35395979
0.93157630 1.09018265 0.47780742
0.93243657 1.09018265 0.47616045
0.93502275 1.09018265 0.47113961
0.93828063 1.09018265 0.46465038
0.94112684 1.09018265 0.45916584
0.94798660 1.09018265 0.44646117
0.96604755 1.09018265 0.41135301
0.98521737 1.09018265 0.35723472
0.98633041 1.09018265 0.35395979
0.11606184 0.07145881 0.79341350
0.11604198 0.07144429 0.79332845
0.11601539 0.07142535 0.79321490
0.17819141 0.07998295 0.79054506
0.52098118 0.12905450 0.75825640
0.89811152 0.18725043 0.60782050
1.06364893 0.20323922 0.76988033
1.07106312 0.20239035 0.76889498
1.07180596 0.19090414 0.72502309
0.11603416 0.07143879 0.79329515
0.12270550 0.07631970 0.82050657
0.12336614 0.07680840 0.82313386
0.18693454 0.08448875 0.81815579
0.54221665 0.13600370 0.77833041
0.91856665 0.19286568 0.62076557
1.06948698 0.20665824 0.77655102
1.07154032 0.20410291 0.77144865
1.07215306 0.19042835 0.72040774
0.11597411 0.07139495 0.79303779
0.12209056 0.07586517 0.81804308
0.12010144 0.07440359 0.81007114
0.19289598 0.08372355 0.80502786
0.54734030 0.13598280 0.77201468
0.92359103 0.19434021 0.62275195
1.07128680 0.20907479 0.77991910
1.07213365 0.20596383 0.77354312
1.07289991 0.18816060 0.70400341
0.12283689 0.09310528 0.79337976
0.12576538 0.09252840 0.80897215
0.12627472 0.09140238 0.81334307
0.18016535 0.09219837 0.79989363
0.53000214 0.13488225 0.76656141
0.90625855 0.18995212 0.61190585
1.06885788 0.20547683 0.77453877
1.07149696 0.20337886 0.76904384
1.07305541 0.18358873 0.67944013
0.26157584 0.43514689 0.84401307
0.26113084 0.43173329 0.85089824
0.25966727 0.42568483 0.85920567
0.26114185 0.41993042 0.84929660
0.44526234 0.38954120 0.81139230
0.84211651 0.37373165 0.69137213
1.05134061 0.30031229 0.77075014
1.07137923 0.22751956 0.75824026
1.07321566 0.17579750 0.63659853
0.40286814 0.80081950 0.86122264
0.40394716 0.80188997 0.86400464
0.40622167 0.80424245 0.86948706
0.40434293 0.79944306 0.86840686
0.45783297 0.78831540 0.85669733
0.75540174 0.79429318 0.83157992
1.01604840 0.76166527 0.81140693
1.08282591 0.66781602 0.76908459
1.07949604 0.38630967 0.55341730
0.53903354 1.01602565 0.85020484
0.54111567 1.01689680 0.85018623
0.54615475 1.01928817 0.84957907
0.55101602 1.01926507 0.84791854
0.59135243 1.01492380 0.84973487
0.78029544 1.01390931 0.87801581
0.94212366 1.02275572 0.84964641
1.07196230 1.01537757 0.72861716
1.06277987 0.99218752 0.49970061
0.78054912 1.07639371 0.88840124
0.78477145 1.07675842 0.88596888
0.79315053 1.07774908 0.87597343
0.80626734 1.07930566 0.86249077
0.83229577 1.08168118 0.85610694
0.88471327 1.08619573 0.85499572
0.95344830 1.09018265 0.81667186
1.01708208 1.09018265 0.70495641
1.00918129 1.09018265 0.49463091
0.96659751 1.09018265 0.68922590
0.96608712 1.09018265 0.68101771
0.96332470 1.09018265 0.64959192
0.95909867 1.09018265 0.60269443
0.95691951 1.09018265 0.56838250
0.95948695 1.09018265 0.53685487
0.97392644 1.09018265 0.48537456
0.99168837 1.09018265 0.40988202
0.99168043 1.09018265 0.38766223
0.15838987 0.09961353 0.97177686
0.15838542 0.09961064 0.97176013
0.15837978 0.09960692 0.97173555
0.16675944 0.10040290 0.97123540
0.39759160 0.13680703 0.96338402
0.84994368 0.19718801 0.85943335
1.09018265 0.25258518 0.73735279
1.09018265 0.25568025 0.76115575
1.09018265 0.25793286 0.75566239
0.15838438 0.09960995 0.97175315
0.16216312 0.10226344 0.98783377
0.16245191 0.10246892 0.98921952
0.16939800 0.10291381 0.98678850
0.40594735 0.14011427 0.97642589
0.87013751 0.20131318 0.86197394
1.09018265 0.25502670 0.74248536
1.09018265 0.25692139 0.75809402
1.09018265 0.25848825 0.75407647
0.15837592 0.09960417 0.97171839
0.16169030 0.10192793 0.98560432
0.16136656 0.10169939 0.98429070
0.17146729 0.10254923 0.98247558
0.41272607 0.14119774 0.97635593
0.88114625 0.20341749 0.86173231
1.09018265 0.25699421 0.74331192
1.09018265 0.25861835 0.75378302
1.09018265 0.25941991 0.75131957
0.15830050 0.09955199 0.97138766
0.16053821 0.10111552 0.98092673
0.16175496 0.10197465 0.98589684
0.17304560 0.10203232 0.97798727
0.42439471 0.14215825 0.96932610
0.87284828 0.20074309 0.85634514
1.09018265 0.25514630 0.74540102
1.09018265 0.25752634 0.75652179
1.09018265 0.25868670 0.75281565
0.21303030 0.26005474 0.98670194
0.21126314 0.25230823 0.99184005
0.20757365 0.23781993 0.99840751
0.20781371 0.23750866 0.99293823
0.36409868 0.22533699 0.97661961
0.81810942 0.24845543 0.89416718
1.09018265 0.27715518 0.73791050
1.09018265 0.25781706 0.76164992
1.09018265 0.25646976 0.75764120
0.40501958 0.70627446 1.05520771
0.40497838 0.70531614 1.05720615
0.40481685 0.70325642 1.06089008
0.40280318 0.69785842 1.06036625
0.43192861 0.68363084 1.04868179
0.72504013 0.69438785 1.00112327
1.03232043 0.65322615 0.87895824
1.09018265 0.55419849 0.87657279
1.09018265 0.34362331 0.79969167
0.48744960 0.98776342 1.04321495
0.48870789 0.98849441 1.04411493
0.49172897 0.99065394 1.04663852
0.49604370 0.99011665 1.04784859
0.52570243 0.98413547 1.04512546
0.73092159 0.98339488 1.03494149
0.95719044 0.98591752 1.02089234
1.08341805 0.96993113 1.00567066
1.08810117 0.91452557 0.97078786
0.73273754 1.08037940 1.02817953
0.73884331 1.08049806 1.02808332
0.75209008 1.08079963 1.02745795
0.77336907 1.08121971 1.02630778
0.81494717 1.08183260 1.02629028
0.89460844 1.08275974 1.03039026
0.99127724 1.08384634 1.03503000
1.05831115 1.08857774 1.01544348
1.08070650 1.09018265 0.96564365
1.02585343 1.09018265 1.04322581
1.02645386 1.09018265 1.04206973
1.02769145 1.09018265 1.03611905
1.02823237 1.09018265 1.02193719
1.02809658 1.09018265 1.00505922
1.02970394 1.09018265 0.98047550
1.03505349 1.09018265 0.92904035
1.05122997 1.09018265 0.87457329
1.05578070 1.09018265 0.82195399
0.17513866 0.11192212 1.04170342
0.17513866 0.11192121 1.04170249
0.17513764 0.11192105 1.04170089
0.17513764 0.11192105 1.04169969
0.25425142 0.12458076 1.03972761
0.74743706 0.19608035 0.98455286
1.09018265 0.25977410 0.73033665
1.09018265 0.26965395 0.72730836
1.09018265 0.27009475 0.72730224
0.17513778 0.11192105 1.04170249
0.17561204 0.11229358 1.04334088
0.17564939 0.11232272 1.04346747
0.17559424 0.11227940 1.04328228
0.25096201 0.12449377 1.04131023
0.75855202 0.19751013 0.98094113
1.09018265 0.26187395 0.72718798
1.09018265 0.26977015 0.72719045
1.09018265 0.27011077 0.72728056
0.17513764 0.11192105 1.04170089
0.17554973 0.11224464 1.04313068
0.17560927 0.11229084 1.04333391
0.17555922 0.11225211 1.04316513
0.25041519 0.12450944 1.04170356
0.76489546 0.19855405 0.97868885
1.09018265 0.26407482 0.72461577
1.09018265 0.26995241 0.72709434
1.09018265 0.27014115 0.72724868
0.17513603 0.11192045 1.04169569
0.17541738 0.11214101 1.04268006
0.17565158 0.11232485 1.04347686
0.17538747 0.11211724 1.04257713
0.25163371 0.12456624 1.04073707
0.75883283 0.19773712 0.98176689
1.09018265 0.26304418 0.72529117
1.09018265 0.26987448 0.72712493
1.09018265 0.27013178 0.72723937
0.18057243 0.13159855 1.04266436
0.18013561 0.13008634 1.04312109
0.17932210 0.12707270 1.04395375
0.17920252 0.12680640 1.04341780
0.24478699 0.13032993 1.04075414
0.75083426 0.19871854 0.98892027
1.09018265 0.26231402 0.72574316
1.09018265 0.26973664 0.72722001
1.09018265 0.27008371 0.72723937
0.34534540 0.54054127 1.09018265
0.34218999 0.53304917 1.08974660
0.33484935 0.51603905 1.08828936
0.32856077 0.50124954 1.08644660
0.34188983 0.47892377 1.08127168
0.66247879 0.45845646 1.04598059
1.07452410 0.44453452 0.84671801
1.09018265 0.38937282 0.78160356
1.09018265 0.30574394 0.74458619
0.49681082 0.95218538 1.09018265
0.49702635 0.95198375 1.09018265
0.49771999 0.95167088 1.09018265
0.49871486 0.94845481 1.09018265
0.51309511 0.93995651 1.09018265
0.66895972 0.93329200 1.09018265
0.94572667 0.94106676 1.08166239
1.09007528 0.92059669 1.02745810
1.09018265 0.79558409 0.96986448
0.68536138 1.07297830 1.09018265
0.68799068 1.07308785 1.09018265
0.69414025 1.07349005 1.09018265
0.70736597 1.07389887 1.09018265
0.75549792 1.07455461 1.09018265
0.85967004 1.07622032 1.09018265
0.97753029 1.07686948 1.09018265
1.06595432 1.07585014 1.08755207
1.09018265 1.07142889 1.08328638
1.02050572 1.09018265 1.09018265
1.02149169 1.09018265 1.09018265
1.02427856 1.09018265 1.09018265
1.02800539 1.09018265 1.09018265
1.03195973 1.09018265 1.08992999
1.03920402 1.09018265 1.08898482
1.05644200 1.09018265 1.08780604
1.07873374 1.09018265 1.08633900
1.09018265 1.09018265 1.08285677
0.17607939 0.11266086 1.04521294
0.17607939 0.11266086 1.04521294
0.17607939 0.11266086 1.04521294
0.17607939 0.11266086 1.04521294
0.17734104 0.11278876 1.04513976
0.43096021 0.14953009 1.01702650
1.08030503 0.24494915 0.80243679
1.09018265 0.27023127 0.72728696
1.09018265 0.27023127 0.72728696
0.17607939 0.11266086 1.04521294
0.17607939 0.11266086 1.04521294
0.17607939 0.11266086 1.04521294
0.17607939 0.11266086 1.04521294
0.17618736 0.11267126 1.04520667
0.41474965 0.14647521 1.01692891
1.08149734 0.24522313 0.80089832
1.09018265 0.27023127 0.72728696
1.09018265 0.27023127 0.72728696
0.17607939 0.11266086 1.04521294
0.17607939 0.11266086 1.04521294
0.17607939 0.11266086 1.04521294
0.17607939 0.11266086 1.04521294
0.17609399 0.11266208 1.04521224
0.40983747 0.14601657 1.01772965
1.08186634 0.24523900 0.80019508
1.09018265 0.27023127 0.72728696
1.09018265 0.27023127 0.72728696
0.17607939 0.11266086 1.04521294
0.17607939 0.11266086 1.04521294
0.17607939 0.11266086 1.04521294
0.17607939 0.11266086 1.04521294
0.17620721 0.11267187 1.04520528
0.40346381 0.14571276 1.02055644
1.08029310 0.24452945 0.80189085
1.09018265 0.27023127 0.72728696
1.09018265 0.27023127 0.72728696
0.17607939 0.11266086 1.04521294
0.17607939 0.11266086 1.04521294
0.17607939 0.11266086 1.04521294
0.17607939 0.11266086 1.04521294
0.17658479 0.11271042 1.04518368
0.38787469 0.14459097 1.02602541
1.07715805 0.24323369 0.80477036
1.09018265 0.27023127 0.72728696
1.09018265 0.27023127 0.72728696
0.19343075 0.17422490 1.05055566
0.18786440 0.15569201 1.04910388
0.18277602 0.13471353 1.04765720
0.18205390 0.13184930 1.04737484
0.18135169 0.12668972 1.04688705
0.35766469 0.14889114 1.03732102
1.07462623 0.24625654 0.80780740
1.09018265 0.27265569 0.72832971
1.09018265 0.27037514 0.72734808
0.44700611 0.81444799 1.09018265
0.44315178 0.80108485 1.09018265
0.43670976 0.77794972 1.09018265
0.43073907 0.76090838 1.09018265
0.41981517 0.72567709 1.09018265
0.47480700 0.66782168 1.09018265
0.96969030 0.63045906 0.99608025
1.09018265 0.62231097 0.89223276
1.09018265 0.54450823 0.85348880
0.63894011 1.06878255 1.09018265
0.64216657 1.06885875 1.09018265
0.64529224 1.06891252 1.09018265
0.65897218 1.06881082 1.09018265
0.69056726 1.06827688 1.09018265
0.76815033 1.06677796 1.09018265
0.94264755 1.06602940 1.09018265
1.06248884 1.06155687 1.09018265
1.09018265 1.05393556 1.08339027
1.00688936 1.09018265 1.09018265
1.00774565 1.09018265 1.09018265
1.01000650 1.09018265 1.09018265
1.01310322 1.09018265 1.09018265
1.01705754 1.09018265 1.09018265
1.02694900 1.09018265 1.09018265
1.04707295 1.09018265 1.09018265
1.07538068 1.09018265 1.09018265
1.09018265 1.09018265 1.09018265
