public/luts/Denis-BarbasxSony-ARCTIC.cube
TITLE "Denis-BarbasxSony-ARCTIC"
LUT_3D_SIZE 5
# MLUTS-Log3/Sony S-Gamut3.cine -> S-Log3/Sony S-Gamut3.cine, CineEI Shift 0.00, Black Level 3.54% IRE, Input 109% -> Output 100% - Created with LUTCalc v4.09 by Ben Turley February 2025
0.00000000 0.00000000 0.00000000
0.21889269 0.00000000 0.00000000
0.51084475 0.00000000 0.00000000
0.80279680 0.00000000 0.00000000
1.09018265 0.00000000 0.00000000
0.00000000 0.21889269 0.00000000
0.21889269 0.21889269 0.00000000
0.51084475 0.21889269 0.00000000
0.80279680 0.21889269 0.00000000
1.09018265 0.21889269 0.00000000
0.00000000 0.51084475 0.00000000
0.21889269 0.51084475 0.00000000
0.51084475 0.51084475 0.00000000
0.80279680 0.51084475 0.00000000
1.09018265 0.51084475 0.00000000
0.00000000 0.80279680 0.00000000
0.21889269 0.80279680 0.00000000
0.51084475 0.80279680 0.00000000
0.80279680 0.80279680 0.00000000
1.09018265 0.80279680 0.00000000
0.00000000 1.09018265 0.00000000
0.21889269 1.09018265 0.00000000
0.51084475 1.09018265 0.00000000
0.80279680 1.09018265 0.00000000
1.09018265 1.09018265 0.00000000
0.00000000 0.00000000 0.21889269
0.21889269 0.00000000 0.21889269
0.51084475 0.00000000 0.21889269
0.80279680 0.00000000 0.21889269
1.09018265 0.00000000 0.21889269
0.00000000 0.21889269 0.21889269
0.21889269 0.21889269 0.21889269
0.51084475 0.21889269 0.21889269
0.80279680 0.21889269 0.21889269
1.09018265 0.21889269 0.21889269
0.00000000 0.51084475 0.21889269
0.21889269 0.51084475 0.21889269
0.51084475 0.51084475 0.21889269
0.80279680 0.51084475 0.21889269
1.09018265 0.51084475 0.21889269
0.00000000 0.80279680 0.21889269
0.21889269 0.80279680 0.21889269
0.51084475 0.80279680 0.21889269
0.80279680 0.80279680 0.21889269
1.09018265 0.80279680 0.21889269
0.00000000 1.09018265 0.21889269
0.21889269 1.09018265 0.21889269
0.51084475 1.09018265 0.21889269
0.80279680 1.09018265 0.21889269
1.09018265 1.09018265 0.21889269
0.00000000 0.00000000 0.51084475
0.21889269 0.00000000 0.51084475
0.51084475 0.00000000 0.51084475
0.80279680 0.00000000 0.51084475
1.09018265 0.00000000 0.51084475
0.00000000 0.21889269 0.51084475
0.21889269 0.21889269 0.51084475
0.51084475 0.21889269 0.51084475
0.80279680 0.21889269 0.51084475
1.09018265 0.21889269 0.51084475
0.00000000 0.51084475 0.51084475
0.21889269 0.51084475 0.51084475
0.51084475 0.51084475 0.51084475
0.80279680 0.51084475 0.51084475
1.09018265 0.51084475 0.51084475
0.00000000 0.80279680 0.51084475
0.21889269 0.80279680 0.51084475
0.51084475 0.80279680 0.51084475
0.80279680 0.80279680 0.51084475
1.09018265 0.80279680 0.51084475
0.00000000 1.09018265 0.51084475
0.21889269 1.09018265 0.51084475
0.51084475 1.09018265 0.51084475
0.80279680 1.09018265 0.51084475
1.09018265 1.09018265 0.51084475
0.00000000 0.00000000 0.80279680
0.21889269 0.00000000 0.80279680
0.51084475 0.00000000 0.80279680
0.80279680 0.00000000 0.80279680
1.09018265 0.00000000 0.80279680
0.00000000 0.21889269 0.80279680
0.21889269 0.21889269 0.80279680
0.51084475 0.21889269 0.80279680
0.80279680 0.21889269 0.80279680
1.09018265 0.21889269 0.80279680
0.00000000 0.51084475 0.80279680
0.21889269 0.51084475 0.80279680
0.51084475 0.51084475 0.80279680
0.80279680 0.51084475 0.80279680
1.09018265 0.51084475 0.80279680
0.00000000 0.80279680 0.80279680
0.21889269 0.80279680 0.80279680
0.51084475 0.80279680 0.80279680
0.80279680 0.80279680 0.80279680
1.09018265 0.80279680 0.80279680
0.00000000 1.09018265 0.80279680
0.21889269 1.09018265 0.80279680
0.51084475 1.09018265 0.80279680
0.80279680 1.09018265 0.80279680
1.09018265 1.09018265 0.80279680
0.00000000 0.00000000 1.09018265
0.21889269 0.00000000 1.09018265
0.51084475 0.00000000 1.09018265
0.80279680 0.00000000 1.09018265
1.09018265 0.00000000 1.09018265
0.00000000 0.21889269 1.09018265
0.21889269 0.21889269 1.09018265
0.51084475 0.21889269 1.09018265
0.80279680 0.21889269 1.09018265
1.09018265 0.21889269 1.09018265
0.00000000 0.51084475 1.09018265
0.21889269 0.51084475 1.09018265
0.51084475 0.51084475 1.09018265
0.80279680 0.51084475 1.09018265
1.09018265 0.51084475 1.09018265
0.00000000 0.80279680 1.09018265
0.21889269 0.80279680 1.09018265
0.51084475 0.80279680 1.09018265
0.80279680 0.80279680 1.09018265
1.09018265 0.80279680 1.09018265
0.00000000 1.09018265 1.09018265
0.21889269 1.09018265 1.09018265
0.51084475 1.09018265 1.09018265
0.80279680 1.09018265 1.09018265
1.09018265 1.09018265 1.09018265
