public/luts/Denis-BarbasxSony-ARCTIC.cube
TITLE "Denis-BarbasxSony-ARCTIC"
LUT_3D_SIZE 33
# MLUTS-Log3/Sony S-Gamut3.cine -> S-Log3/Sony S-Gamut3.cine, CineEI Shift 0.00, Black Level 3.54% IRE, Input 109% -> Output 100% - Created with LUTCalc v4.09 by Ben Turley February 2025
0.00000000 0.00000000 0.00000000
0.00000000 0.00000000 0.00000000
0.00000000 0.00000000 0.00000000
0.03642266 0.00000000 0.00000000
0.07291667 0.00000000 0.00000000
0.10941067 0.00000000 0.00000000
0.14590468 0.00000000 0.00000000
0.18239869 0.00000000 0.00000000
0.21889269 0.00000000 0.00000000
0.25538670 0.00000000 0.00000000
0.29188071 0.00000000 0.00000000
0.32837471 0.00000000 0.00000000
0.36486872 0.00000000 0.00000000
0.40136273 0.00000000 0.00000000
0.43785674 0.00000000 0.00000000
0.47435074 0.00000000 0.00000000
0.51084475 0.00000000 0.00000000
0.54733876 0.00000000 0.00000000
0.58383276 0.00000000 0.00000000
0.62032677 0.00000000 0.00000000
0.65682078 0.00000000 0.00000000
0.69331478 0.00000000 0.00000000
0.72980879 0.00000000 0.00000000
0.76630280 0.00000000 0.00000000
0.80279680 0.00000000 0.00000000
0.83929081 0.00000000 0.00000000
0.87578482 0.00000000 0.00000000
0.91227882 0.00000000 0.00000000
0.94877283 0.00000000 0.00000000
0.98526684 0.00000000 0.00000000
1.02176084 0.00000000 0.00000000
1.05825485 0.00000000 0.00000000
1.09018265 0.00000000 0.00000000
0.00000000 0.00000000 0.00000000
0.00000000 0.00000000 0.00000000
0.00000000 0.00000000 0.00000000
0.03642266 0.00000000 0.00000000
0.07291667 0.00000000 0.00000000
0.10941067 0.00000000 0.00000000
0.14590468 0.00000000 0.00000000
0.18239869 0.00000000 0.00000000
0.21889269 0.00000000 0.00000000
0.25538670 0.00000000 0.00000000
0.29188071 0.00000000 0.00000000
0.32837471 0.00000000 0.00000000
0.36486872 0.00000000 0.00000000
0.40136273 0.00000000 0.00000000
0.43785674 0.00000000 0.00000000
0.47435074 0.00000000 0.00000000
0.51084475 0.00000000 0.00000000
0.54733876 0.00000000 0.00000000
0.58383276 0.00000000 0.00000000
0.62032677 0.00000000 0.00000000
0.65682078 0.00000000 0.00000000
0.69331478 0.00000000 0.00000000
0.72980879 0.00000000 0.00000000
0.76630280 0.00000000 0.00000000
0.80279680 0.00000000 0.00000000
0.83929081 0.00000000 0.00000000
0.87578482 0.00000000 0.00000000
0.91227882 0.00000000 0.00000000
0.94877283 0.00000000 0.00000000
0.98526684 0.00000000 0.00000000
1.02176084 0.00000000 0.00000000
1.05825485 0.00000000 0.00000000
1.09018265 0.00000000 0.00000000
0.00000000 0.00000000 0.00000000
0.00000000 0.00000000 0.00000000
0.00000000 0.00000000 0.00000000
0.03642266 0.00000000 0.00000000
0.07291667 0.00000000 0.00000000
0.10941067 0.00000000 0.00000000
0.14590468 0.00000000 0.00000000
0.18239869 0.00000000 0.00000000
0.21889269 0.00000000 0.00000000
0.25538670 0.00000000 0.00000000
0.29188071 0.00000000 0.00000000
0.32837471 0.00000000 0.00000000
0.36486872 0.00000000 0.00000000
0.40136273 0.00000000 0.00000000
0.43785674 0.00000000 0.00000000
0.47435074 0.00000000 0.00000000
0.51084475 0.00000000 0.00000000
0.54733876 0.00000000 0.00000000
0.58383276 0.00000000 0.00000000
0.62032677 0.00000000 0.00000000
0.65682078 0.00000000 0.00000000
0.69331478 0.00000000 0.00000000
0.72980879 0.00000000 0.00000000
0.76630280 0.00000000 0.00000000
0.80279680 0.00000000 0.00000000
0.83929081 0.00000000 0.00000000
0.87578482 0.00000000 0.00000000
0.91227882 0.00000000 0.00000000
0.94877283 0.00000000 0.00000000
0.98526684 0.00000000 0.00000000
1.02176084 0.00000000 0.00000000
1.05825485 0.00000000 0.00000000
1.09018265 0.00000000 0.00000000
0.00000000 0.03642266 0.00000000
0.00000000 0.03642266 0.00000000
0.00000000 0.03642266 0.00000000
0.03642266 0.03642266 0.00000000
0.07291667 0.03642266 0.00000000
0.10941067 0.03642266 0.00000000
0.14590468 0.03642266 0.00000000
0.18239869 0.03642266 0.00000000
0.21889269 0.03642266 0.00000000
0.25538670 0.03642266 0.00000000
0.29188071 0.03642266 0.00000000
0.32837471 0.03642266 0.00000000
0.36486872 0.03642266 0.00000000
0.40136273 0.03642266 0.00000000
0.43785674 0.03642266 0.00000000
0.47435074 0.03642266 0.00000000
0.51084475 0.03642266 0.00000000
0.54733876 0.03642266 0.00000000
0.58383276 0.03642266 0.00000000
0.62032677 0.03642266 0.00000000
0.65682078 0.03642266 0.00000000
0.69331478 0.03642266 0.00000000
0.72980879 0.03642266 0.00000000
0.76630280 0.03642266 0.00000000
0.80279680 0.03642266 0.00000000
0.83929081 0.03642266 0.00000000
0.87578482 0.03642266 0.00000000
0.91227882 0.03642266 0.00000000
0.94877283 0.03642266 0.00000000
0.98526684 0.03642266 0.00000000
1.02176084 0.03642266 0.00000000
1.05825485 0.03642266 0.00000000
1.09018265 0.03642266 0.00000000
0.00000000 0.07291667 0.00000000
0.00000000 0.07291667 0.00000000
0.00000000 0.07291667 0.00000000
0.03642266 0.07291667 0.00000000
0.07291667 0.07291667 0.00000000
0.10941067 0.07291667 0.00000000
0.14590468 0.07291667 0.00000000
0.18239869 0.07291667 0.00000000
0.21889269 0.07291667 0.00000000
0.25538670 0.07291667 0.00000000
0.29188071 0.07291667 0.00000000
0.32837471 0.07291667 0.00000000
0.36486872 0.07291667 0.00000000
0.40136273 0.07291667 0.00000000
0.43785674 0.07291667 0.00000000
0.47435074 0.07291667 0.00000000
0.51084475 0.07291667 0.00000000
0.54733876 0.07291667 0.00000000
0.58383276 0.07291667 0.00000000
0.62032677 0.07291667 0.00000000
0.65682078 0.07291667 0.00000000
0.69331478 0.07291667 0.00000000
0.72980879 0.07291667 0.00000000
0.76630280 0.07291667 0.00000000
0.80279680 0.07291667 0.00000000
0.83929081 0.07291667 0.00000000
0.87578482 0.07291667 0.00000000
0.91227882 0.07291667 0.00000000
0.94877283 0.07291667 0.00000000
0.98526684 0.07291667 0.00000000
1.02176084 0.07291667 0.00000000
1.05825485 0.07291667 0.00000000
1.09018265 0.07291667 0.00000000
0.00000000 0.10941067 0.00000000
0.00000000 0.10941067 0.00000000
0.00000000 0.10941067 0.00000000
0.03642266 0.10941067 0.00000000
0.07291667 0.10941067 0.00000000
0.10941067 0.10941067 0.00000000
0.14590468 0.10941067 0.00000000
0.18239869 0.10941067 0.00000000
0.21889269 0.10941067 0.00000000
0.25538670 0.10941067 0.00000000
0.29188071 0.10941067 0.00000000
0.32837471 0.10941067 0.00000000
0.36486872 0.10941067 0.00000000
0.40136273 0.10941067 0.00000000
0.43785674 0.10941067 0.00000000
0.47435074 0.10941067 0.00000000
0.51084475 0.10941067 0.00000000
0.54733876 0.10941067 0.00000000
0.58383276 0.10941067 0.00000000
0.62032677 0.10941067 0.00000000
0.65682078 0.10941067 0.00000000
0.69331478 0.10941067 0.00000000
0.72980879 0.10941067 0.00000000
0.76630280 0.10941067 0.00000000
0.80279680 0.10941067 0.00000000
0.83929081 0.10941067 0.00000000
0.87578482 0.10941067 0.00000000
0.91227882 0.10941067 0.00000000
0.94877283 0.10941067 0.00000000
0.98526684 0.10941067 0.00000000
1.02176084 0.10941067 0.00000000
1.05825485 0.10941067 0.00000000
1.09018265 0.10941067 0.00000000
0.00000000 0.14590468 0.00000000
0.00000000 0.14590468 0.00000000
0.00000000 0.14590468 0.00000000
0.03642266 0.14590468 0.00000000
0.07291667 0.14590468 0.00000000
0.10941067 0.14590468 0.00000000
0.14590468 0.14590468 0.00000000
0.18239869 0.14590468 0.00000000
0.21889269 0.14590468 0.00000000
0.25538670 0.14590468 0.00000000
0.29188071 0.14590468 0.00000000
0.32837471 0.14590468 0.00000000
0.36486872 0.14590468 0.00000000
0.40136273 0.14590468 0.00000000
0.43785674 0.14590468 0.00000000
0.47435074 0.14590468 0.00000000
0.51084475 0.14590468 0.00000000
0.54733876 0.14590468 0.00000000
0.58383276 0.14590468 0.00000000
0.62032677 0.14590468 0.00000000
0.65682078 0.14590468 0.00000000
0.69331478 0.14590468 0.00000000
0.72980879 0.14590468 0.00000000
0.76630280 0.14590468 0.00000000
0.80279680 0.14590468 0.00000000
0.83929081 0.14590468 0.00000000
0.87578482 0.14590468 0.00000000
0.91227882 0.14590468 0.00000000
0.94877283 0.14590468 0.00000000
0.98526684 0.14590468 0.00000000
1.02176084 0.14590468 0.00000000
1.05825485 0.14590468 0.00000000
1.09018265 0.14590468 0.00000000
0.00000000 0.18239869 0.00000000
0.00000000 0.18239869 0.00000000
0.00000000 0.18239869 0.00000000
0.03642266 0.18239869 0.00000000
0.07291667 0.18239869 0.00000000
0.10941067 0.18239869 0.00000000
0.14590468 0.18239869 0.00000000
0.18239869 0.18239869 0.00000000
0.21889269 0.18239869 0.00000000
0.25538670 0.18239869 0.00000000
0.29188071 0.18239869 0.00000000
0.32837471 0.18239869 0.00000000
0.36486872 0.18239869 0.00000000
0.40136273 0.18239869 0.00000000
0.43785674 0.18239869 0.00000000
0.47435074 0.18239869 0.00000000
0.51084475 0.18239869 0.00000000
0.54733876 0.18239869 0.00000000
0.58383276 0.18239869 0.00000000
0.62032677 0.18239869 0.00000000
0.65682078 0.18239869 0.00000000
0.69331478 0.18239869 0.00000000
0.72980879 0.18239869 0.00000000
0.76630280 0.18239869 0.00000000
0.80279680 0.18239869 0.00000000
0.83929081 0.18239869 0.00000000
0.87578482 0.18239869 0.00000000
0.91227882 0.18239869 0.00000000
0.94877283 0.18239869 0.00000000
0.98526684 0.18239869 0.00000000
1.02176084 0.18239869 0.00000000
1.05825485 0.18239869 0.00000000
1.09018265 0.18239869 0.00000000
0.00000000 0.21889269 0.00000000
0.00000000 0.21889269 0.00000000
0.00000000 0.21889269 0.00000000
0.03642266 0.21889269 0.00000000
0.07291667 0.21889269 0.00000000
0.10941067 0.21889269 0.00000000
0.14590468 0.21889269 0.00000000
0.18239869 0.21889269 0.00000000
0.21889269 0.21889269 0.00000000
0.25538670 0.21889269 0.00000000
0.29188071 0.21889269 0.00000000
0.32837471 0.21889269 0.00000000
0.36486872 0.21889269 0.00000000
0.40136273 0.21889269 0.00000000
0.43785674 0.21889269 0.00000000
0.47435074 0.21889269 0.00000000
0.51084475 0.21889269 0.00000000
0.54733876 0.21889269 0.00000000
0.58383276 0.21889269 0.00000000
0.62032677 0.21889269 0.00000000
0.65682078 0.21889269 0.00000000
0.69331478 0.21889269 0.00000000
0.72980879 0.21889269 0.00000000
0.76630280 0.21889269 0.00000000
0.80279680 0.21889269 0.00000000
0.83929081 0.21889269 0.00000000
0.87578482 0.21889269 0.00000000
0.91227882 0.21889269 0.00000000
0.94877283 0.21889269 0.00000000
0.98526684 0.21889269 0.00000000
1.02176084 0.21889269 0.00000000
1.05825485 0.21889269 0.00000000
1.09018265 0.21889269 0.00000000
0.00000000 0.25538670 0.00000000
0.00000000 0.25538670 0.00000000
0.00000000 0.25538670 0.00000000
0.03642266 0.25538670 0.00000000
0.07291667 0.25538670 0.00000000
0.10941067 0.25538670 0.00000000
0.14590468 0.25538670 0.00000000
0.18239869 0.25538670 0.00000000
0.21889269 0.25538670 0.00000000
0.25538670 0.25538670 0.00000000
0.29188071 0.25538670 0.00000000
0.32837471 0.25538670 0.00000000
0.36486872 0.25538670 0.00000000
0.40136273 0.25538670 0.00000000
0.43785674 0.25538670 0.00000000
0.47435074 0.25538670 0.00000000
0.51084475 0.25538670 0.00000000
0.54733876 0.25538670 0.00000000
0.58383276 0.25538670 0.00000000
0.62032677 0.25538670 0.00000000
0.65682078 0.25538670 0.00000000
0.69331478 0.25538670 0.00000000
0.72980879 0.25538670 0.00000000
0.76630280 0.25538670 0.00000000
0.80279680 0.25538670 0.00000000
0.83929081 0.25538670 0.00000000
0.87578482 0.25538670 0.00000000
0.91227882 0.25538670 0.00000000
0.94877283 0.25538670 0.00000000
0.98526684 0.25538670 0.00000000
1.02176084 0.25538670 0.00000000
1.05825485 0.25538670 0.00000000
1.09018265 0.25538670 0.00000000
0.00000000 0.29188071 0.00000000
0.00000000 0.29188071 0.00000000
0.00000000 0.29188071 0.00000000
0.03642266 0.29188071 0.00000000
0.07291667 0.29188071 0.00000000
0.10941067 0.29188071 0.00000000
0.14590468 0.29188071 0.00000000
0.18239869 0.29188071 0.00000000
0.21889269 0.29188071 0.00000000
0.25538670 0.29188071 0.00000000
0.29188071 0.29188071 0.00000000
0.32837471 0.29188071 0.00000000
0.36486872 0.29188071 0.00000000
0.40136273 0.29188071 0.00000000
0.43785674 0.29188071 0.00000000
0.47435074 0.29188071 0.00000000
0.51084475 0.29188071 0.00000000
0.54733876 0.29188071 0.00000000
0.58383276 0.29188071 0.00000000
0.62032677 0.29188071 0.00000000
0.65682078 0.29188071 0.00000000
0.69331478 0.29188071 0.00000000
0.72980879 0.29188071 0.00000000
0.76630280 0.29188071 0.00000000
0.80279680 0.29188071 0.00000000
0.83929081 0.29188071 0.00000000
0.87578482 0.29188071 0.00000000
0.91227882 0.29188071 0.00000000
0.94877283 0.29188071 0.00000000
0.98526684 0.29188071 0.00000000
1.02176084 0.29188071 0.00000000
1.05825485 0.29188071 0.00000000
1.09018265 0.29188071 0.00000000
0.00000000 0.32837471 0.00000000
0.00000000 0.32837471 0.00000000
0.00000000 0.32837471 0.00000000
0.03642266 0.32837471 0.00000000
0.07291667 0.32837471 0.00000000
0.10941067 0.32837471 0.00000000
0.14590468 0.32837471 0.00000000
0.18239869 0.32837471 0.00000000
0.21889269 0.32837471 0.00000000
0.25538670 0.32837471 0.00000000
0.29188071 0.32837471 0.00000000
0.32837471 0.32837471 0.00000000
0.36486872 0.32837471 0.00000000
0.40136273 0.32837471 0.00000000
0.43785674 0.32837471 0.00000000
0.47435074 0.32837471 0.00000000
0.51084475 0.32837471 0.00000000
0.54733876 0.32837471 0.00000000
0.58383276 0.32837471 0.00000000
0.62032677 0.32837471 0.00000000
0.65682078 0.32837471 0.00000000
0.69331478 0.32837471 0.00000000
0.72980879 0.32837471 0.00000000
0.76630280 0.32837471 0.00000000
0.80279680 0.32837471 0.00000000
0.83929081 0.32837471 0.00000000
0.87578482 0.32837471 0.00000000
0.91227882 0.32837471 0.00000000
0.94877283 0.32837471 0.00000000
0.98526684 0.32837471 0.00000000
1.02176084 0.32837471 0.00000000
1.05825485 0.32837471 0.00000000
1.09018265 0.32837471 0.00000000
0.00000000 0.36486872 0.00000000
0.00000000 0.36486872 0.00000000
0.00000000 0.36486872 0.00000000
0.03642266 0.36486872 0.00000000
0.07291667 0.36486872 0.00000000
0.10941067 0.36486872 0.00000000
0.14590468 0.36486872 0.00000000
0.18239869 0.36486872 0.00000000
0.21889269 0.36486872 0.00000000
0.25538670 0.36486872 0.00000000
0.29188071 0.36486872 0.00000000
0.32837471 0.36486872 0.00000000
0.36486872 0.36486872 0.00000000
0.40136273 0.36486872 0.00000000
0.43785674 0.36486872 0.00000000
0.47435074 0.36486872 0.00000000
0.51084475 0.36486872 0.00000000
0.54733876 0.36486872 0.00000000
0.58383276 0.36486872 0.00000000
0.62032677 0.36486872 0.00000000
0.65682078 0.36486872 0.00000000
0.69331478 0.36486872 0.00000000
0.72980879 0.36486872 0.00000000
0.76630280 0.36486872 0.00000000
0.80279680 0.36486872 0.00000000
0.83929081 0.36486872 0.00000000
0.87578482 0.36486872 0.00000000
0.91227882 0.36486872 0.00000000
0.94877283 0.36486872 0.00000000
0.98526684 0.36486872 0.00000000
1.02176084 0.36486872 0.00000000
1.05825485 0.36486872 0.00000000
1.09018265 0.36486872 0.00000000
0.00000000 0.40136273 0.00000000
0.00000000 0.40136273 0.00000000
0.00000000 0.40136273 0.00000000
0.03642266 0.40136273 0.00000000
0.07291667 0.40136273 0.00000000
0.10941067 0.40136273 0.00000000
0.14590468 0.40136273 0.00000000
0.18239869 0.40136273 0.00000000
0.21889269 0.40136273 0.00000000
0.25538670 0.40136273 0.00000000
0.29188071 0.40136273 0.00000000
0.32837471 0.40136273 0.00000000
0.36486872 0.40136273 0.00000000
0.40136273 0.40136273 0.00000000
0.43785674 0.40136273 0.00000000
0.47435074 0.40136273 0.00000000
0.51084475 0.40136273 0.00000000
0.54733876 0.40136273 0.00000000
0.58383276 0.40136273 0.00000000
0.62032677 0.40136273 0.00000000
0.65682078 0.40136273 0.00000000
0.69331478 0.40136273 0.00000000
0.72980879 0.40136273 0.00000000
0.76630280 0.40136273 0.00000000
0.80279680 0.40136273 0.00000000
0.83929081 0.40136273 0.00000000
0.87578482 0.40136273 0.00000000
0.91227882 0.40136273 0.00000000
0.94877283 0.40136273 0.00000000
0.98526684 0.40136273 0.00000000
1.02176084 0.40136273 0.00000000
1.05825485 0.40136273 0.00000000
1.09018265 0.40136273 0.00000000
0.00000000 0.43785674 0.00000000
0.00000000 0.43785674 0.00000000
0.00000000 0.43785674 0.00000000
0.03642266 0.43785674 0.00000000
0.07291667 0.43785674 0.00000000
0.10941067 0.43785674 0.00000000
0.14590468 0.43785674 0.00000000
0.18239869 0.43785674 0.00000000
0.21889269 0.43785674 0.00000000
0.25538670 0.43785674 0.00000000
0.29188071 0.43785674 0.00000000
0.32837471 0.43785674 0.00000000
0.36486872 0.43785674 0.00000000
0.40136273 0.43785674 0.00000000
0.43785674 0.43785674 0.00000000
0.47435074 0.43785674 0.00000000
0.51084475 0.43785674 0.00000000
0.54733876 0.43785674 0.00000000
0.58383276 0.43785674 0.00000000
0.62032677 0.43785674 0.00000000
0.65682078 0.43785674 0.00000000
0.69331478 0.43785674 0.00000000
0.72980879 0.43785674 0.00000000
0.76630280 0.43785674 0.00000000
0.80279680 0.43785674 0.00000000
0.83929081 0.43785674 0.00000000
0.87578482 0.43785674 0.00000000
0.91227882 0.43785674 0.00000000
0.94877283 0.43785674 0.00000000
0.98526684 0.43785674 0.00000000
1.02176084 0.43785674 0.00000000
1.05825485 0.43785674 0.00000000
1.09018265 0.43785674 0.00000000
0.00000000 0.47435074 0.00000000
0.00000000 0.47435074 0.00000000
0.00000000 0.47435074 0.00000000
0.03642266 0.47435074 0.00000000
0.07291667 0.47435074 0.00000000
0.10941067 0.47435074 0.00000000
0.14590468 0.47435074 0.00000000
0.18239869 0.47435074 0.00000000
0.21889269 0.47435074 0.00000000
0.25538670 0.47435074 0.00000000
0.29188071 0.47435074 0.00000000
0.32837471 0.47435074 0.00000000
0.36486872 0.47435074 0.00000000
0.40136273 0.47435074 0.00000000
0.43785674 0.47435074 0.00000000
0.47435074 0.47435074 0.00000000
0.51084475 0.47435074 0.00000000
0.54733876 0.47435074 0.00000000
0.58383276 0.47435074 0.00000000
0.62032677 0.47435074 0.00000000
0.65682078 0.47435074 0.00000000
0.69331478 0.47435074 0.00000000
0.72980879 0.47435074 0.00000000
0.76630280 0.47435074 0.00000000
0.80279680 0.47435074 0.00000000
0.83929081 0.47435074 0.00000000
0.87578482 0.47435074 0.00000000
0.91227882 0.47435074 0.00000000
0.94877283 0.47435074 0.00000000
0.98526684 0.47435074 0.00000000
1.02176084 0.47435074 0.00000000
1.05825485 0.47435074 0.00000000
1.09018265 0.47435074 0.00000000
0.00000000 0.51084475 0.00000000
0.00000000 0.51084475 0.00000000
0.00000000 0.51084475 0.00000000
0.03642266 0.51084475 0.00000000
0.07291667 0.51084475 0.00000000
0.10941067 0.51084475 0.00000000
0.14590468 0.51084475 0.00000000
0.18239869 0.51084475 0.00000000
0.21889269 0.51084475 0.00000000
0.25538670 0.51084475 0.00000000
0.29188071 0.51084475 0.00000000
0.32837471 0.51084475 0.00000000
0.36486872 0.51084475 0.00000000
0.40136273 0.51084475 0.00000000
0.43785674 0.51084475 0.00000000
0.47435074 0.51084475 0.00000000
0.51084475 0.51084475 0.00000000
0.54733876 0.51084475 0.00000000
0.58383276 0.51084475 0.00000000
0.62032677 0.51084475 0.00000000
0.65682078 0.51084475 0.00000000
0.69331478 0.51084475 0.00000000
0.72980879 0.51084475 0.00000000
0.76630280 0.51084475 0.00000000
0.80279680 0.51084475 0.00000000
0.83929081 0.51084475 0.00000000
0.87578482 0.51084475 0.00000000
0.91227882 0.51084475 0.00000000
0.94877283 0.51084475 0.00000000
0.98526684 0.51084475 0.00000000
1.02176084 0.51084475 0.00000000
1.05825485 0.51084475 0.00000000
1.09018265 0.51084475 0.00000000
0.00000000 0.54733876 0.00000000
0.00000000 0.54733876 0.00000000
0.00000000 0.54733876 0.00000000
0.03642266 0.54733876 0.00000000
0.07291667 0.54733876 0.00000000
0.10941067 0.54733876 0.00000000
0.14590468 0.54733876 0.00000000
0.18239869 0.54733876 0.00000000
0.21889269 0.54733876 0.00000000
0.25538670 0.54733876 0.00000000
0.29188071 0.54733876 0.00000000
0.32837471 0.54733876 0.00000000
0.36486872 0.54733876 0.00000000
0.40136273 0.54733876 0.00000000
0.43785674 0.54733876 0.00000000
0.47435074 0.54733876 0.00000000
0.51084475 0.54733876 0.00000000
0.54733876 0.54733876 0.00000000
0.58383276 0.54733876 0.00000000
0.62032677 0.54733876 0.00000000
0.65682078 0.54733876 0.00000000
0.69331478 0.54733876 0.00000000
0.72980879 0.54733876 0.00000000
0.76630280 0.54733876 0.00000000
0.80279680 0.54733876 0.00000000
0.83929081 0.54733876 0.00000000
0.87578482 0.54733876 0.00000000
0.91227882 0.54733876 0.00000000
0.94877283 0.54733876 0.00000000
0.98526684 0.54733876 0.00000000
1.02176084 0.54733876 0.00000000
1.05825485 0.54733876 0.00000000
1.09018265 0.54733876 0.00000000
0.00000000 0.58383276 0.00000000
0.00000000 0.58383276 0.00000000
0.00000000 0.58383276 0.00000000
0.03642266 0.58383276 0.00000000
0.07291667 0.58383276 0.00000000
0.10941067 0.58383276 0.00000000
0.14590468 0.58383276 0.00000000
0.18239869 0.58383276 0.00000000
0.21889269 0.58383276 0.00000000
0.25538670 0.58383276 0.00000000
0.29188071 0.58383276 0.00000000
0.32837471 0.58383276 0.00000000
0.36486872 0.58383276 0.00000000
0.40136273 0.58383276 0.00000000
0.43785674 0.58383276 0.00000000
0.47435074 0.58383276 0.00000000
0.51084475 0.58383276 0.00000000
0.54733876 0.58383276 0.00000000
0.58383276 0.58383276 0.00000000
0.62032677 0.58383276 0.00000000
0.65682078 0.58383276 0.00000000
0.69331478 0.58383276 0.00000000
0.72980879 0.58383276 0.00000000
0.76630280 0.58383276 0.00000000
0.80279680 0.58383276 0.00000000
0.83929081 0.58383276 0.00000000
0.87578482 0.58383276 0.00000000
0.91227882 0.58383276 0.00000000
0.94877283 0.58383276 0.00000000
0.98526684 0.58383276 0.00000000
1.02176084 0.58383276 0.00000000
1.05825485 0.58383276 0.00000000
1.09018265 0.58383276 0.00000000
0.00000000 0.62032677 0.00000000
0.00000000 0.62032677 0.00000000
0.00000000 0.62032677 0.00000000
0.03642266 0.62032677 0.00000000
0.07291667 0.62032677 0.00000000
0.10941067 0.62032677 0.00000000
0.14590468 0.62032677 0.00000000
0.18239869 0.62032677 0.00000000
0.21889269 0.62032677 0.00000000
0.25538670 0.62032677 0.00000000
0.29188071 0.62032677 0.00000000
0.32837471 0.62032677 0.00000000
0.36486872 0.62032677 0.00000000
0.40136273 0.62032677 0.00000000
0.43785674 0.62032677 0.00000000
0.47435074 0.62032677 0.00000000
0.51084475 0.62032677 0.00000000
0.54733876 0.62032677 0.00000000
0.58383276 0.62032677 0.00000000
0.62032677 0.62032677 0.00000000
0.65682078 0.62032677 0.00000000
0.69331478 0.62032677 0.00000000
0.72980879 0.62032677 0.00000000
0.76630280 0.62032677 0.00000000
0.80279680 0.62032677 0.00000000
0.83929081 0.62032677 0.00000000
0.87578482 0.62032677 0.00000000
0.91227882 0.62032677 0.00000000
0.94877283 0.62032677 0.00000000
0.98526684 0.62032677 0.00000000
1.02176084 0.62032677 0.00000000
1.05825485 0.62032677 0.00000000
1.09018265 0.62032677 0.00000000
0.00000000 0.65682078 0.00000000
0.00000000 0.65682078 0.00000000
0.00000000 0.65682078 0.00000000
0.03642266 0.65682078 0.00000000
0.07291667 0.65682078 0.00000000
0.10941067 0.65682078 0.00000000
0.14590468 0.65682078 0.00000000
0.18239869 0.65682078 0.00000000
0.21889269 0.65682078 0.00000000
0.25538670 0.65682078 0.00000000
0.29188071 0.65682078 0.00000000
0.32837471 0.65682078 0.00000000
0.36486872 0.65682078 0.00000000
0.40136273 0.65682078 0.00000000
0.43785674 0.65682078 0.00000000
0.47435074 0.65682078 0.00000000
0.51084475 0.65682078 0.00000000
0.54733876 0.65682078 0.00000000
0.58383276 0.65682078 0.00000000
0.62032677 0.65682078 0.00000000
0.65682078 0.65682078 0.00000000
0.69331478 0.65682078 0.00000000
0.72980879 0.65682078 0.00000000
0.76630280 0.65682078 0.00000000
0.80279680 0.65682078 0.00000000
0.83929081 0.65682078 0.00000000
0.87578482 0.65682078 0.00000000
0.91227882 0.65682078 0.00000000
0.94877283 0.65682078 0.00000000
0.98526684 0.65682078 0.00000000
1.02176084 0.65682078 0.00000000
1.05825485 0.65682078 0.00000000
1.09018265 0.65682078 0.00000000
0.00000000 0.69331478 0.00000000
0.00000000 0.69331478 0.00000000
0.00000000 0.69331478 0.00000000
0.03642266 0.69331478 0.00000000
0.07291667 0.69331478 0.00000000
0.10941067 0.69331478 0.00000000
0.14590468 0.69331478 0.00000000
0.18239869 0.69331478 0.00000000
0.21889269 0.69331478 0.00000000
0.25538670 0.69331478 0.00000000
0.29188071 0.69331478 0.00000000
0.32837471 0.69331478 0.00000000
0.36486872 0.69331478 0.00000000
0.40136273 0.69331478 0.00000000
0.43785674 0.69331478 0.00000000
0.47435074 0.69331478 0.00000000
0.51084475 0.69331478 0.00000000
0.54733876 0.69331478 0.00000000
0.58383276 0.69331478 0.00000000
0.62032677 0.69331478 0.00000000
0.65682078 0.69331478 0.00000000
0.69331478 0.69331478 0.00000000
0.72980879 0.69331478 0.00000000
0.76630280 0.69331478 0.00000000
0.80279680 0.69331478 0.00000000
0.83929081 0.69331478 0.00000000
0.87578482 0.69331478 0.00000000
