public/luts/Denis-BarbasxSony-BLIZZARD.cube
TITLE "Denis-BarbasxSony-BLIZZARD"
LUT_3D_SIZE 9
# MLUTS-Log3/Sony S-Gamut3.cine -> LA - Denis-BarbasxSony-BLIZZARD/LA - Denis-BarbasxSony-BLIZZARD, CineEI Shift 0.00, Black Level -5.12% IRE, Input 109% -> Output 100% - Created with LUTCalc v4.09 by Ben Turley February 2025
0.00000000 0.00000000 0.00000000
0.00000000 0.00000000 0.00000000
0.06004959 0.00000000 0.00000000
0.32379582 0.00000000 0.00000000
0.50035453 0.00000000 0.00000000
0.57543555 0.00000000 0.00000000
0.60948191 0.00000000 0.00000000
0.64737597 0.00000000 0.00000000
0.69608906 0.00000000 0.00000000
0.00000000 0.00000000 0.00000000
0.00000000 0.00000000 0.00000000
0.05736144 0.00000000 0.00000000
0.31772529 0.00000000 0.00000000
0.51062307 0.00000000 0.00000000
0.59672884 0.00000000 0.00000000
0.63728484 0.00000000 0.00000000
0.67901972 0.00000000 0.00000000
0.74316319 0.00000000 0.00000000
0.00000000 0.00051844 0.00000000
0.00000000 0.00870540 0.00000000
0.01742120 0.01403379 0.00000000
0.32305807 0.00000000 0.00000000
0.55782419 0.00000000 0.00000000
0.66663065 0.00000000 0.00000000
0.72132189 0.00000000 0.00000000
0.78069654 0.00000000 0.00000000
0.88403405 0.00000000 0.00000000
0.00000000 0.09009757 0.00000000
0.00000000 0.10877490 0.01139458
0.00000000 0.14516358 0.02373387
0.19191519 0.14864504 0.00000000
0.65899864 0.06662270 0.00000000
0.82854452 0.03476976 0.00000000
0.90281600 0.04800329 0.00000000
0.97571676 0.09659638 0.04230481
1.06606920 0.22825807 0.17990668
0.00000000 0.24717738 0.04430681
0.00000000 0.28480216 0.07847338
0.00000000 0.35438875 0.14043673
0.02890928 0.41324566 0.10682641
0.50001082 0.42581030 0.00000000
0.96313147 0.31009254 0.00000000
1.07227854 0.31814053 0.05418450
1.09018265 0.38938800 0.15906273
1.09018265 0.53307912 0.29863123
0.00000000 0.46794809 0.18532219
0.00000000 0.53143638 0.24356661
0.00000000 0.63503279 0.34158831
0.05411721 0.71899377 0.39531554
0.45931928 0.74786660 0.18842837
0.85306741 0.75869270 0.00000000
1.09018265 0.63776573 0.12616227
1.09018265 0.67282740 0.22317875
1.09018265 0.76459862 0.31290780
0.00000000 0.76690535 0.44302196
0.00000000 0.82698776 0.50207384
0.08636528 0.90783982 0.58102803
0.19459835 0.95636610 0.62320572
0.45380113 0.97366873 0.46423011
0.78982959 0.96687506 0.25699093
1.01815570 0.96284369 0.01330363
1.09018265 0.91220441 0.13043366
1.09018265 0.94947638 0.21398539
0.12450594 0.99901498 0.67290046
0.18035511 1.02457161 0.70042186
0.26315204 1.05667143 0.74195476
0.33862344 1.07629941 0.76744613
0.50412880 1.08479074 0.68780037
0.84521978 1.06507352 0.45358474
0.99246754 1.07371021 0.11943789
1.09018265 1.06136397 0.07405121
1.09018265 1.05966781 0.11059345
0.30899343 1.09018265 0.83823793
0.34716375 1.09018265 0.85340183
0.39812366 1.09018265 0.86933815
0.44142703 1.09018265 0.87630274
0.54890299 1.09018265 0.80969829
0.87948506 1.09018265 0.53547314
1.00656955 1.09018265 0.23889770
1.09018265 1.09018265 0.09719485
1.09018265 1.09018265 0.08695631
0.00000000 0.00000000 0.00000000
0.00000000 0.00000000 0.00000000
0.03914088 0.00000000 0.00000000
0.29696229 0.00000000 0.00000000
0.47933103 0.00000000 0.00000000
0.55870598 0.00000000 0.00000000
0.59454364 0.00000000 0.00000000
0.63219317 0.00000000 0.00000000
0.68212366 0.00000000 0.00000000
0.00000000 0.00000000 0.00000000
0.00000000 0.00000000 0.00000000
0.04084574 0.00000000 0.00000000
0.31929371 0.00000000 0.00000000
0.50711756 0.00000000 0.00000000
0.58232123 0.00000000 0.00000000
0.61642303 0.00000000 0.00000000
0.65403301 0.00000000 0.00000000
0.75955918 0.00000000 0.00000000
0.00000000 0.00287146 0.00000000
0.00000000 0.01049241 0.00000000
0.01844968 0.01743177 0.00000000
0.32286134 0.00000000 0.00000000
0.55728317 0.00000000 0.00000000
0.66398359 0.00000000 0.00000000
0.71747805 0.00000000 0.00000000
0.77662836 0.00000000 0.00000000
0.90245837 0.02856739 0.03226856
0.00000000 0.09321771 0.01223003
0.00000000 0.10320261 0.01132899
0.00000000 0.15104774 0.04073950
0.19692642 0.15358179 0.00000000
0.66476721 0.06813366 0.00000000
0.82964304 0.03723350 0.00000000
0.90205970 0.05081118 0.00000000
0.97433245 0.09963936 0.05015563
1.07087164 0.28901300 0.25494650
0.00000000 0.25665420 0.06640965
0.00000000 0.26169324 0.05938682
0.00000000 0.35813180 0.14708999
0.02419874 0.42138764 0.12793698
0.50691873 0.43066789 0.00000000
0.96849950 0.31378521 0.00619343
1.07336695 0.32188646 0.06320213
1.09018265 0.39270902 0.16780987
1.09018265 0.56806834 0.35728068
0.00000000 0.48571794 0.21309043
0.00000000 0.48250832 0.19904972
0.00000000 0.63344687 0.34181566
0.04997101 0.72291724 0.40654634
0.45660049 0.75197521 0.19796057
0.85596380 0.76068647 0.00000000
1.09018265 0.63969286 0.13238692
1.09018265 0.67466236 0.22836715
1.09018265 0.78389853 0.35862938
0.00000000 0.78698487 0.47354710
0.00000000 0.77741599 0.45387423
0.07749667 0.90454462 0.57893715
0.19091786 0.95719016 0.62734123
0.44586950 0.97619547 0.47481107
0.78891955 0.96817101 0.26509677
1.01877896 0.96401235 0.01610295
1.09018265 0.91291947 0.13411477
1.09018265 0.95491618 0.25420373
0.13461463 1.00735359 0.69290689
0.13136592 1.00303743 0.67812000
0.25661705 1.05520689 0.74090922
0.33537918 1.07647652 0.76922314
0.49522057 1.08570745 0.69539947
0.84377641 1.06565951 0.46030892
0.99168064 1.07413581 0.12339230
1.09018265 1.06167853 0.07633489
1.09018265 1.06101361 0.14259262
0.31293005 1.09018265 0.85584825
0.31339805 1.09018265 0.84236567
0.39312608 1.09018265 0.87009301
0.43859959 1.09018265 0.87843031
0.53987395 1.09018265 0.81764294
0.87539850 1.09018265 0.54312519
1.00545374 1.09018265 0.24561242
1.09018265 1.09018265 0.09951862
1.09018265 1.09018265 0.11520358
0.00000000 0.00000000 0.03247952
0.00000000 0.00000000 0.03706668
0.04577469 0.00000000 0.01061894
0.25334280 0.00000000 0.00000000
0.43136414 0.00000000 0.00000000
0.52006445 0.00000000 0.00000000
0.56282066 0.00000000 0.00000000
0.60276091 0.00000000 0.00000000
0.65412970 0.00000000 0.00000000
0.00000000 0.00000000 0.02044692
0.00000000 0.00000000 0.03517388
0.02377539 0.00000000 0.02147033
0.26482249 0.00000000 0.00000000
0.45284946 0.00000000 0.00000000
0.54046831 0.00000000 0.00000000
0.58094738 0.00000000 0.00000000
0.62036323 0.00000000 0.00000000
0.74279868 0.00000000 0.00000000
0.00000000 0.01349042 0.01741672
0.00000000 0.02269036 0.02665985
0.00000000 0.03009415 0.03948745
0.25231252 0.00000000 0.00334416
0.51852506 0.00000000 0.00000000
0.65521712 0.00000000 0.00000000
0.71819952 0.00000000 0.00000000
0.77828526 0.00000000 0.00000000
0.93445622 0.11181329 0.13076422
0.00000000 0.10045695 0.02970864
0.00000000 0.11463629 0.04255900
0.00000000 0.17768505 0.10495581
0.21099296 0.17944074 0.02322200
0.66498850 0.10456675 0.00646726
0.84282462 0.08658015 0.02738265
0.92075364 0.11100034 0.07476903
0.98889035 0.17404352 0.14854040
1.08068886 0.37419440 0.34834071
0.00000000 0.26966721 0.09900044
0.00000000 0.28501755 0.11067258
0.00000000 0.40572633 0.22088051
0.06792346 0.46947123 0.23004445
0.55095271 0.47426212 0.00971808
0.99574414 0.36830756 0.09980656
1.08257603 0.38313741 0.16738764
1.09018265 0.45438532 0.26720570
1.09018265 0.61315724 0.41773090
0.00000000 0.51266043 0.25929421
0.00000000 0.52588038 0.26872975
0.00000000 0.68519117 0.41857182
0.09057013 0.76953319 0.48867186
0.47419723 0.79532680 0.29704098
0.88354912 0.78848491 0.05244827
1.09018265 0.67104425 0.21041926
1.09018265 0.70537209 0.29837869
1.09018265 0.80738149 0.40498219
0.00000000 0.81464792 0.52023634
0.00000000 0.82049410 0.52437338
0.08688899 0.92284452 0.62107255
0.20345227 0.98071469 0.67699942
0.44674713 0.99688035 0.56734336
0.80030842 0.98417806 0.33888707
1.02833199 0.97682305 0.07217164
1.09018265 0.92359791 0.19239095
1.09018265 0.96250556 0.29203957
0.15252538 1.01960282 0.72575420
0.15646037 1.02175264 0.72630901
0.24334458 1.05852040 0.76483619
0.33351002 1.08371104 0.80504088
0.48655207 1.09018265 0.75461379
0.83036754 1.07368990 0.51529097
0.99067037 1.07790172 0.17973512
1.09018265 1.06493762 0.11291030
1.09018265 1.06261558 0.17526277
0.32209004 1.09018265 0.87998556
0.32510118 1.09018265 0.87957303
0.39444483 1.09018265 0.90819964
0.43202874 1.09018265 0.91404479
0.54236311 1.09018265 0.86042894
0.85831899 1.09018265 0.59689115
1.00383884 1.09018265 0.30813957
1.09018265 1.09018265 0.13604712
1.09018265 1.09018265 0.14713100
0.00000000 0.01344107 0.19679577
0.00000000 0.01406461 0.20027154
0.00000000 0.00000000 0.23094156
0.35097798 0.00000000 0.06624890
0.43512576 0.00000000 0.00000000
0.48566028 0.00000000 0.00000000
0.51470471 0.00000000 0.00000000
0.55010349 0.00000000 0.00000000
0.59979242 0.00000000 0.00000000
0.00000000 0.02167507 0.18443457
0.00000000 0.02949048 0.20358620
0.00000000 0.01278716 0.23378643
0.33916437 0.00000000 0.10167816
0.44984333 0.00000000 0.00000000
0.49971156 0.00000000 0.00000000
0.52740556 0.00000000 0.00000000
0.56234508 0.00000000 0.00000000
0.68605959 0.00000000 0.02435907
0.00000000 0.04123565 0.14113785
0.00000000 0.05350770 0.16351699
0.00000000 0.07584306 0.18833217
0.26549169 0.00000000 0.16035369
0.47940016 0.00000000 0.05448709
0.59488519 0.00000000 0.05228634
0.65753630 0.00000000 0.05675448
0.72338176 0.00000000 0.07047722
0.88962055 0.15100863 0.22258318
0.00000000 0.11784272 0.12112737
0.00000000 0.13331514 0.13591233
0.00000000 0.19758567 0.20108236
0.16697027 0.19620352 0.20225437
0.53221849 0.16468607 0.17277331
0.76150670 0.17342486 0.18812149
0.88130338 0.21201622 0.22799609
0.96926497 0.26919922 0.28547711
1.07309270 0.44251241 0.45898936
0.00000000 0.29174939 0.13516597
0.00000000 0.30723225 0.14865047
0.00000000 0.43276834 0.27715106
0.10810206 0.50027262 0.36388358
0.56291816 0.50187971 0.16117787
0.99335331 0.42976279 0.22804504
1.08405380 0.45320292 0.28594168
1.09018265 0.52004889 0.37514807
1.09018265 0.64546222 0.50134741
0.00000000 0.53805898 0.30796673
0.00000000 0.55173084 0.32151631
0.00000000 0.71233939 0.47932483
0.13336960 0.80831369 0.57585886
0.49616252 0.82340965 0.40146814
0.89956905 0.80732987 0.14490628
1.09018265 0.70085046 0.28521115
1.09018265 0.73794374 0.36274352
1.09018265 0.82066028 0.45910224
0.00000000 0.83711526 0.56680479
0.00000000 0.84431951 0.57260723
0.11407178 0.94412033 0.67109051
0.22033837 1.00076086 0.72662998
0.45818270 1.01214501 0.63646246
0.81135863 0.99775299 0.39493885
1.03679121 0.98573931 0.12435781
1.09018265 0.93523377 0.24240640
1.09018265 0.96602707 0.33412937
0.16947747 1.02900417 0.75461981
0.17443571 1.03187458 0.75607363
0.26327048 1.06827321 0.80367413
0.33320535 1.08789481 0.83285072
0.47134978 1.09018265 0.80688615
0.81316185 1.08090654 0.56888138
0.99009965 1.08054079 0.23570917
1.09018265 1.06765583 0.14644691
1.09018265 1.06302455 0.20331356
0.33101524 1.09018265 0.90252270
0.33401475 1.09018265 0.90277988
0.39778375 1.09018265 0.92881407
0.43093897 1.09018265 0.93561996
0.53920253 1.09018265 0.88957712
0.85424615 1.09018265 0.62994005
1.00441564 1.09018265 0.35769713
1.09018265 1.09018265 0.17439974
1.09018265 1.09018265 0.17214321
0.00000000 0.02931669 0.29172285
0.00000000 0.03013461 0.29679161
0.00000000 0.02370524 0.32023770
0.21361023 0.00000000 0.44366993
0.58982485 0.00000000 0.06974388
0.60715839 0.00000000 0.00000000
0.61234584 0.00000000 0.00000000
0.63001096 0.00000000 0.00000000
0.67966876 0.00000000 0.00000000
0.00000000 0.03844490 0.28791909
0.00000000 0.04646170 0.30579117
0.00000000 0.04164194 0.33299651
0.20657525 0.00000000 0.43960940
0.59919144 0.00000000 0.09130186
0.61902877 0.00000000 0.00000000
0.62321878 0.00000000 0.00000000
0.64071271 0.00000000 0.00000000
0.75352072 0.00000000 0.05527444
0.00000000 0.06430497 0.27372179
0.00000000 0.07462420 0.29221650
0.00000000 0.11049321 0.33180271
0.11059870 0.01487314 0.47446563
0.62917024 0.00000000 0.20083917
0.69562903 0.00000000 0.09641107
0.73061810 0.00000000 0.09515368
0.77318509 0.00000000 0.11625221
0.93816636 0.16005935 0.27541084
0.00000000 0.12909165 0.24974760
0.00000000 0.14268372 0.26633669
0.00000000 0.21936566 0.34315445
0.04353810 0.25074003 0.40735728
0.59169647 0.15421848 0.35868953
0.75942872 0.19162447 0.28425814
0.86243779 0.24125597 0.33336963
0.94869869 0.30385369 0.39747352
1.06384848 0.47878255 0.56292517
0.00000000 0.31923281 0.34750914
0.00000000 0.33558172 0.36203813
0.00000000 0.46498070 0.49200268
0.02754067 0.53909427 0.56114541
0.50177685 0.51680670 0.52862936
0.83152679 0.52227029 0.53205281
0.98444668 0.56554256 0.57993799
1.06586980 0.62041512 0.63562684
1.09018265 0.71717940 0.73563888
0.00000000 0.59754859 0.39227018
0.00000000 0.61099475 0.40438806
0.00000000 0.76485602 0.56306105
0.04626166 0.85147212 0.66523970
0.45672238 0.84111591 0.69435202
0.88206736 0.81293854 0.44908146
1.09018265 0.74284258 0.51429882
1.09018265 0.77346451 0.54962106
1.09018265 0.84093841 0.62860641
0.00000000 0.87486460 0.61761634
0.00000000 0.88064628 0.62298526
0.07766202 0.96860074 0.72404767
0.18519830 1.01779997 0.78620556
0.43498047 1.02338293 0.80259327
0.82100978 1.00066080 0.56973115
1.03571741 0.98791307 0.29093493
1.09018265 0.93973947 0.37728617
1.09018265 0.96327270 0.47926323
0.15186335 1.04282432 0.79088453
0.16309253 1.04440764 0.79276716
0.25713480 1.07532222 0.84501505
0.32995301 1.09018265 0.88359201
0.44392466 1.09018265 0.89115479
0.80055335 1.08455970 0.66764505
0.98780862 1.08082574 0.33608641
1.09018265 1.06866271 0.20835971
1.09018265 1.05858573 0.30021178
0.31953798 1.09018265 0.93014555
0.32965075 1.09018265 0.93079595
0.38937028 1.09018265 0.96462304
0.42322280 1.09018265 0.97813794
0.49172430 1.09018265 0.96631337
0.82209810 1.09018265 0.71609042
0.99974980 1.09018265 0.45524461
1.08797156 1.09018265 0.22750318
1.09018265 1.09018265 0.23046582
0.00000000 0.03537397 0.32769432
0.00000000 0.03631938 0.33318885
0.00000000 0.03294834 0.35118136
0.07553058 0.00000000 0.54251999
0.61954103 0.00000000 0.26103976
0.69413381 0.00000000 0.08015019
0.71071819 0.00000000 0.04061712
0.73112008 0.00000000 0.02082318
0.76981417 0.00000000 0.01601753
0.00000000 0.04571076 0.32866056
0.00000000 0.05026096 0.34068234
0.00000000 0.05014574 0.36263023
0.08066105 0.00000000 0.53194220
0.62726908 0.00000000 0.27886438
0.70537130 0.00000000 0.09371803
0.72187806 0.00000000 0.05290393
0.74190787 0.00000000 0.03053494
0.85252133 0.00000000 0.12141578
0.00000000 0.07319278 0.33157556
0.00000000 0.08243359 0.34417502
0.00000000 0.12721815 0.39476071
0.00908824 0.05609546 0.55483217
0.65673339 0.00000000 0.43773434
0.79789492 0.00000000 0.22634369
0.83437446 0.00000000 0.19388247
0.87693091 0.00000000 0.19363377
1.02527852 0.15101524 0.34121149
0.00000000 0.13581601 0.31920528
0.00000000 0.14803832 0.33510890
0.00000000 0.23436513 0.42183953
0.00000000 0.29202916 0.52291835
0.57002556 0.15039128 0.68410710
0.88551250 0.16075002 0.42795396
0.96978420 0.21942353 0.40466633
1.03584692 0.28675606 0.44712950
1.09018265 0.47185795 0.59626040
0.00000000 0.31481720 0.44730851
0.00000000 0.33105054 0.46360400
0.00000000 0.46892123 0.60623321
0.00000000 0.56730780 0.69431521
0.41005053 0.56054909 0.72062120
0.89410591 0.51565992 0.67452166
1.00882635 0.57660158 0.65494540
1.07748119 0.63549127 0.70771818
1.09018265 0.73286196 0.80033619
0.00000000 0.61347246 0.66769788
0.00000000 0.62706332 0.68056341
0.00000000 0.77531588 0.83078020
0.00263948 0.86176969 0.91673861
0.35702176 0.86665331 0.90436038
0.81504213 0.82507454 0.84325343
0.99330768 0.82842362 0.84189885
1.06530639 0.85746085 0.87333026
1.09018265 0.90152321 0.91826907
0.00000000 0.92065795 0.76021334
0.00000000 0.92740731 0.76442804
0.00000000 1.00706506 0.85147913
0.02912088 1.04944740 0.90479295
0.26587541 1.05372313 0.91821171
0.77040866 1.00257109 0.90965626
1.01174157 0.98236268 0.74992585
1.09018265 0.95405745 0.77587886
1.09018265 0.97688019 0.81492984
0.00000000 1.07569000 0.88511957
0.00000000 1.07738846 0.88647102
0.06383114 1.09018265 0.93181614
0.14885253 1.09018265 0.96557551
0.27804573 1.09018265 0.98036766
0.71807381 1.08683780 0.93837886
0.98342578 1.06901368 0.72811436
1.08220422 1.06173159 0.53448892
1.09018265 1.04457221 0.62835558
0.12174712 1.09018265 1.00444674
0.12732928 1.09018265 1.00425050
0.19559943 1.09018265 1.02946353
0.23056296 1.09018265 1.03931482
0.33331225 1.09018265 1.03263637
0.68520010 1.09018265 0.99316195
0.99110807 1.09018265 0.74786702
1.07337147 1.09018265 0.45677424
1.09018265 1.09018265 0.46413168
0.00000000 0.03918772 0.34570680
0.00000000 0.04019504 0.35087752
0.00000000 0.03771301 0.36723443
0.00634059 0.00000000 0.55896445
0.60570443 0.00000000 0.36010398
0.71759538 0.00000000 0.13674496
0.74268130 0.00000000 0.09285465
0.76370217 0.00000000 0.07201639
0.80250796 0.00000000 0.06040446
0.00000000 0.04995122 0.34708089
0.00000000 0.05107478 0.35714017
0.00000000 0.05300438 0.37730329
0.02127057 0.00000000 0.55158816
0.61111107 0.00000000 0.37565746
0.72917247 0.00000000 0.15056647
0.75283595 0.00000000 0.10431595
0.77441648 0.00000000 0.08378189
0.89141771 0.00000000 0.17878941
0.00000000 0.07836753 0.35410160
0.00000000 0.08637765 0.36577614
0.00000000 0.13451124 0.42300863
0.00000000 0.08672796 0.57566036
0.64164057 0.00000000 0.54185849
0.82829202 0.00000000 0.29727239
0.87241663 0.00000000 0.25873278
0.91704664 0.00000000 0.25853660
1.05997297 0.16078339 0.41077011
0.00000000 0.14186263 0.35316138
0.00000000 0.15336866 0.36689025
0.00000000 0.24680222 0.46031766
0.00000000 0.31768262 0.57700374
0.53469524 0.17420451 0.80045407
0.94156085 0.15405831 0.55135686
1.02131316 0.21307275 0.49584352
1.06783120 0.28262045 0.52900154
1.09018265 0.47417649 0.67219529
0.00000000 0.31746889 0.46973111
0.00000000 0.33316017 0.48589464
0.00000000 0.48141615 0.64081672
0.00000000 0.59476877 0.74968677
0.37263104 0.59468374 0.80419444
0.94278229 0.50896457 0.85655961
1.06923037 0.56293071 0.74412814
1.09018265 0.62040583 0.77499196
1.09018265 0.72106869 0.84870819
0.00000000 0.60808054 0.77805728
0.00000000 0.62130429 0.79193165
0.00000000 0.76809517 0.93396053
0.00000000 0.86009921 1.01138714
0.31551825 0.88066705 0.99340532
0.76950675 0.84291578 0.94931331
1.02364760 0.82672884 0.91440970
1.08050303 0.86068407 0.92210193
1.09018265 0.90892663 0.96125554
0.00000000 0.91803627 0.97515834
0.00000000 0.92372357 0.98034210
0.00000000 0.99802109 1.04542203
0.04022103 1.04042477 1.07503100
0.25516428 1.04824881 1.07890734
0.70292019 1.01295317 1.04295588
0.97823282 0.98603717 1.00775619
1.05493796 0.99230626 1.01047397
1.09018265 1.00731804 1.02523202
0.00000000 1.07684578 1.04912926
0.00000000 1.07851970 1.05054875
0.05115840 1.09018265 1.07441806
0.11514898 1.09018265 1.08812585
0.21012230 1.09018265 1.08985004
0.57394695 1.09018265 1.05854887
0.95476938 1.06151093 1.03642467
1.06092786 1.05218333 0.95496899
1.09018265 1.04420532 0.97868300
0.08210912 1.09018265 1.09018265
0.08545710 1.09018265 1.09018265
0.14331767 1.09018265 1.09018265
0.17575365 1.09018265 1.09018265
0.23789080 1.09018265 1.09018265
0.50239014 1.09018265 1.07473784
0.92138417 1.09018265 1.05097658
1.05407011 1.08660101 0.91885344
1.09018265 1.08464438 0.87312936
0.00000000 0.04363694 0.36573428
0.00000000 0.04471078 0.37110032
0.00000000 0.04263594 0.38708761
0.00000000 0.00000000 0.57029663
0.59807484 0.00000000 0.43162422
0.74024673 0.00000000 0.18779084
0.76500700 0.00000000 0.13643268
0.78743607 0.00000000 0.11064630
0.82505233 0.00000000 0.09931693
0.00000000 0.05440554 0.36756194
0.00000000 0.05295872 0.37665140
0.00000000 0.05569550 0.39738850
0.00093124 0.00000000 0.57282841
0.60591175 0.00000000 0.44396878
0.75168977 0.00000000 0.20124241
0.77658051 0.00000000 0.14895310
0.79888488 0.00000000 0.12301756
0.91949792 0.00000000 0.22361381
0.00000000 0.08596397 0.37721171
0.00000000 0.09197230 0.38911139
0.00000000 0.14084878 0.44971382
0.00000000 0.10362540 0.60376633
0.65370734 0.00000000 0.61399836
0.86154387 0.00000000 0.35811474
0.90687479 0.00000000 0.31331754
0.94507959 0.00000000 0.30512395
1.07582656 0.17801093 0.46541956
0.00000000 0.15483301 0.38307627
0.00000000 0.16729255 0.39824620
0.00000000 0.26780277 0.50177655
0.00000000 0.33958726 0.62178330
0.55546017 0.19041902 0.86836496
0.98551126 0.16514256 0.61831381
1.05403644 0.22860302 0.56364115
1.08024154 0.29228738 0.58487793
1.09018265 0.48820203 0.72651559
0.00000000 0.34301519 0.50953379
0.00000000 0.35964920 0.52753767
0.00000000 0.52200250 0.69064238
0.00000000 0.63614450 0.80596830
0.36623946 0.62299301 0.85485861
0.98006471 0.52344562 0.93818442
1.09018265 0.57069402 0.81153258
1.09018265 0.62324625 0.82814944
1.09018265 0.72374064 0.89303618
0.00000000 0.64639819 0.82436315
0.00000000 0.66014543 0.83853824
0.00000000 0.80688487 0.97432209
0.00712888 0.89662169 1.04257458
0.29368425 0.91263692 1.03013893
0.75864835 0.85855722 0.98893361
1.05855058 0.82578057 0.98644545
1.09018265 0.85643617 0.96695520
1.09018265 0.90578317 0.99291347
0.00000000 0.92454029 1.04222006
0.00000000 0.93085238 1.04656005
0.00000000 1.00123626 1.08540602
0.06750287 1.04567606 1.09018265
0.25604510 1.05616162 1.09018265
0.67846594 1.02411073 1.07981099
0.96416948 0.99562698 1.04616403
1.07056560 0.99115091 1.03903171
1.09018265 1.00949381 1.04139346
0.00000000 1.07611852 1.09018265
0.00000000 1.07788055 1.09018265
0.06687563 1.09018265 1.09018265
0.12925768 1.09018265 1.09018265
0.21389238 1.09018265 1.09018265
0.55733937 1.09018265 1.09018265
0.92283355 1.06648397 1.08040996
1.04513638 1.05094870 1.06441684
1.07892039 1.05207527 1.06453555
0.09021121 1.09018265 1.09018265
0.09282131 1.09018265 1.09018265
0.14768459 1.09018265 1.09018265
0.18047992 1.09018265 1.09018265
0.23712344 1.09018265 1.09018265
0.47961879 1.09018265 1.09018265
0.85580639 1.09018265 1.08739077
1.03537367 1.08147365 1.07438062
1.07944882 1.07989101 1.05093106
0.00000000 0.04923192 0.39092351
0.00000000 0.05042479 0.39690735
0.00000000 0.04752551 0.41658608
0.02887162 0.00000000 0.62266164
0.64173344 0.00000000 0.45672528
0.77252522 0.00000000 0.23468198
0.79994810 0.00000000 0.18831512
0.82224991 0.00000000 0.15844041
0.84695854 0.00000000 0.13889965
0.00000000 0.06091770 0.39393098
0.00000000 0.07654027 0.41295169
0.00000000 0.08134701 0.43436795
0.00000000 0.00000000 0.62222673
0.64978145 0.00000000 0.54271818
0.81555996 0.00000000 0.30354917
0.85884184 0.00000000 0.26860139
0.90126329 0.00000000 0.26359333
0.94595723 0.00000000 0.26880333
0.00000000 0.09763905 0.40761222
0.00000000 0.12374399 0.43554998
0.00000000 0.17240606 0.49409771
0.00000000 0.14058542 0.65855233
0.69457956 0.00000000 0.71867714
0.93557479 0.00000000 0.47326011
1.00381438 0.02897819 0.45527684
1.05739310 0.10742550 0.47980613
1.08515369 0.19366852 0.51928871
0.00000000 0.18796425 0.42660163
0.00000000 0.24593070 0.48530855
0.00000000 0.33757692 0.57763693
0.00000000 0.38256904 0.68470507
0.56661090 0.25267223 0.93937866
1.03397500 0.23365304 0.72672235
1.08963143 0.32631893 0.68497627
1.09018265 0.41995260 0.73229768
1.09018265 0.50041385 0.77518820
0.00000000 0.42203746 0.59493493
0.00000000 0.52356666 0.69771344
0.00000000 0.64972585 0.82389080
0.04810757 0.70743548 0.88403267
0.39824293 0.66155275 0.91123688
1.00552284 0.57124603 1.02037132
1.09018265 0.61955580 0.89750296
1.09018265 0.67829208 0.91313128
1.09018265 0.72698455 0.93369716
0.00000000 0.75056833 0.93644508
0.00000000 0.83452133 1.00816300
0.00000000 0.91800633 1.06355613
0.07179690 0.95672464 1.07792228
0.34134416 0.94553842 1.05690709
0.76161323 0.87863214 1.01903273
1.07686915 0.84390189 1.04227565
1.09018265 0.87624231 1.02125327
1.09018265 0.90389558 1.02303230
0.00000000 0.98236958 1.09018265
0.00000000 1.02925139 1.09018265
0.07643754 1.06738424 1.09018265
0.14838578 1.08395048 1.09018265
0.33048614 1.07913480 1.09018265
0.69796933 1.04348284 1.08988531
0.95704702 1.00634795 1.06391482
1.08571630 0.99419677 1.07379337
1.09018265 1.00618258 1.05897214
0.03501239 1.09018265 1.09018265
0.09424548 1.09018265 1.09018265
0.14700255 1.09018265 1.09018265
0.18734083 1.09018265 1.09018265
0.29315215 1.09018265 1.09018265
0.62131660 1.09018265 1.09018265
0.92569164 1.07201927 1.09018265
1.03684159 1.05517926 1.07831915
1.08476635 1.05170133 1.07370694
0.09751657 1.09018265 1.09018265
0.13255246 1.09018265 1.09018265
0.16477798 1.09018265 1.09018265
0.19033278 1.09018265 1.09018265
0.25351955 1.09018265 1.09018265
0.50514212 1.09018265 1.09018265
0.86803628 1.09018265 1.09018265
1.02642371 1.08324974 1.08942027
1.07563801 1.07890423 1.08549707
