public/luts/Denis-BarbasxSony-WINTERFELL.cube
TITLE "Denis-BarbasxSony-WINTERFELL"
LUT_3D_SIZE 33
# MLUTS-Log3/Sony S-Gamut3.cine -> LA - Denis-BarbasxSony-WINTERFELL/LA - Denis-BarbasxSony-WINTERFELL, CineEI Shift 0.00, Black Level -7.48% IRE, Input 109% -> Output 100% - Created with LUTCalc v4.09 by Ben Turley February 2025
0.00000000 0.00000000 0.00000000
0.00000000 0.00000000 0.00000000
0.00000000 0.00000000 0.00000000
0.00000000 0.00000000 0.00000000
0.00000000 0.00000000 0.00000000
0.00000000 0.00000000 0.00000000
0.00000000 0.00000000 0.00000000
0.00000000 0.00000000 0.00000000
0.02027472 0.00000000 0.00000000
0.06068983 0.00000000 0.00000000
0.10961213 0.00000000 0.00000000
0.17160271 0.00000000 0.00000000
0.24701644 0.00000000 0.00000000
0.32662644 0.00000000 0.00000000
0.42213739 0.00039432 0.00000000
0.51358886 0.01507660 0.00000000
0.60105269 0.02953138 0.00803029
0.68701653 0.04409957 0.02103006
0.75787623 0.05495248 0.03260495
0.82392371 0.06622727 0.04389424
0.88702019 0.07750948 0.05397846
0.94822896 0.08728611 0.06449657
1.00350690 0.09583104 0.07476164
1.05412739 0.10455827 0.08432997
1.07848760 0.10909209 0.08856554
1.08077187 0.10955191 0.08941666
1.08200574 0.10983674 0.09011819
1.08208119 0.10985694 0.09058979
1.08213618 0.10987220 0.09102399
1.08213618 0.10987389 0.09135171
1.08213618 0.10987542 0.09165705
1.08213618 0.10987598 0.09181190
1.08213618 0.10987654 0.09196694
0.00000000 0.00000000 0.00000000
0.00000000 0.00000000 0.00000000
0.00000000 0.00000000 0.00000000
0.00000000 0.00000000 0.00000000
0.00000000 0.00000000 0.00000000
0.00000000 0.00000000 0.00000000
0.00000000 0.00000000 0.00000000
0.00000000 0.00000000 0.00000000
0.02138457 0.00000000 0.00000000
0.06198747 0.00000000 0.00000000
0.11117279 0.00000000 0.00000000
0.17315848 0.00000000 0.00000000
0.24862682 0.00000000 0.00000000
0.32819230 0.00000000 0.00000000
0.42329282 0.00062747 0.00000000
0.51486647 0.01526843 0.00000000
0.60166923 0.02963265 0.00811220
0.68759390 0.04419078 0.02111712
0.75824348 0.05501097 0.03266545
0.82426690 0.06628642 0.04394655
0.88724832 0.07755393 0.05401569
0.94844141 0.08731613 0.06453172
1.00358478 0.09584374 0.07477745
1.05414327 0.10456149 0.08433364
1.07849659 0.10909336 0.08856781
1.08077243 0.10955135 0.08941761
1.08200604 0.10983640 0.09011876
1.08208119 0.10985694 0.09058979
1.08213618 0.10987220 0.09102399
1.08213618 0.10987389 0.09135171
1.08213618 0.10987542 0.09165705
1.08213618 0.10987598 0.09181190
1.08213618 0.10987654 0.09196694
0.00000000 0.00000000 0.00000000
0.00000000 0.00000000 0.00000000
0.00000000 0.00000000 0.00000000
0.00000000 0.00000000 0.00000000
0.00000000 0.00000000 0.00000000
0.00000000 0.00000000 0.00000000
0.00000000 0.00000000 0.00000000
0.00000000 0.00000000 0.00000000
0.02218031 0.00000000 0.00000000
0.06309628 0.00000000 0.00000000
0.11252560 0.00000000 0.00000000
0.17467454 0.00000000 0.00000000
0.25016752 0.00000000 0.00000000
0.32983965 0.00000000 0.00000000
0.42472682 0.00090660 0.00000000
0.51619090 0.01546723 0.00000000
0.60292945 0.02983437 0.00826930
0.68817163 0.04428197 0.02120418
0.75883327 0.05510420 0.03275638
0.82462558 0.06634821 0.04400080
0.88758876 0.07761949 0.05406876
0.94868359 0.08735020 0.06457104
1.00378657 0.09587582 0.07481538
1.05422150 0.10457509 0.08434587
1.07851510 0.10909670 0.08857160
1.08078021 0.10955262 0.08941990
1.08200654 0.10983584 0.09011972
1.08208148 0.10985660 0.09059037
1.08213618 0.10987220 0.09102399
1.08213618 0.10987389 0.09135171
1.08213618 0.10987542 0.09165705
1.08213618 0.10987598 0.09181190
1.08213618 0.10987654 0.09196694
0.00000000 0.00000000 0.00000000
0.00000000 0.00000000 0.00000000
0.00000000 0.00000000 0.00000000
0.00000000 0.00000000 0.00000000
0.00000000 0.00000000 0.00000000
0.00000000 0.00000000 0.00000000
0.00000000 0.00000000 0.00000000
0.00000000 0.00000000 0.00000000
0.02223405 0.00000000 0.00000000
0.06359026 0.00000000 0.00000000
0.11334565 0.00000000 0.00000000
0.17563342 0.00000000 0.00000000
0.25131726 0.00000000 0.00000000
0.33100555 0.00000000 0.00000000
0.42570152 0.00110149 0.00000000
0.51720023 0.01562095 0.00000000
0.60350918 0.02992934 0.00833976
0.68867836 0.04436095 0.02127320
0.75910718 0.05514797 0.03278981
0.82489392 0.06639441 0.04403078
0.88778437 0.07765705 0.05409647
0.94888790 0.08737845 0.06460041
1.00385780 0.09588742 0.07482867
1.05426177 0.10458247 0.08435257
1.07852385 0.10909856 0.08857347
1.08078283 0.10955356 0.08942082
1.08200683 0.10983603 0.09012026
1.08208155 0.10985653 0.09059091
1.08213618 0.10987220 0.09102428
1.08213618 0.10987389 0.09135171
1.08213618 0.10987542 0.09165705
1.08213618 0.10987598 0.09181190
1.08213618 0.10987654 0.09196694
0.00000000 0.00000000 0.00000000
0.00000000 0.00000000 0.00000000
0.00000000 0.00000000 0.00000000
0.00000000 0.00000000 0.00000000
0.00000000 0.00000000 0.00000000
0.00000000 0.00000000 0.00000000
0.00000000 0.00000000 0.00000000
0.00000000 0.00000000 0.00000000
0.02209434 0.00000000 0.00000000
0.06360232 0.00000000 0.00000000
0.11381304 0.00000000 0.00000000
0.17636387 0.00000000 0.00000000
0.25221553 0.00000000 0.00000000
0.33213136 0.00000000 0.00000000
0.42668029 0.00129343 0.00000000
0.51818880 0.01577390 0.00000000
0.60440486 0.03007332 0.00844901
0.68912398 0.04443058 0.02133288
0.75954506 0.05521693 0.03284963
0.82511475 0.06643258 0.04405282
0.88800333 0.07769937 0.05411885
0.94907144 0.08740383 0.06462557
1.00402870 0.09591401 0.07485595
1.05430834 0.10459074 0.08435936
1.07854170 0.10910191 0.08857678
1.08078836 0.10955505 0.08942225
1.08200733 0.10983659 0.09012074
1.08208178 0.10985679 0.09059139
1.08213618 0.10987220 0.09102476
1.08213618 0.10987389 0.09135200
1.08213618 0.10987542 0.09165705
1.08213618 0.10987598 0.09181190
1.08213618 0.10987654 0.09196694
0.00000000 0.00000000 0.00000000
0.00000000 0.00000000 0.00000000
0.00000000 0.00000000 0.00000000
0.00000000 0.00000000 0.00000000
0.00000000 0.00000000 0.00000000
0.00000000 0.00000000 0.00000000
0.00000000 0.00000000 0.00000000
0.00000000 0.00000000 0.00000000
0.01941827 0.00000000 0.00000000
0.06196414 0.00000000 0.00000000
0.11262164 0.00000000 0.00000000
0.17576292 0.00000000 0.00000000
0.25202343 0.00000000 0.00000000
0.33213789 0.00000000 0.00000000
0.42693517 0.00135797 0.00000000
0.51843284 0.01582349 0.00000000
0.60465551 0.03011323 0.00846122
0.68926179 0.04445150 0.02133179
0.75969087 0.05523979 0.03284445
0.82524299 0.06645424 0.04404592
0.88811256 0.07772056 0.05411337
0.94918749 0.08742004 0.06461978
1.00408539 0.09592317 0.07485966
1.05436128 0.10459991 0.08436297
1.07854909 0.10910325 0.08857735
1.08079289 0.10955595 0.08942349
1.08200762 0.10983674 0.09012103
1.08208191 0.10985694 0.09059152
1.08213618 0.10987220 0.09102489
1.08213618 0.10987389 0.09135213
1.08213618 0.10987542 0.09165705
1.08213618 0.10987598 0.09181190
1.08213618 0.10987654 0.09196694
0.00000000 0.00000000 0.00000000
0.00000000 0.00000000 0.00000000
0.00000000 0.00000000 0.00000000
0.00000000 0.00000000 0.00000000
0.00000000 0.00000000 0.00000000
0.00000000 0.00000000 0.00000000
0.00000000 0.00000000 0.00000000
0.00000000 0.00000000 0.00000000
0.01629262 0.00000000 0.00000000
0.05853037 0.00000000 0.00000000
0.11048650 0.00000000 0.00000000
0.17421417 0.00000000 0.00000000
0.25109211 0.00000000 0.00000000
0.33159686 0.00000000 0.00000000
0.42666236 0.00421843 0.00000000
0.51840648 0.01583706 0.00000000
0.60463053 0.03012140 0.00844226
0.68924110 0.04444792 0.02130222
0.75968093 0.05523790 0.03281379
0.82527662 0.06645977 0.04401926
0.88814830 0.07772719 0.05408707
0.94926117 0.08743037 0.06460330
1.00415526 0.09593421 0.07484187
1.05437510 0.10460270 0.08435949
1.07856055 0.10910548 0.08857451
1.08079532 0.10955639 0.08942330
1.08200812 0.10983674 0.09012151
1.08208207 0.10985694 0.09059168
1.08213618 0.10987220 0.09102489
1.08213618 0.10987389 0.09135213
1.08213618 0.10987542 0.09165705
1.08213618 0.10987598 0.09181190
1.08213618 0.10987654 0.09196694
0.00000000 0.00332202 0.00000000
0.00000000 0.00248474 0.00000000
0.00000000 0.00159551 0.00000000
0.00000000 0.00041213 0.00000000
0.00000000 0.00000000 0.00000000
0.00000000 0.00000000 0.00000000
0.00000000 0.00000000 0.00000000
0.00000000 0.00000000 0.00000000
0.01383491 0.00195472 0.00000000
0.05345796 0.00501673 0.00000000
0.10466911 0.00631351 0.00000000
0.17072046 0.00748225 0.00000000
0.24886092 0.00985024 0.00000000
0.32999070 0.01138166 0.00000000
0.42569156 0.01579958 0.00000000
0.51756289 0.02497970 0.00000000
0.60396614 0.03037190 0.00832764
0.68860732 0.04466744 0.02117603
0.75923361 0.05516565 0.03267380
0.82484856 0.06638541 0.04389393
0.88790834 0.07767994 0.05396390
0.94900881 0.08739460 0.06447406
1.00416955 0.09593561 0.07477713
1.05438945 0.10460420 0.08430939
1.07856267 0.10910570 0.08856649
1.08079863 0.10955695 0.08942016
1.08200812 0.10983662 0.09012122
1.08208227 0.10985694 0.09059216
1.08213618 0.10987220 0.09102505
1.08213618 0.10987389 0.09135213
1.08213618 0.10987542 0.09165705
1.08213618 0.10987598 0.09181190
1.08213618 0.10987654 0.09196694
0.00000000 0.03807179 0.00000000
0.00000000 0.03735945 0.00000000
0.00000000 0.03661691 0.00000000
0.00000000 0.03558937 0.00000000
0.00000000 0.03449245 0.00000000
0.00000000 0.03323243 0.00000000
0.00000000 0.03214554 0.00000000
0.00000000 0.03243114 0.00000000
0.01052603 0.03276393 0.00000000
0.05026214 0.03576567 0.00000000
0.09814397 0.03862254 0.00000000
0.16327138 0.04013640 0.00000000
0.24493182 0.04148231 0.00000000
0.32723563 0.04258884 0.00000000
0.42391006 0.03887872 0.00000000
0.51611235 0.04252663 0.00000000
0.60267818 0.04003756 0.00827253
0.68756630 0.04503357 0.02098384
0.75828136 0.05537670 0.03246910
0.82413040 0.06626099 0.04370307
0.88725393 0.07755308 0.05377183
0.94855989 0.08733124 0.06427644
1.00377063 0.09587208 0.07457184
1.05436661 0.10459883 0.08423511
1.07853592 0.10910012 0.08848977
1.08079606 0.10955606 0.08941189
1.08200713 0.10983606 0.09011787
1.08208207 0.10985683 0.09059188
1.08213618 0.10987220 0.09102553
1.08213618 0.10987389 0.09135229
1.08213618 0.10987542 0.09165705
1.08213618 0.10987598 0.09181190
1.08213618 0.10987654 0.09196694
0.00699522 0.08189977 0.00654015
0.00662971 0.08128488 0.00614218
0.00628816 0.08061691 0.00578057
0.00582337 0.07953890 0.00526359
0.00535087 0.07837741 0.00473422
0.00524230 0.07705839 0.00387574
0.00612531 0.07569944 0.00248712
0.01012685 0.07443385 0.00000000
0.02539362 0.07477812 0.00000000
0.04644120 0.07524929 0.00000000
0.09437563 0.07828774 0.00000000
0.15415919 0.08180151 0.00000000
0.23493571 0.08326297 0.00000000
0.32133618 0.08417450 0.00000000
0.42061578 0.08191783 0.00000000
0.51321114 0.07705798 0.00000000
0.60052793 0.06869434 0.00839553
0.68570993 0.06610452 0.02099720
0.75660006 0.06029676 0.03222629
0.82259732 0.07123610 0.04348138
0.88605129 0.07733413 0.05346065
0.94734403 0.08717180 0.06394878
1.00346530 0.09582054 0.07427061
1.05408720 0.10454810 0.08400746
1.07851807 0.10909611 0.08834159
1.08078058 0.10955203 0.08926265
1.08200621 0.10983539 0.09009633
1.08208155 0.10985626 0.09058514
1.08213618 0.10987209 0.09102379
1.08213618 0.10987389 0.09135277
1.08213618 0.10987542 0.09165721
1.08213618 0.10987598 0.09181190
1.08213618 0.10987654 0.09196694
0.03799685 0.13611363 0.04114216
0.03755810 0.13527013 0.04066629
0.03714787 0.13445653 0.04022288
0.03661371 0.13342550 0.03963221
0.03606351 0.13231773 0.03901705
0.03552812 0.13097083 0.03823784
0.03540515 0.12956430 0.03727360
0.03824410 0.12796193 0.03492808
0.04360477 0.12651083 0.03150837
0.06354118 0.12700021 0.02283804
0.09001264 0.12763961 0.01128234
0.14922651 0.13140383 0.00199802
0.22311185 0.13651540 0.00000000
0.30811003 0.13822584 0.00000000
0.41420198 0.13830318 0.00000000
0.50843372 0.13426818 0.00000000
0.59680296 0.11654048 0.00791955
0.68297569 0.10831978 0.02120965
0.75396751 0.08825323 0.03220880
0.82026583 0.08221800 0.04321975
0.88391669 0.08398421 0.05313643
0.94548926 0.08693301 0.06347749
1.00199992 0.09560960 0.07378601
1.05391973 0.10451267 0.08369573
1.07833515 0.10906161 0.08802567
1.08077394 0.10954979 0.08903142
1.08200027 0.10983315 0.08986360
1.08208116 0.10985559 0.09055968
1.08213618 0.10987153 0.09101317
1.08213618 0.10987378 0.09135103
1.08213618 0.10987542 0.09165769
1.08213618 0.10987598 0.09181206
1.08213618 0.10987654 0.09196694
0.07372634 0.20017769 0.08217381
0.07328769 0.19946733 0.08178197
0.07283958 0.19873789 0.08136908
0.07232438 0.19789443 0.08088246
0.07176201 0.19696729 0.08018476
0.07120072 0.19590131 0.07937390
0.07066791 0.19466940 0.07845112
0.07146557 0.19320092 0.07675534
0.07562888 0.19167241 0.07358387
0.08436986 0.19036928 0.06829708
0.10931048 0.19093415 0.05665607
0.14409046 0.19194078 0.04312089
0.21805637 0.19637613 0.02742795
0.29421910 0.20031856 0.00886873
0.39820881 0.20064399 0.00292221
0.49848253 0.20004206 0.00000000
0.59185355 0.18576289 0.00512142
0.67865320 0.16990594 0.01926023
0.75048699 0.14593168 0.03220651
0.81710597 0.12120712 0.04300232
0.88107809 0.10753425 0.05304797
0.94302844 0.10749136 0.06331976
1.00050220 0.09939733 0.07338055
1.05274681 0.10863069 0.08339592
1.07819022 0.10920963 0.08761608
1.08066010 0.10970072 0.08862486
1.08199630 0.10983090 0.08950893
1.08207722 0.10985335 0.09020309
1.08213618 0.10987101 0.09096353
1.08213618 0.10987340 0.09134119
1.08213618 0.10987542 0.09165637
1.08213618 0.10987598 0.09181239
1.08213618 0.10987654 0.09196694
0.11989325 0.28240002 0.13729946
0.11946760 0.28177073 0.13677323
0.11901943 0.28110784 0.13623268
0.11854566 0.28039762 0.13564857
0.11801480 0.27953372 0.13500457
0.11741063 0.27850084 0.13426259
0.11682317 0.27733832 0.13343409
0.11646833 0.27571817 0.13220913
0.11742214 0.27396106 0.13028200
0.12448945 0.27227488 0.12541827
0.13781796 0.27082469 0.11807683
0.17013539 0.27187469 0.10326480
0.21244453 0.27385975 0.08529530
0.28863446 0.27806213 0.06645040
0.37720285 0.28014222 0.03507743
0.47569262 0.27978607 0.02741740
0.58128892 0.26917945 0.00807205
0.67152075 0.25473752 0.01339396
0.74455780 0.22887835 0.02947176
0.81257700 0.20491817 0.04259631
0.87684440 0.18036933 0.05295251
0.93943869 0.16695268 0.06359636
0.99753971 0.14382964 0.07350733
1.05185352 0.12226389 0.08323248
1.07735009 0.12018080 0.08736418
1.08062488 0.11022196 0.08803620
1.08196714 0.11031769 0.08891596
1.08207722 0.10985110 0.08960248
1.08213618 0.10986876 0.09035938
1.08213618 0.10987325 0.09129303
1.08213618 0.10987542 0.09164812
1.08213618 0.10987598 0.09181073
1.08213618 0.10987654 0.09196694
0.17014449 0.36606388 0.19338873
0.16977524 0.36537593 0.19296033
0.16938203 0.36465320 0.19250637
0.16897631 0.36391245 0.19203656
0.16853376 0.36315626 0.19152687
0.16803530 0.36230797 0.19095185
0.16746053 0.36133082 0.19029301
0.16701237 0.36002358 0.18937740
0.16680018 0.35830753 0.18814104
0.16945977 0.35655292 0.18558515
0.17879656 0.35483781 0.17971454
0.19482262 0.35387647 0.17104996
0.23660191 0.35579839 0.15089457
0.28212275 0.35779386 0.12750267
0.36980026 0.35977695 0.09455592
0.45535445 0.36144185 0.06221640
0.55800507 0.35227650 0.03941621
0.65910514 0.34196094 0.01933773
0.73630629 0.31723100 0.02192949
0.80652775 0.29054910 0.03852389
0.87187403 0.26460423 0.05197868
0.93509501 0.23961805 0.06289279
0.99345954 0.20864285 0.07375857
1.04877761 0.17430641 0.08329674
1.07672504 0.14835220 0.08744033
1.08026432 0.13648980 0.08802913
1.08199244 0.11688207 0.08839910
1.08210432 0.11635708 0.08908258
1.08213667 0.10994074 0.08963648
1.08213667 0.10994523 0.09056490
1.08213634 0.10990001 0.09155983
1.08213618 0.10987598 0.09180413
1.08213618 0.10987654 0.09196694
0.21960212 0.45225993 0.25183939
0.21933690 0.45181047 0.25151466
0.21898031 0.45121509 0.25108813
0.21868552 0.45071629 0.25072806
0.21830732 0.45008335 0.25027442
0.21793215 0.44945057 0.24981875
0.21747085 0.44867733 0.24926494
0.21686530 0.44765626 0.24853156
0.21639933 0.44635974 0.24756759
0.21686683 0.44467188 0.24613800
0.22019411 0.44293883 0.24335702
0.23308622 0.44175645 0.23601120
0.25672262 0.44170699 0.22454039
0.30174673 0.44357976 0.20272364
0.35805348 0.44574970 0.17121233
0.44472493 0.44731681 0.13754679
0.52968865 0.44481776 0.08516519
0.62987430 0.43625254 0.06115814
0.72087167 0.41831231 0.02351671
0.79696996 0.39357980 0.02480236
0.86397868 0.36459212 0.04512137
0.92878847 0.33821291 0.05945364
0.98767049 0.30539359 0.07184537
1.04445983 0.27024144 0.08335411
1.07444124 0.23896249 0.08783210
1.08115550 0.21657100 0.08909342
1.08265723 0.18915544 0.08920733
1.08235004 0.14770509 0.08885831
1.08236564 0.13985664 0.08934596
1.08213911 0.11031476 0.08935501
1.08213878 0.11026941 0.09034061
1.08213634 0.10990057 0.09172233
1.08213618 0.10987654 0.09196694
0.26842487 0.54004173 0.31037012
0.26815164 0.53954920 0.31004923
0.26787224 0.53904510 0.30972109
0.26758516 0.53852542 0.30938245
0.26728896 0.53798870 0.30903299
0.26694496 0.53736491 0.30862703
0.26657113 0.53668659 0.30818602
0.26603720 0.53571526 0.30755486
0.26536807 0.53449618 0.30676364
0.26547848 0.53296156 0.30561681
0.26677007 0.53098024 0.30395602
0.27413055 0.52950841 0.29987973
0.29477098 0.52913929 0.28964089
0.32104133 0.52929980 0.27641325
0.37835901 0.53171514 0.24445222
0.43341992 0.53413747 0.21282491
0.51720758 0.53134530 0.16112242
0.60186117 0.52855908 0.10671490
0.69028932 0.50975294 0.06614887
0.78238165 0.48871565 0.02725366
0.85390131 0.46343045 0.03120669
0.92077433 0.43776870 0.05182057
0.98109093 0.40734877 0.06798870
1.03945257 0.36946394 0.08160875
1.07115969 0.33678246 0.08774922
1.07921602 0.30810699 0.08934621
1.08345475 0.27165464 0.09018135
1.08307217 0.22051974 0.08956986
1.08268589 0.17458883 0.08920067
1.08245030 0.14557079 0.08914451
1.08214813 0.11164970 0.08912605
1.08214569 0.11127684 0.09049475
1.08214325 0.11090505 0.09187814
0.30936882 0.61252319 0.36113913
0.30919024 0.61220648 0.36092134
0.30892348 0.61173800 0.36060168
0.30872616 0.61138684 0.36035999
0.30845702 0.61091124 0.36003517
0.30821176 0.61047506 0.35973635
0.30789092 0.60990617 0.35934861
0.30750513 0.60921620 0.35887783
0.30696804 0.60825492 0.35822509
0.30628303 0.60700645 0.35737850
0.30636100 0.60543053 0.35616305
0.31056631 0.60386170 0.35402392
0.32355811 0.60317098 0.34893272
0.34727398 0.60327775 0.33742945
0.38424756 0.60532185 0.32063356
0.43857031 0.60768153 0.28863211
0.49393990 0.61005222 0.24697967
0.58075190 0.60736257 0.19598752
0.65859961 0.60007537 0.12407889
0.74893468 0.58266617 0.08201027
0.83444101 0.56113495 0.02958979
0.90608312 0.53433915 0.03022965
0.97121720 0.50878825 0.05467592
1.03219364 0.47664419 0.07318330
1.06805368 0.44784922 0.08330312
1.08113306 0.42306788 0.08726435
1.08513554 0.39116004 0.08864173
1.08496712 0.34642086 0.08915047
1.08444410 0.29682159 0.08905909
1.08382758 0.25676295 0.09011493
1.08347967 0.21938048 0.08994394
1.08225114 0.12759001 0.08918410
1.08224873 0.12718426 0.09055342
0.35111319 0.68414365 0.41304325
0.35093151 0.68383034 0.41283443
0.35074979 0.68351716 0.41262543
0.35055530 0.68318170 0.41240061
0.35036621 0.68285524 0.41218122
0.35013756 0.68246247 0.41191761
0.34990414 0.68206178 0.41164817
0.34955746 0.68146664 0.41124764
0.34915075 0.68076827 0.41077619
0.34857467 0.67976924 0.41009880
0.34784272 0.67849049 0.40922600
0.35091619 0.67734810 0.40760989
0.36107669 0.67658948 0.40463118
0.37725732 0.67638587 0.39882280
0.41052992 0.67826450 0.38397169
0.44378957 0.68020028 0.36546679
0.49974533 0.68250471 0.32317344
0.55915453 0.68481543 0.28224270
0.63704149 0.67793465 0.21223339
0.71518529 0.67081208 0.14080374
0.80071331 0.65094728 0.08388097
0.88670427 0.62887041 0.02861642
0.95709169 0.60588861 0.03337872
1.02182501 0.58351716 0.05953729
1.06070668 0.55916044 0.07536921
1.07771424 0.53342768 0.08283413
1.08698049 0.50131491 0.08657097
1.08700031 0.46250736 0.08762294
1.08675013 0.42455089 0.08864135
1.08587177 0.38178442 0.08997235
1.08483168 0.33073772 0.09092040
1.08357069 0.23367801 0.09000236
1.08235317 0.14344588 0.08924218
0.38714481 0.74730168 0.45279392
0.38699736 0.74703802 0.45263072
0.38680936 0.74670489 0.45242628
0.38665590 0.74643138 0.45225746
0.38646340 0.74608889 0.45204666
0.38628083 0.74576295 0.45184602
0.38605198 0.74535667 0.45159688
0.38577895 0.74486962 0.45129770
0.38540017 0.74419447 0.45088464
0.38493805 0.74336906 0.45037933
0.38429595 0.74220650 0.44966883
0.38471101 0.74092949 0.44876496
0.39059481 0.73996083 0.44701786
0.40281633 0.73945906 0.44381702
0.42460321 0.74059000 0.43681701
0.45544820 0.74278585 0.42340039
0.49979260 0.74690032 0.40346044
0.55919922 0.74935013 0.35988691
0.60996382 0.75273432 0.31326511
0.68740814 0.74511345 0.24192435
0.76600107 0.73614269 0.15357869
0.84894454 0.71482937 0.09155886
0.93278950 0.69379944 0.02743168
1.00217604 0.67205777 0.02839936
1.05290384 0.65257892 0.05331729
1.07802755 0.63117934 0.06696750
1.08848817 0.61114211 0.07306482
1.08929889 0.58641212 0.07595555
1.08920432 0.55247617 0.07801312
1.08864101 0.52103020 0.08122072
1.08773562 0.47434370 0.08297538
1.08663456 0.41248501 0.08661346
1.08500192 0.31271654 0.08572513
0.42086103 0.80694063 0.49405773
0.42073314 0.80669559 0.49387877
0.42060265 0.80644577 0.49369658
0.42046690 0.80618694 0.49350818
0.42033582 0.80593672 0.49332597
0.42017715 0.80563380 0.49310602
0.42001984 0.80533317 0.49288788
0.41978967 0.80489389 0.49256949
0.41952961 0.80439664 0.49220922
0.41915846 0.80368792 0.49169707
0.41870827 0.80282700 0.49107560
0.41917808 0.80182966 0.49022037
0.42161140 0.80082630 0.48908620
0.42849981 0.80021759 0.48676536
0.44653508 0.80097142 0.48170909
0.46865476 0.80218501 0.47405314
0.51256337 0.80631613 0.45718874
0.55885338 0.81018570 0.43762210
0.60961460 0.81341741 0.39344822
0.66032665 0.81672124 0.34513657
0.73736571 0.80836436 0.25584665
0.81285752 0.79966614 0.16337041
0.89456997 0.78153897 0.09116954
0.97626096 0.76265241 0.02185478
1.03171655 0.74304105 0.02114497
1.06997902 0.72486665 0.04531312
1.08925172 0.70724278 0.05713030
1.09018265 0.69372222 0.06103314
1.09018265 0.67289869 0.06433279
1.09018265 0.64969479 0.06793190
1.09018265 0.61812809 0.07148025
1.08962519 0.56143954 0.07760666
1.08846152 0.49298299 0.08214576
0.44973587 0.86256797 0.53457641
0.44963244 0.86236447 0.53443103
0.44950391 0.86211145 0.53425104
0.44939984 0.86190663 0.53410497
0.44926820 0.86164845 0.53392153
0.44914900 0.86141414 0.53375376
0.44899399 0.86110972 0.53353784
0.44882065 0.86077021 0.53329527
0.44857526 0.86028854 0.53295307
0.44829612 0.85973987 0.53256238
0.44789549 0.85895327 0.53200324
0.44763941 0.85807480 0.53136269
0.44900613 0.85712359 0.53043906
0.45320952 0.85635543 0.52902303
0.46730068 0.85682044 0.52546568
0.48741563 0.85773049 0.52014986
0.52462413 0.86097787 0.50925072
0.56846119 0.86521993 0.49067234
0.60970571 0.86961317 0.46745272
0.66041720 0.87295943 0.42405697
0.70704908 0.87747141 0.37606057
0.78400682 0.86874016 0.28187428
0.85594531 0.86117372 0.17267094
0.93654587 0.84291948 0.09377116
1.00452437 0.82775938 0.01896186
1.04707115 0.81214158 0.01475540
1.07506662 0.79892332 0.02731537
1.08182226 0.78814951 0.02790052
1.08328041 0.77769288 0.03135334
1.08394232 0.76414428 0.03398858
1.08404297 0.74053458 0.03817048
1.08619096 0.70844742 0.04453009
1.08514977 0.65123967 0.04981341
0.47863043 0.91750062 0.57294526
0.47852638 0.91730902 0.57281797
0.47841565 0.91710485 0.57268258
0.47830673 0.91690366 0.57254938
0.47819983 0.91670603 0.57241858
0.47807242 0.91647051 0.57226217
0.47794991 0.91624351 0.57211102
0.47776793 0.91590731 0.57188828
0.47757204 0.91554518 0.57164763
0.47729108 0.91502199 0.57130234
0.47697182 0.91442460 0.57090773
0.47675321 0.91363261 0.57037212
0.47689540 0.91275083 0.56974716
0.48024458 0.91204202 0.56862692
0.49258372 0.91231050 0.56627842
0.50928582 0.91292932 0.56271507
0.54369516 0.91585021 0.55499054
0.57918763 0.91909880 0.54431493
0.61918022 0.92362158 0.52372942
0.66061568 0.92790756 0.49919083
0.70725456 0.93225197 0.45191262
0.75512675 0.93678660 0.40664145
0.82616565 0.92977197 0.29447337
0.89684358 0.92313364 0.17768671
0.96335785 0.90910456 0.09305756
