public/luts/Denis-BarbasxSony-BLIZZARD.cube
TITLE "Denis-BarbasxSony-BLIZZARD"
LUT_3D_SIZE 5
# MLUTS-Log3/Sony S-Gamut3.cine -> LA - Denis-BarbasxSony-BLIZZARD/LA - Denis-BarbasxSony-BLIZZARD, CineEI Shift 0.00, Black Level -5.12% IRE, Input 109% -> Output 100% - Created with LUTCalc v4.09 by Ben Turley February 2025
0.00000000 0.00000000 0.00000000
0.06004959 0.00000000 0.00000000
0.50035453 0.00000000 0.00000000
0.60948191 0.00000000 0.00000000
0.69608906 0.00000000 0.00000000
0.00000000 0.00051844 0.00000000
0.01742120 0.01403379 0.00000000
0.55782419 0.00000000 0.00000000
0.72132189 0.00000000 0.00000000
0.88403405 0.00000000 0.00000000
0.00000000 0.24717738 0.04430681
0.00000000 0.35438875 0.14043673
0.50001082 0.42581030 0.00000000
1.07227854 0.31814053 0.05418450
1.09018265 0.53307912 0.29863123
0.00000000 0.76690535 0.44302196
0.08636528 0.90783982 0.58102803
0.45380113 0.97366873 0.46423011
1.01815570 0.96284369 0.01330363
1.09018265 0.94947638 0.21398539
0.30899343 1.09018265 0.83823793
0.39812366 1.09018265 0.86933815
0.54890299 1.09018265 0.80969829
1.00656955 1.09018265 0.23889770
1.09018265 1.09018265 0.08695631
0.00000000 0.00000000 0.03247952
0.04577469 0.00000000 0.01061894
0.43136414 0.00000000 0.00000000
0.56282066 0.00000000 0.00000000
0.65412970 0.00000000 0.00000000
0.00000000 0.01349042 0.01741672
0.00000000 0.03009415 0.03948745
0.51852506 0.00000000 0.00000000
0.71819952 0.00000000 0.00000000
0.93445622 0.11181329 0.13076422
0.00000000 0.26966721 0.09900044
0.00000000 0.40572633 0.22088051
0.55095271 0.47426212 0.00971808
1.08257603 0.38313741 0.16738764
1.09018265 0.61315724 0.41773090
0.00000000 0.81464792 0.52023634
0.08688899 0.92284452 0.62107255
0.44674713 0.99688035 0.56734336
1.02833199 0.97682305 0.07217164
1.09018265 0.96250556 0.29203957
0.32209004 1.09018265 0.87998556
0.39444483 1.09018265 0.90819964
0.54236311 1.09018265 0.86042894
1.00383884 1.09018265 0.30813957
1.09018265 1.09018265 0.14713100
0.00000000 0.02931669 0.29172285
0.00000000 0.02370524 0.32023770
0.58982485 0.00000000 0.06974388
0.61234584 0.00000000 0.00000000
0.67966876 0.00000000 0.00000000
0.00000000 0.06430497 0.27372179
0.00000000 0.11049321 0.33180271
0.62917024 0.00000000 0.20083917
0.73061810 0.00000000 0.09515368
0.93816636 0.16005935 0.27541084
0.00000000 0.31923281 0.34750914
0.00000000 0.46498070 0.49200268
0.50177685 0.51680670 0.52862936
0.98444668 0.56554256 0.57993799
1.09018265 0.71717940 0.73563888
0.00000000 0.87486460 0.61761634
0.07766202 0.96860074 0.72404767
0.43498047 1.02338293 0.80259327
1.03571741 0.98791307 0.29093493
1.09018265 0.96327270 0.47926323
0.31953798 1.09018265 0.93014555
0.38937028 1.09018265 0.96462304
0.49172430 1.09018265 0.96631337
0.99974980 1.09018265 0.45524461
1.09018265 1.09018265 0.23046582
0.00000000 0.03918772 0.34570680
0.00000000 0.03771301 0.36723443
0.60570443 0.00000000 0.36010398
0.74268130 0.00000000 0.09285465
0.80250796 0.00000000 0.06040446
0.00000000 0.07836753 0.35410160
0.00000000 0.13451124 0.42300863
0.64164057 0.00000000 0.54185849
0.87241663 0.00000000 0.25873278
1.05997297 0.16078339 0.41077011
0.00000000 0.31746889 0.46973111
0.00000000 0.48141615 0.64081672
0.37263104 0.59468374 0.80419444
1.06923037 0.56293071 0.74412814
1.09018265 0.72106869 0.84870819
0.00000000 0.91803627 0.97515834
0.00000000 0.99802109 1.04542203
0.25516428 1.04824881 1.07890734
0.97823282 0.98603717 1.00775619
1.09018265 1.00731804 1.02523202
0.08210912 1.09018265 1.09018265
0.14331767 1.09018265 1.09018265
0.23789080 1.09018265 1.09018265
0.92138417 1.09018265 1.05097658
1.09018265 1.08464438 0.87312936
0.00000000 0.04923192 0.39092351
0.00000000 0.04752551 0.41658608
0.64173344 0.00000000 0.45672528
0.79994810 0.00000000 0.18831512
0.84695854 0.00000000 0.13889965
0.00000000 0.09763905 0.40761222
0.00000000 0.17240606 0.49409771
0.69457956 0.00000000 0.71867714
1.00381438 0.02897819 0.45527684
1.08515369 0.19366852 0.51928871
0.00000000 0.42203746 0.59493493
0.00000000 0.64972585 0.82389080
0.39824293 0.66155275 0.91123688
1.09018265 0.61955580 0.89750296
1.09018265 0.72698455 0.93369716
0.00000000 0.98236958 1.09018265
0.07643754 1.06738424 1.09018265
0.33048614 1.07913480 1.09018265
0.95704702 1.00634795 1.06391482
1.09018265 1.00618258 1.05897214
0.09751657 1.09018265 1.09018265
0.16477798 1.09018265 1.09018265
0.25351955 1.09018265 1.09018265
0.86803628 1.09018265 1.09018265
1.07563801 1.07890423 1.08549707
