public/luts/Denis-BarbasxSony-BLIZZARD.cube
TITLE "Denis-BarbasxSony-BLIZZARD"
LUT_3D_SIZE 33
# MLUTS-Log3/Sony S-Gamut3.cine -> LA - Denis-BarbasxSony-BLIZZARD/LA - Denis-BarbasxSony-BLIZZARD, CineEI Shift 0.00, Black Level -5.12% IRE, Input 109% -> Output 100% - Created with LUTCalc v4.09 by Ben Turley February 2025
0.00000000 0.00000000 0.00000000
0.00000000 0.00000000 0.00000000
0.00000000 0.00000000 0.00000000
0.00000000 0.00000000 0.00000000
0.00000000 0.00000000 0.00000000
0.00000000 0.00000000 0.00000000
0.00000000 0.00000000 0.00000000
0.01218209 0.00000000 0.00000000
0.06004959 0.00000000 0.00000000
0.11775386 0.00000000 0.00000000
0.18855698 0.00000000 0.00000000
0.25722141 0.00000000 0.00000000
0.32379582 0.00000000 0.00000000
0.38541054 0.00000000 0.00000000
0.42921911 0.00000000 0.00000000
0.47119772 0.00000000 0.00000000
0.50035453 0.00000000 0.00000000
0.52956454 0.00000000 0.00000000
0.54731981 0.00000000 0.00000000
0.56410009 0.00000000 0.00000000
0.57543555 0.00000000 0.00000000
0.58539422 0.00000000 0.00000000
0.59384828 0.00000000 0.00000000
0.60152960 0.00000000 0.00000000
0.60948191 0.00000000 0.00000000
0.61832387 0.00000000 0.00000000
0.62754308 0.00000000 0.00000000
0.63732281 0.00000000 0.00000000
0.64737597 0.00000000 0.00000000
0.65833608 0.00000000 0.00000000
0.66956396 0.00000000 0.00000000
0.68303913 0.00000000 0.00000000
0.69608906 0.00000000 0.00000000
0.00000000 0.00000000 0.00000000
0.00000000 0.00000000 0.00000000
0.00000000 0.00000000 0.00000000
0.00000000 0.00000000 0.00000000
0.00000000 0.00000000 0.00000000
0.00000000 0.00000000 0.00000000
0.00000000 0.00000000 0.00000000
0.01218882 0.00000000 0.00000000
0.06001470 0.00000000 0.00000000
0.11769578 0.00000000 0.00000000
0.18848956 0.00000000 0.00000000
0.25717081 0.00000000 0.00000000
0.32378132 0.00000000 0.00000000
0.38540248 0.00000000 0.00000000
0.42923355 0.00000000 0.00000000
0.47121280 0.00000000 0.00000000
0.50037293 0.00000000 0.00000000
0.52958292 0.00000000 0.00000000
0.54732827 0.00000000 0.00000000
0.56410775 0.00000000 0.00000000
0.57543708 0.00000000 0.00000000
0.58539422 0.00000000 0.00000000
0.59384828 0.00000000 0.00000000
0.60152960 0.00000000 0.00000000
0.60948191 0.00000000 0.00000000
0.61832387 0.00000000 0.00000000
0.62754308 0.00000000 0.00000000
0.63732281 0.00000000 0.00000000
0.64737597 0.00000000 0.00000000
0.65833608 0.00000000 0.00000000
0.66956396 0.00000000 0.00000000
0.68303913 0.00000000 0.00000000
0.69608906 0.00000000 0.00000000
0.00000000 0.00000000 0.00000000
0.00000000 0.00000000 0.00000000
0.00000000 0.00000000 0.00000000
0.00000000 0.00000000 0.00000000
0.00000000 0.00000000 0.00000000
0.00000000 0.00000000 0.00000000
0.00000000 0.00000000 0.00000000
0.01226106 0.00000000 0.00000000
0.06002105 0.00000000 0.00000000
0.11765657 0.00000000 0.00000000
0.18844039 0.00000000 0.00000000
0.25710132 0.00000000 0.00000000
0.32372389 0.00000000 0.00000000
0.38538867 0.00000000 0.00000000
0.42922574 0.00000000 0.00000000
0.47122766 0.00000000 0.00000000
0.50038820 0.00000000 0.00000000
0.52960129 0.00000000 0.00000000
0.54734656 0.00000000 0.00000000
0.56411610 0.00000000 0.00000000
0.57544470 0.00000000 0.00000000
0.58539574 0.00000000 0.00000000
0.59384828 0.00000000 0.00000000
0.60152960 0.00000000 0.00000000
0.60948191 0.00000000 0.00000000
0.61832387 0.00000000 0.00000000
0.62754308 0.00000000 0.00000000
0.63732281 0.00000000 0.00000000
0.64737597 0.00000000 0.00000000
0.65833608 0.00000000 0.00000000
0.66956396 0.00000000 0.00000000
0.68303913 0.00000000 0.00000000
0.69608906 0.00000000 0.00000000
0.00000000 0.00000000 0.00000000
0.00000000 0.00000000 0.00000000
0.00000000 0.00000000 0.00000000
0.00000000 0.00000000 0.00000000
0.00000000 0.00000000 0.00000000
0.00000000 0.00000000 0.00000000
0.00000000 0.00000000 0.00000000
0.01177152 0.00000000 0.00000000
0.05811938 0.00000000 0.00000000
0.11349275 0.00000000 0.00000000
0.18292821 0.00000000 0.00000000
0.25338897 0.00000000 0.00000000
0.32216646 0.00000000 0.00000000
0.38487934 0.00000000 0.00000000
0.43185534 0.00000000 0.00000000
0.47420547 0.00000000 0.00000000
0.50665465 0.00000000 0.00000000
0.53586160 0.00000000 0.00000000
0.55669289 0.00000000 0.00000000
0.57335573 0.00000000 0.00000000
0.58621028 0.00000000 0.00000000
0.59621976 0.00000000 0.00000000
0.60546523 0.00000000 0.00000000
0.61365683 0.00000000 0.00000000
0.62280160 0.00000000 0.00000000
0.63194024 0.00000000 0.00000000
0.64167450 0.00000000 0.00000000
0.65201561 0.00000000 0.00000000
0.66259046 0.00000000 0.00000000
0.67496997 0.00000000 0.00000000
0.68652210 0.00000000 0.00000000
0.70386676 0.00000000 0.00000000
0.71864928 0.00000000 0.00000000
0.00000000 0.00000000 0.00000000
0.00000000 0.00000000 0.00000000
0.00000000 0.00000000 0.00000000
0.00000000 0.00000000 0.00000000
0.00000000 0.00000000 0.00000000
0.00000000 0.00000000 0.00000000
0.00000000 0.00000000 0.00000000
0.01523202 0.00000000 0.00000000
0.05736144 0.00000000 0.00000000
0.11107061 0.00000000 0.00000000
0.17785850 0.00000000 0.00000000
0.24664398 0.00000000 0.00000000
0.31772529 0.00000000 0.00000000
0.38318059 0.00000000 0.00000000
0.43176779 0.00000000 0.00000000
0.47733784 0.00000000 0.00000000
0.51062307 0.00000000 0.00000000
0.54307391 0.00000000 0.00000000
0.56404869 0.00000000 0.00000000
0.58396414 0.00000000 0.00000000
0.59672884 0.00000000 0.00000000
0.60845333 0.00000000 0.00000000
0.61843084 0.00000000 0.00000000
0.62797945 0.00000000 0.00000000
0.63728484 0.00000000 0.00000000
0.64703019 0.00000000 0.00000000
0.65693561 0.00000000 0.00000000
0.66792518 0.00000000 0.00000000
0.67901972 0.00000000 0.00000000
0.69202810 0.00000000 0.00000000
0.70606490 0.00000000 0.00000000
0.72577522 0.00000000 0.00000000
0.74316319 0.00000000 0.00000000
0.00000000 0.00000000 0.00000000
0.00000000 0.00000000 0.00000000
0.00000000 0.00000000 0.00000000
0.00000000 0.00000000 0.00000000
0.00000000 0.00000000 0.00000000
0.00000000 0.00000000 0.00000000
0.00000000 0.00000000 0.00000000
0.01496602 0.00000000 0.00000000
0.05740944 0.00000000 0.00000000
0.11032369 0.00000000 0.00000000
0.17754466 0.00000000 0.00000000
0.24587935 0.00000000 0.00000000
0.31786085 0.00000000 0.00000000
0.38573723 0.00000000 0.00000000
0.43725212 0.00000000 0.00000000
0.48449104 0.00000000 0.00000000
0.51977338 0.00000000 0.00000000
0.55301136 0.00000000 0.00000000
0.57584373 0.00000000 0.00000000
0.59585948 0.00000000 0.00000000
0.61052382 0.00000000 0.00000000
0.62308574 0.00000000 0.00000000
0.63451279 0.00000000 0.00000000
0.64399690 0.00000000 0.00000000
0.65442503 0.00000000 0.00000000
0.66431720 0.00000000 0.00000000
0.67549461 0.00000000 0.00000000
0.68711022 0.00000000 0.00000000
0.69949499 0.00000000 0.00000000
0.71618435 0.00000000 0.00000000
0.73168906 0.00000000 0.00000000
0.75309455 0.00000000 0.00000000
0.77045765 0.00000000 0.00000000
0.00000000 0.00000000 0.00000000
0.00000000 0.00000000 0.00000000
0.00000000 0.00000000 0.00000000
0.00000000 0.00000000 0.00000000
0.00000000 0.00000000 0.00000000
0.00000000 0.00000000 0.00000000
0.00000000 0.00000000 0.00000000
0.01144936 0.00000000 0.00000000
0.05604046 0.00000000 0.00000000
0.10913800 0.00000000 0.00000000
0.17755789 0.00000000 0.00000000
0.24635885 0.00000000 0.00000000
0.31963183 0.00000000 0.00000000
0.38827307 0.00000000 0.00000000
0.44235621 0.00000000 0.00000000
0.49286273 0.00000000 0.00000000
0.52913738 0.00000000 0.00000000
0.56422706 0.00000000 0.00000000
0.58739118 0.00000000 0.00000000
0.60906971 0.00000000 0.00000000
0.62478924 0.00000000 0.00000000
0.63887388 0.00000000 0.00000000
0.65008961 0.00000000 0.00000000
0.66064938 0.00000000 0.00000000
0.67098571 0.00000000 0.00000000
0.68205326 0.00000000 0.00000000
0.69316432 0.00000000 0.00000000
0.70784538 0.00000000 0.00000000
0.72241187 0.00000000 0.00000000
0.74014106 0.00000000 0.00000000
0.75626278 0.00000000 0.00000000
0.78013167 0.00000000 0.00000000
0.80285454 0.00000000 0.00000000
0.00000000 0.00000000 0.00000000
0.00000000 0.00000000 0.00000000
0.00000000 0.00000000 0.00000000
0.00000000 0.00000000 0.00000000
0.00000000 0.00000000 0.00000000
0.00000000 0.00000000 0.00000000
0.00000000 0.00000000 0.00000000
0.00000000 0.00000000 0.00000000
0.04029936 0.00000000 0.00000000
0.10263883 0.00000000 0.00000000
0.17310177 0.00000000 0.00000000
0.24599560 0.00000000 0.00000000
0.32208232 0.00000000 0.00000000
0.39336860 0.00000000 0.00000000
0.45105477 0.00000000 0.00000000
0.50441710 0.00000000 0.00000000
0.54283153 0.00000000 0.00000000
0.57863114 0.00000000 0.00000000
0.60408224 0.00000000 0.00000000
0.62729771 0.00000000 0.00000000
0.64510524 0.00000000 0.00000000
0.65894252 0.00000000 0.00000000
0.67181873 0.00000000 0.00000000
0.68209813 0.00000000 0.00000000
0.69366219 0.00000000 0.00000000
0.70571355 0.00000000 0.00000000
0.71994167 0.00000000 0.00000000
0.73474168 0.00000000 0.00000000
0.75047610 0.00000000 0.00000000
0.76810098 0.00000000 0.00000000
0.78896764 0.00000000 0.00000000
0.81675888 0.00000000 0.00000000
0.84036232 0.00000000 0.00000000
0.00000000 0.00051844 0.00000000
0.00000000 0.00062960 0.00000000
0.00000000 0.00072982 0.00000000
0.00000000 0.00471610 0.00000000
0.00000000 0.00870540 0.00000000
0.00000000 0.01179903 0.00000000
0.00000000 0.01474037 0.00000000
0.00000000 0.01468786 0.00000000
0.01742120 0.01403379 0.00000000
0.08043039 0.00775051 0.00000000
0.16432152 0.00000000 0.00000000
0.23909612 0.00000000 0.00000000
0.32305807 0.00000000 0.00000000
0.39700288 0.00000000 0.00000000
0.46022276 0.00000000 0.00000000
0.51759847 0.00000000 0.00000000
0.55782419 0.00000000 0.00000000
0.59539087 0.00000000 0.00000000
0.62278891 0.00000000 0.00000000
0.64869878 0.00000000 0.00000000
0.66663065 0.00000000 0.00000000
0.68245786 0.00000000 0.00000000
0.69489995 0.00000000 0.00000000
0.70842073 0.00000000 0.00000000
0.72132189 0.00000000 0.00000000
0.73520108 0.00000000 0.00000000
0.74840190 0.00000000 0.00000000
0.76368956 0.00000000 0.00000000
0.78069654 0.00000000 0.00000000
0.80346091 0.00000000 0.00000000
0.82337005 0.00000000 0.00000000
0.85617337 0.00000000 0.00000000
0.88403405 0.00000000 0.00000000
0.00000000 0.01637227 0.00000000
0.00000000 0.01649581 0.00000000
0.00000000 0.01661249 0.00000000
0.00000000 0.02235737 0.00000000
0.00000000 0.02662265 0.00000000
0.00000000 0.03174601 0.00000000
0.00000000 0.03489998 0.00000000
0.00000000 0.03897259 0.00000000
0.00010591 0.03830897 0.00000000
0.04672260 0.03658001 0.00000000
0.13129877 0.02734853 0.00000000
0.22533607 0.01525125 0.00000000
0.31422969 0.00177924 0.00000000
0.40035715 0.00000000 0.00000000
0.47201803 0.00000000 0.00000000
0.53526375 0.00000000 0.00000000
0.57864908 0.00000000 0.00000000
0.61815826 0.00000000 0.00000000
0.64879046 0.00000000 0.00000000
0.67518568 0.00000000 0.00000000
0.69435147 0.00000000 0.00000000
0.71219834 0.00000000 0.00000000
0.72829050 0.00000000 0.00000000
0.74112059 0.00000000 0.00000000
0.75513707 0.00000000 0.00000000
0.76765989 0.00000000 0.00000000
0.78479873 0.00000000 0.00000000
0.80187554 0.00000000 0.00000000
0.81949171 0.00000000 0.00000000
0.84164839 0.00000000 0.00000000
0.86540921 0.00000000 0.00000000
0.89962950 0.01082188 0.00000000
0.93223490 0.02496212 0.01103362
0.00000000 0.03633286 0.00000000
0.00000000 0.03645808 0.00000000
0.00000000 0.03657575 0.00000000
0.00000000 0.04300405 0.00000000
0.00000000 0.04979749 0.00000000
0.00000000 0.05586666 0.00000000
0.00000000 0.06156357 0.00000000
0.00000000 0.06628998 0.00000000
0.00000000 0.07137311 0.00000000
0.01887370 0.06968253 0.00000000
0.08538758 0.06681541 0.00000000
0.18075265 0.05514885 0.00000000
0.29834162 0.03701616 0.00000000
0.38949660 0.02283915 0.00000000
0.48483263 0.00478752 0.00000000
0.55670027 0.00000000 0.00000000
0.60462391 0.00000000 0.00000000
0.64888507 0.00000000 0.00000000
0.68069071 0.00000000 0.00000000
0.71012837 0.00000000 0.00000000
0.73195114 0.00000000 0.00000000
0.75021481 0.00000000 0.00000000
0.76507017 0.00000000 0.00000000
0.78061035 0.00000000 0.00000000
0.79617055 0.00000000 0.00000000
0.81231267 0.00000000 0.00000000
0.82716083 0.00000000 0.00000000
0.84749596 0.00000000 0.00000000
0.86594872 0.00165940 0.00000000
0.89027697 0.01935515 0.00000000
0.91450259 0.03020904 0.00436023
0.95055751 0.06624408 0.03906670
0.98416349 0.08802767 0.06549904
0.00000000 0.06019533 0.00000000
0.00000000 0.06032624 0.00000000
0.00000000 0.06044316 0.00000000
0.00000000 0.06790737 0.00000000
0.00000000 0.07501089 0.00117844
0.00000000 0.08365235 0.00478602
0.00000000 0.09026984 0.00556888
0.00000000 0.09730598 0.00363183
0.00000000 0.10298989 0.00000000
0.00000000 0.10774307 0.00000000
0.05348775 0.10489486 0.00000000
0.13128379 0.10171936 0.00000000
0.24979288 0.08567602 0.00000000
0.37405534 0.06571270 0.00000000
0.47665701 0.04734397 0.00000000
0.57254851 0.02877118 0.00000000
0.63196647 0.01742785 0.00000000
0.68037596 0.00806818 0.00000000
0.71880489 0.00223909 0.00000000
0.75035035 0.00000000 0.00000000
0.77331022 0.00000000 0.00000000
0.79414338 0.00000000 0.00000000
0.81141220 0.00000000 0.00000000
0.82583927 0.00092595 0.00000000
0.84199911 0.00623154 0.00000000
0.85864291 0.00971864 0.00000000
0.87573731 0.01861337 0.00000000
0.89633598 0.02691268 0.00000000
0.91636408 0.04033067 0.00614968
0.94086010 0.05921352 0.02586693
0.96312356 0.08108050 0.04907238
0.99514512 0.11812058 0.08655851
1.03066007 0.15436283 0.12126042
0.00000000 0.09009757 0.00000000
0.00000000 0.09024733 0.00000000
0.00000000 0.09037070 0.00000000
0.00000000 0.09975462 0.00553122
0.00000000 0.10877490 0.01139458
0.00000000 0.11845737 0.01826772
0.00000000 0.12813072 0.02337597
0.00000000 0.13678164 0.02504065
0.00000000 0.14516358 0.02373387
0.00000000 0.15101553 0.00335794
0.01370601 0.15582740 0.00000000
0.09128744 0.15260626 0.00000000
0.19191519 0.14864504 0.00000000
0.31659573 0.13021430 0.00000000
0.46647894 0.10328968 0.00000000
0.56971299 0.08576686 0.00000000
0.65899864 0.06662270 0.00000000
0.71843260 0.05542999 0.00000000
0.76420395 0.04499963 0.00000000
0.80300096 0.03796087 0.00000000
0.82854452 0.03476976 0.00000000
0.85223142 0.03321467 0.00000000
0.86988562 0.03613079 0.00000000
0.88676330 0.03997024 0.00000000
0.90281600 0.04800329 0.00000000
0.91819764 0.05782729 0.00000000
0.93637455 0.06667249 0.00359939
0.95483735 0.08408309 0.02430814
0.97571676 0.09659638 0.04230481
0.99777737 0.12442831 0.07267327
1.02017572 0.14658486 0.09582480
1.03494837 0.19155647 0.14220804
1.06606920 0.22825807 0.17990668
0.00000000 0.12156457 0.00386366
0.00000000 0.12175072 0.00398256
0.00000000 0.12193211 0.00409580
0.00000000 0.13376797 0.01253036
0.00000000 0.14491468 0.02239710
0.00000000 0.15618276 0.03064098
0.00000000 0.16630452 0.03822794
0.00000000 0.17731058 0.04517641
0.00000000 0.18741799 0.04805620
0.00000000 0.19597592 0.04056976
0.00000000 0.20162507 0.01105663
0.05338969 0.20500191 0.00000000
0.15331040 0.20118434 0.00000000
0.25547060 0.19901853 0.00000000
0.40508453 0.17404292 0.00000000
0.55774642 0.14752367 0.00000000
0.65900367 0.12678495 0.00000000
0.74803703 0.10739258 0.00000000
0.80040090 0.09648832 0.00000000
0.84604836 0.08705958 0.00000000
0.87909088 0.08200967 0.00000000
0.90593913 0.07884958 0.00000000
0.92773830 0.08086047 0.00000000
0.94534895 0.08567519 0.00000000
0.96123002 0.09317130 0.00000000
0.97750456 0.10436294 0.01104109
0.99099356 0.11938078 0.03094448
1.00990505 0.13728941 0.05321977
1.02547639 0.15730320 0.07758707
1.04727209 0.18538974 0.10716996
1.06618255 0.21362809 0.14054246
1.08000280 0.25986826 0.18668771
1.09018265 0.30403191 0.23107747
0.00000000 0.16109168 0.01305197
0.00000000 0.16128172 0.01321400
0.00000000 0.16145379 0.01335043
0.00000000 0.17625008 0.02593938
0.00000000 0.18975775 0.03642512
0.00000000 0.20272975 0.04948216
0.00000000 0.21464098 0.05906559
0.00000000 0.22717813 0.06898367
0.00000000 0.24009491 0.07735304
0.00000000 0.25218149 0.07802945
0.00000000 0.26243269 0.06870205
0.01520927 0.26636600 0.03096157
0.11824592 0.26612034 0.00000000
0.21916751 0.26392340 0.00000000
0.32689368 0.26827883 0.00000000
0.47820250 0.24207905 0.00000000
0.65843887 0.20243371 0.00000000
0.75876378 0.18256231 0.00000000
0.82120526 0.16959803 0.00000000
0.87120939 0.15867122 0.00000000
0.91505674 0.15223937 0.00000000
0.94810266 0.14836278 0.00000000
0.97471437 0.14998498 0.00000000
0.99707965 0.15408300 0.00000000
1.01316618 0.16259431 0.00729528
1.02917230 0.17483233 0.02866251
1.04014541 0.19011409 0.05119301
1.04662732 0.20837883 0.07847567
1.06043002 0.22920904 0.10269009
1.06189242 0.26029669 0.13840634
1.08111039 0.28945763 0.17040440
1.08111039 0.33851940 0.21386005
1.09018265 0.38310714 0.26072868
0.00000000 0.20056585 0.02396203
0.00000000 0.20074500 0.02410196
0.00000000 0.20092320 0.02424076
0.00000000 0.21537015 0.03649405
0.00000000 0.23248392 0.05179958
0.00000000 0.24931126 0.06476387
0.00000000 0.26355383 0.07812462
0.00000000 0.27766956 0.09082360
0.00000000 0.29143418 0.10190001
0.00000000 0.30546804 0.10835068
0.00000000 0.31877517 0.10674444
0.00000000 0.32900603 0.09003575
0.08029201 0.32934992 0.03588184
0.18670393 0.33032992 0.00000000
0.29145564 0.33477112 0.00000000
0.39987623 0.33927003 0.00000000
0.57934670 0.29914563 0.00000000
0.75822792 0.26081338 0.00000000
0.83255462 0.24478693 0.00000000
0.89392585 0.23192750 0.00000000
0.94099864 0.22427115 0.00000000
0.98332500 0.21870126 0.00000000
1.01475851 0.21958303 0.00000000
1.04138767 0.22358759 0.00000000
1.06161267 0.23237013 0.01913460
1.07780585 0.24535880 0.04304693
1.08940392 0.26062589 0.06899883
1.09018265 0.27995959 0.09802295
1.09018265 0.30257124 0.12956587
1.09018265 0.33410358 0.16382800
1.09018265 0.36537479 0.19879892
1.09018265 0.41383778 0.24380632
1.09018265 0.46125705 0.28753894
0.00000000 0.24717738 0.04430681
0.00000000 0.24740343 0.04451013
0.00000000 0.24761224 0.04468725
0.00000000 0.26722256 0.06258637
0.00000000 0.28480216 0.07847338
0.00000000 0.30338880 0.09466318
0.00000000 0.32031039 0.10875631
0.00000000 0.33826058 0.12574626
0.00000000 0.35438875 0.14043673
0.00000000 0.37059479 0.15230599
0.00000000 0.38721426 0.15918373
0.00000000 0.40122626 0.14691232
0.02890928 0.41324566 0.10682641
0.13870682 0.41369362 0.05571484
0.26587687 0.41511081 0.01131964
0.37350661 0.41990474 0.00000000
0.50001082 0.42581030 0.00000000
0.67959553 0.38619471 0.00000000
0.83741260 0.34111626 0.00000000
0.91130532 0.32458895 0.00000000
0.96313147 0.31009254 0.00000000
1.00790868 0.30202138 0.00766029
1.03513520 0.30361872 0.01955981
1.05841069 0.30815337 0.03418831
1.07227854 0.31814053 0.05418450
1.08147633 0.33219664 0.07694610
1.09018265 0.34730463 0.10157764
1.09018265 0.36764911 0.13088161
1.09018265 0.38938800 0.15906273
1.09018265 0.41687853 0.18886661
1.09018265 0.44751629 0.22180068
1.09018265 0.48440438 0.25523210
1.09018265 0.53307912 0.29863123
0.00000000 0.29183617 0.06457292
0.00000000 0.29204350 0.06475462
0.00000000 0.29225092 0.06493657
0.00000000 0.31300975 0.08382949
0.00000000 0.33704540 0.10343516
0.00000000 0.35634439 0.12206060
0.00000000 0.37529417 0.13988266
0.00000000 0.39447763 0.15693670
0.00000000 0.41442538 0.17507870
0.00000000 0.43317303 0.19024819
0.00000000 0.45200575 0.20190308
0.00000000 0.46954992 0.19824566
0.01015195 0.48557026 0.16453111
0.08782919 0.49760291 0.12717787
0.21733426 0.49850216 0.08078409
0.34761881 0.50000320 0.03442907
0.47350373 0.50617861 0.00000000
0.60033610 0.51234438 0.00000000
0.75935935 0.46629810 0.00000000
0.91574957 0.42103435 0.00000000
0.98086934 0.40227709 0.01968974
1.03037068 0.38780017 0.04035954
1.05921692 0.38701136 0.05655467
1.07847361 0.39214702 0.07082790
1.09008508 0.40234643 0.08987291
1.09018265 0.41723816 0.11116468
1.09018265 0.43381826 0.13661613
1.09018265 0.45437814 0.16321323
1.09018265 0.47655028 0.19099736
1.09018265 0.50298079 0.21753393
1.09018265 0.53106142 0.24773884
1.09018265 0.56744924 0.27776996
1.09018265 0.60383636 0.30996610
0.00000000 0.34701375 0.09849744
0.00000000 0.34722172 0.09868273
0.00000000 0.34742374 0.09885854
0.00000000 0.37374838 0.12416801
0.00000000 0.39777179 0.14558141
0.00000000 0.42302449 0.16871159
0.00000000 0.44290886 0.18804537
0.00000000 0.46504638 0.20744124
0.00000000 0.48636397 0.22704805
0.00000000 0.50762759 0.24652918
0.00000000 0.52862780 0.26173715
0.00000000 0.54776966 0.26778893
0.01564280 0.56522958 0.25151422
0.08843690 0.57926945 0.20754073
0.21146844 0.58461170 0.14075427
0.34192280 0.58589280 0.09484317
0.44734998 0.59272922 0.06054031
0.57445001 0.59868226 0.00649542
0.69495586 0.60096963 0.00000000
0.85231146 0.55544305 0.00000000
0.97712634 0.50490522 0.02232983
1.03578770 0.48545020 0.04729428
1.06371047 0.47363350 0.07305774
1.08283633 0.47459039 0.09155610
1.09018265 0.48072307 0.11168988
1.09018265 0.49236939 0.13662392
1.09018265 0.50635565 0.15904980
1.09018265 0.52304708 0.18540729
1.09018265 0.54353591 0.20954470
1.09018265 0.56459091 0.23403502
1.09018265 0.59100924 0.26208032
1.09018265 0.62269369 0.28741211
1.09018265 0.65942109 0.31924419
0.00000000 0.40190872 0.13494490
0.00000000 0.40212631 0.13512997
0.00000000 0.40234348 0.13531446
0.00000000 0.42912725 0.15933109
0.00000000 0.45935790 0.18832074
0.00000000 0.48476647 0.21054791
0.00000000 0.51051558 0.23505705
0.00000000 0.53442001 0.25799862
0.00000000 0.55915408 0.28013149
0.00000000 0.58163347 0.30017453
0.00000000 0.60376387 0.31964722
0.00000000 0.62469645 0.32944783
0.02736415 0.64358711 0.32298601
0.09413926 0.65927095 0.29641368
0.21531714 0.66625724 0.22026812
0.33929434 0.67198189 0.15429499
0.44157493 0.67888222 0.12275371
0.54815524 0.68555768 0.08848464
0.66975722 0.68778589 0.01999877
0.79065028 0.68974898 0.00000000
0.91438090 0.64055931 0.00000000
1.03071670 0.58910240 0.04879966
1.06781360 0.57268772 0.07855263
1.08606904 0.56230979 0.10644053
1.09018265 0.56425201 0.13251264
1.09018265 0.57117709 0.15793960
1.09018265 0.58183313 0.18318284
1.09018265 0.59428416 0.20593225
1.09018265 0.60971347 0.23022134
1.09018265 0.62884267 0.25383747
1.09018265 0.65079014 0.27640125
1.09018265 0.68085240 0.30120739
1.09018265 0.71275487 0.32847759
0.00000000 0.46794809 0.18532219
0.00000000 0.46815442 0.18552981
0.00000000 0.46836781 0.18571795
0.00000000 0.50032837 0.21407551
0.00000000 0.53143638 0.24356661
0.00000000 0.56000335 0.27015172
0.00000000 0.58534217 0.29402763
0.00000000 0.60962109 0.31821642
0.00000000 0.63503279 0.34158831
0.00000000 0.65832031 0.36246264
0.00000000 0.68012139 0.38132335
0.00553984 0.70006764 0.39589411
0.05411721 0.71899377 0.39531554
0.10955601 0.73617617 0.37858531
0.20586103 0.74520372 0.31298026
0.33053839 0.75102420 0.23828907
0.45931928 0.74786660 0.18842837
0.56300862 0.75455578 0.15623561
0.63606769 0.76208173 0.09567468
0.75678277 0.76397984 0.02645826
0.85306741 0.75869270 0.00000000
0.96978247 0.70785433 0.01309278
1.05904156 0.66056577 0.06341291
1.08502633 0.64536853 0.09487514
1.09018265 0.63776573 0.12616227
1.09018265 0.64163473 0.15365472
1.09018265 0.64905558 0.17825227
1.09018265 0.65979233 0.20043151
1.09018265 0.67282740 0.22317875
1.09018265 0.68866204 0.24583386
1.09018265 0.70824363 0.26716526
1.09018265 0.73568230 0.28756108
1.09018265 0.76459862 0.31290780
0.00000000 0.53800814 0.23816623
0.00000000 0.53821563 0.23837417
0.00000000 0.53842489 0.23858259
0.00000000 0.57060112 0.26916218
0.00000000 0.60651596 0.30377897
0.00000000 0.63566204 0.33201980
0.00000000 0.66325907 0.35785177
0.00000000 0.68754176 0.38140642
0.00000000 0.71259339 0.40478744
0.00000000 0.73628951 0.42624774
0.00807478 0.75683660 0.44503044
0.03920286 0.77653194 0.45945996
0.08583124 0.79425618 0.46517761
0.13959611 0.81018744 0.45415732
0.21752680 0.82018239 0.39564589
0.31604601 0.82770285 0.33200032
0.45543602 0.82126156 0.27318882
0.58594029 0.81820545 0.22195059
0.65157690 0.82648949 0.16376628
0.72201715 0.83493241 0.10093022
0.81807406 0.82884277 0.03743557
0.90872127 0.82177216 0.00000000
0.99876581 0.77393461 0.02580991
1.07442217 0.72945686 0.07599064
1.09018265 0.71683809 0.10876223
