public/luts/DESERTS_SLOG3_8.RAS-FX6-0071.cube
TITLE "Generated by Resolve"
LUT_3D_SIZE 33
0.00675975 0.00669871 0.00680552
0.00675975 0.00669871 0.00680552
0.00717174 0.00666819 0.00653086
0.0125277 0.00675975 0.00541695
0.0194095 0.00703441 0.00512703
0.0299229 0.00726329 0.00488289
0.0491188 0.00773632 0.00474556
0.0775311 0.00781262 0.00419623
0.113588 0.00642405 0.00294499
0.156573 0.00390631 0.00129702
0.205707 0.00117494 4.57771e-05
0.255512 0 0
0.303365 0 0
0.357824 0 0
0.406302 0 0
0.443 0 0
0.477531 0 0
0.508659 0 0
0.534661 0 0
0.557107 0 0
0.579828 0 0
0.584543 0 0
0.584543 0 0
0.584543 0 0
0.584543 0 0
0.584543 0 0
0.584543 0 0
0.584543 0 0
0.584543 0 0
0.584543 0 0
0.584543 0 0
0.584543 0 0
0.584543 0 0
0.00675975 0.00669871 0.00680552
0.00675975 0.00669871 0.00680552
0.00675975 0.00669871 0.00680552
0.0104219 0.00657664 0.00553903
0.0171817 0.00694286 0.00518807
0.0267338 0.00717174 0.00492866
0.0444648 0.00766003 0.00480659
0.0721447 0.00793469 0.00433356
0.107988 0.00671397 0.00317388
0.151476 0.00424201 0.00144961
0.201633 0.00128176 4.57771e-05
0.252735 0 0
0.300542 0 0
0.355795 0 0
0.405035 0 0
0.441901 0 0
0.476616 0 0
0.507958 0 0
0.534127 0 0
0.55668 0 0
0.579278 0 0
0.584543 0 0
0.584543 0 0
0.584543 0 0
0.584543 0 0
0.584543 0 0
0.584543 0 0
0.584543 0 0
0.584543 0 0
0.584543 0 0
0.584543 0 0
0.584543 0 0
0.584543 0 0
0.00675975 0.00669871 0.00680552
0.00675975 0.00669871 0.00680552
0.00675975 0.00669871 0.00680552
0.00830091 0.00648508 0.00585946
0.0144961 0.00683604 0.0052491
0.0230564 0.00712596 0.00500496
0.0395361 0.00755322 0.00483711
0.0671244 0.00788891 0.00442512
0.10312 0.00688182 0.00332647
0.146349 0.00457771 0.00163272
0.197543 0.00138857 4.57771e-05
0.249592 0 0
0.297734 0 0
0.35378 0 0
0.403571 0 0
0.440803 0 0
0.4757 0 0
0.507271 0 0
0.533593 0 0
0.556161 0 0
0.578714 0 0
0.584543 0 0
0.584543 0 0
0.584543 0 0
0.584543 0 0
0.584543 0 0
0.584543 0 0
0.584543 0 0
0.584543 0 0
0.584543 0 0
0.584543 0 0
0.584543 0 0
0.584543 0 0
0.00639353 0.016144 0.0113375
0.00653086 0.0146334 0.0106203
0.00668345 0.0129549 0.00984207
0.00746166 0.0107881 0.00849927
0.0128634 0.00972 0.00671397
0.0190585 0.00877394 0.00581369
0.0322576 0.00779736 0.00495918
0.0617685 0.00784314 0.00451667
0.0979934 0.00704967 0.00350958
0.141756 0.00485237 0.00181582
0.19324 0.00161746 0.000167849
0.246372 7.62951e-05 0
0.294942 0 0
0.351522 0 0
0.401755 0 0
0.439689 0 0
0.474784 0 0
0.506447 0 0
0.532952 0 0
0.555642 0 0
0.578149 0 0
0.584543 0 0
0.584543 0 0
0.584543 0 0
0.584543 0 0
0.584543 0 0
0.584543 0 0
0.584543 0 0
0.584543 0 0
0.584543 0 0
0.584543 0 0
0.584543 0 0
0.584543 0 0
0.00306706 0.0348669 0.0196231
0.00364691 0.0321202 0.0184787
0.00424201 0.0292363 0.0172732
0.00482185 0.0264134 0.016083
0.0117037 0.0223545 0.012192
0.0226596 0.0191958 0.00968948
0.0330968 0.0182193 0.00836194
0.0525063 0.0147555 0.00616464
0.0865797 0.0110628 0.00425727
0.13344 0.0062562 0.00213626
0.189227 0.00184634 0.000289921
0.242893 0.000167849 0
0.292348 0 0
0.349126 0 0
0.400137 0 0
0.43859 0 0
0.473869 0 0
0.50576 0 0
0.532433 0 0
0.555123 0 0
0.5776 0 0
0.584543 0 0
0.584543 0 0
0.584543 0 0
0.584543 0 0
0.584543 0 0
0.584543 0 0
0.584543 0 0
0.584543 0 0
0.584543 0 0
0.584543 0 0
0.584543 0 0
0.584543 0 0
0.000381476 0.0580148 0.0297551
0.000595102 0.054963 0.028397
0.000793469 0.0519875 0.0270695
0.000991836 0.0488746 0.0256962
0.00433356 0.0415656 0.0209659
0.0183108 0.0366979 0.0157168
0.0407263 0.0327306 0.0120851
0.0658274 0.0308537 0.0096437
0.0898451 0.025864 0.00732433
0.121279 0.0173648 0.0041352
0.171481 0.00706493 0.00105287
0.236423 0.000381476 1.5259e-05
0.289769 0 0
0.346746 0 0
0.398306 0 0
0.437491 0 0
0.472953 0 0
0.504936 0 0
0.531792 0 0
0.554604 0 0
0.576959 0 0
0.584543 0 0
0.584543 0 0
0.584543 0 0
0.584543 0 0
0.584543 0 0
0.584543 0 0
0.584543 0 0
0.584543 0 0
0.584543 0 0
0.584543 0 0
0.584543 0 0
0.584543 0 0
0 0.0871138 0.0476692
0 0.0844892 0.0459907
0 0.0816663 0.0441596
0 0.0786297 0.0421912
0 0.0746624 0.0392309
0.0062562 0.0641031 0.0269627
0.0314488 0.0576486 0.0198215
0.0753033 0.0533761 0.0142367
0.113085 0.049836 0.0101167
0.139727 0.0422065 0.00683604
0.170825 0.0281987 0.00332647
0.220905 0.00779736 0.000106813
0.276448 0 0
0.343709 0 0
0.396078 0 0
0.436072 0 0
0.471733 0 0
0.503975 0 0
0.531151 0 0
0.55407 0 0
0.576318 0 0
0.584543 0 0
0.584543 0 0
0.584543 0 0
0.584543 0 0
0.584543 0 0
0.584543 0 0
0.584543 0 0
0.584543 0 0
0.584543 0 0
0.584543 0 0
0.584543 0 0
0.584543 0 0
0 0.125368 0.0782788
0 0.122423 0.0757763
0 0.119905 0.0737163
0 0.117281 0.0715648
0 0.114641 0.0694133
0 0.106645 0.0614633
0.00521859 0.0950027 0.0430304
0.0581826 0.0878614 0.0283513
0.122942 0.083238 0.0174868
0.17319 0.0768902 0.0110018
0.211704 0.0658122 0.0059205
0.244953 0.0467384 0.00175479
0.280842 0.0146792 0
0.323232 0 0
0.387991 0 0
0.43418 0 0
0.470207 0 0
0.502586 0 0
0.530205 0 0
0.553216 0 0
0.575357 0 0
0.584543 0 0
0.584543 0 0
0.584543 0 0
0.584543 0 0
0.584543 0 0
0.584543 0 0
0.584543 0 0
0.584543 0 0
0.584543 0 0
0.584543 0 0
0.584543 0 0
0.584543 0 0
0 0.173129 0.119295
0 0.170642 0.117144
0 0.167987 0.114839
0 0.165316 0.112551
0 0.162661 0.110262
0 0.160174 0.10811
0 0.14522 0.091371
0.00833143 0.130434 0.0636301
0.0974441 0.125658 0.041886
0.181201 0.120546 0.0234379
0.252415 0.11162 0.0104677
0.298833 0.0958114 0.00259403
0.32488 0.0727855 0.000213626
0.350683 0.0339513 0
0.379736 0 0
0.4168 0 0
0.467918 0 0
0.500938 0 0
0.528923 0 0
0.552087 0 0
0.574014 0 0
0.584543 0 0
0.584543 0 0
0.584543 0 0
0.584543 0 0
0.584543 0 0
0.584543 0 0
0.584543 0 0
0.584543 0 0
0.584543 0 0
0.584543 0 0
0.584543 0 0
0.584543 0 0
0 0.225177 0.162554
0 0.223011 0.160861
0 0.220859 0.159182
0 0.218692 0.157488
0 0.216541 0.15581
0 0.214206 0.153979
0 0.210605 0.151171
0 0.186358 0.121263
0.016434 0.174014 0.0861677
0.14548 0.170535 0.0565652
0.252232 0.16492 0.029099
0.337102 0.153185 0.0081178
0.383688 0.133318 0.00015259
0.414252 0.106538 0
0.432883 0.0683452 0
0.446082 0.00981155 0
0.452949 0 0
0.490929 0 0
0.527337 0 0
0.550774 0 0
0.572564 0 0
0.584543 0 0
0.584543 0 0
0.584543 0 0
0.584543 0 0
0.584543 0 0
0.584543 0 0
0.584543 0 0
0.584543 0 0
0.584543 0 0
0.584543 0 0
0.584543 0 0
0.584543 0 0
0 0.279377 0.2047
0 0.27779 0.203479
0 0.276036 0.202121
0 0.274449 0.200885
0 0.272694 0.199527
0 0.270939 0.198169
0 0.268818 0.196536
0 0.261097 0.190539
0 0.231098 0.150164
0.03505 0.225162 0.10956
0.204837 0.22446 0.0728618
0.330999 0.217136 0.033463
0.415839 0.199313 0.00442512
0.473579 0.177584 0
0.505776 0.149889 0
0.51516 0.114916 0
0.516442 0.0618448 0
0.514839 0.00233463 0
0.51516 0 0
0.542947 0 0
0.570657 0 0
0.584543 0 0
0.584543 0 0
0.584543 0 0
0.584543 0 0
0.584543 0 0
0.584543 0 0
0.584543 0 0
0.584543 0 0
0.584543 0 0
0.584543 0 0
0.584543 0 0
0.584543 0 0
0 0.329809 0.244556
0 0.328618 0.24361
0 0.327443 0.242679
0 0.326268 0.241733
0 0.324926 0.240665
0 0.323751 0.239734
0 0.32224 0.238529
0 0.320226 0.236927
0 0.308446 0.227329
0 0.280858 0.174609
0.0885023 0.285374 0.133623
0.280278 0.285832 0.0887007
0.411826 0.276692 0.0380713
0.503029 0.255283 0.00175479
0.557229 0.229297 0
0.583062 0.1991 0
0.594034 0.168017 0
0.59498 0.12604 0
0.591836 0.0632486 0
0.581598 0.00103761 0
0.57084 0 0
0.57348 0 0
0.580789 0 0
0.584543 0 0
0.584543 0 0
0.584543 0 0
0.584543 0 0
0.584543 0 0
0.584543 0 0
0.584543 0 0
0.584543 0 0
0.584543 0 0
0.584543 0 0
0 0.382986 0.285145
0 0.381903 0.284337
0 0.380819 0.283513
0 0.379736 0.282704
0 0.378668 0.28188
0 0.377584 0.281071
0 0.376135 0.279973
0 0.374334 0.278614
0 0.372 0.276844
0 0.350958 0.257588
0 0.338399 0.198795
0.165026 0.35285 0.155398
0.364904 0.35407 0.103304
0.494331 0.340307 0.0403754
0.585077 0.316243 0.00103761
0.631342 0.289158 0
0.659632 0.259174 0
0.671412 0.227436 0
0.671244 0.19173 0
0.666285 0.151324 0
0.658351 0.095964 0
0.648783 0.0253452 0
0.625605 0.00105287 0
0.603891 0 0
0.584543 0 0
0.573892 0 0
0.573617 0 0
0.575692 0 0
0.579797 0 0
0.581353 0 0
0.58262 0 0
0.583658 0 0
0.584543 0 0
0 0.423026 0.320211
0 0.422461 0.319692
0 0.421912 0.319188
0 0.421347 0.318669
0 0.420783 0.318166
0 0.420233 0.317647
0 0.419562 0.317037
0 0.418479 0.316075
0 0.417151 0.3149
0 0.415152 0.313161
0 0.389624 0.276783
0 0.405005 0.223743
0.25597 0.424353 0.173419
0.448051 0.426459 0.114153
0.5823 0.410986 0.0353857
0.655344 0.382361 0.000244144
0.701961 0.354086 0
0.726696 0.325048 0
0.735653 0.294499 0
0.736828 0.263233 0
0.735088 0.230625 0
0.733303 0.196307 0
0.719173 0.170367 0
0.703853 0.143343 0
0.689952 0.117433 0
0.67718 0.0887617 0
0.666056 0.0633097 0
0.656977 0.043595 0
0.649607 0.0273289 0
0.643336 0.0129244 0
0.638376 0.00265507 0
0.634958 0.00225834 0
0.631983 0.00190738 0
0 0.455436 0.348516
0 0.455009 0.348211
0 0.454597 0.34789
0 0.454185 0.347585
0 0.453773 0.347265
0 0.453346 0.34696
0 0.452827 0.346563
0 0.452201 0.34609
0 0.45127 0.345388
0 0.450126 0.344533
0 0.446738 0.341863
0 0.435325 0.296284
0 0.476585 0.244236
0.358053 0.499336 0.185794
0.533364 0.496345 0.11931
0.653849 0.481041 0.0311894
0.72163 0.454429 0
0.764157 0.426505 0
0.781003 0.395392 0
0.790372 0.365148 0
0.79469 0.336156 0
0.795438 0.308751 0
0.788174 0.28925 0
0.779263 0.273686 0
0.770581 0.258885 0
0.763027 0.24622 0
0.756695 0.235431 0
0.751263 0.226139 0
0.746853 0.218616 0
0.743313 0.212589 0
0.740658 0.208026 0
0.738506 0.204303 0
0.736751 0.201205 0
0 0.480552 0.369116
0 0.480369 0.368917
0 0.480171 0.368719
0 0.479912 0.36846
0 0.479728 0.368261
0 0.47953 0.368078
0 0.479271 0.367819
0 0.47895 0.367483
0 0.478447 0.366964
0 0.477867 0.366384
0 0.477089 0.365606
0 0.472801 0.361593
0 0.484031 0.31223
0.0948959 0.541222 0.25771
0.452277 0.566629 0.191608
0.619257 0.563378 0.117266
0.715648 0.546838 0.0268406
0.778897 0.52224 0
0.812268 0.496056 0
0.830335 0.469047 0
0.839963 0.440879 0
0.843442 0.413169 0
0.840757 0.391653 0
0.83447 0.378882 0
0.82887 0.367666 0
0.824063 0.357961 0
0.819989 0.349798 0
0.816571 0.342977 0
0.81384 0.337484 0
0.811749 0.333425 0
0.810071 0.330266 0
0.808728 0.327733 0
0.807736 0.325841 0
0 0.496269 0.385626
0 0.496117 0.385458
0 0.495964 0.385275
0 0.495857 0.385168
0 0.495705 0.384985
0 0.495552 0.384817
0 0.495399 0.384649
0 0.495186 0.384421
0 0.494835 0.384024
0 0.494469 0.383612
0 0.493965 0.383047
0 0.493294 0.3823
0 0.487312 0.373144
0 0.54374 0.324193
0.287678 0.601816 0.26363
0.542199 0.621347 0.191211
0.686381 0.619989 0.106844
0.773053 0.609354 0.0122072
0.826551 0.587228 0
0.851545 0.559838 0
0.86981 0.534707 0
0.879225 0.510445 0
0.882246 0.488151 0
0.878325 0.478233 0
0.874876 0.469749 0
0.87187 0.462409 0
0.86923 0.455894 0
0.866911 0.450523 0
0.865003 0.446128 0
0.863508 0.44271 0
0.862348 0.440024 0
0.861387 0.437827 0
0.860746 0.436377 0
0 0.506371 0.396567
0 0.506325 0.396521
0 0.506279 0.396475
0 0.506233 0.396414
0 0.506157 0.396353
0 0.506111 0.396307
0 0.506035 0.396231
0 0.505943 0.396139
0 0.505821 0.396017
0 0.505653 0.39585
0 0.50544 0.395636
0 0.50518 0.395361
0 0.504845 0.395026
0 0.510613 0.368704
0 0.603189 0.328054
0.429648 0.656291 0.260533
0.628336 0.668589 0.184833
0.741711 0.664439 0.0978103
0.81854 0.655085 0.0109712
0.859983 0.637812 0
0.886259 0.617456 0
0.903288 0.596872 0
0.910445 0.5729 0
0.909499 0.561669 0
0.907103 0.554986 0
0.904967 0.548989 0
0.903288 0.544106 0
0.901762 0.539696 0
0.900664 0.536721 0
0.899779 0.534157 0
0.899031 0.532097 0
0.898451 0.53048 0
0.898039 0.529335 0
0 0.51046 0.397986
0 0.510445 0.398047
0 0.51043 0.398093
0 0.510414 0.398138
0 0.510399 0.398169
0 0.510399 0.398215
0 0.510384 0.398276
0 0.510353 0.398352
0 0.510338 0.398428
0 0.510292 0.398581
0 0.510246 0.398733
0 0.510185 0.398932
0 0.510109 0.399191
0 0.509651 0.399847
0 0.562005 0.370428
0.177478 0.657755 0.322667
0.541756 0.698955 0.250492
0.698283 0.707256 0.1738
0.794369 0.702937 0.0851759
0.852705 0.692195 0.00260929
0.889479 0.679026 0
0.914427 0.664317 0
0.928679 0.648432 0
0.934279 0.637232 0
0.932586 0.631724 0
0.930892 0.626505 0
0.929458 0.621973 0
0.928359 0.618662 0
0.927535 0.616037 0
0.926741 0.613672 0
0.926223 0.612009 0
0.925765 0.610574 0
0.925429 0.609659 0
0 0.516381 0.391821
0 0.516213 0.391913
0 0.516152 0.391959
0 0.515984 0.39205
0 0.515877 0.392126
0 0.51577 0.392187
0 0.515602 0.392294
0 0.515435 0.392401
0 0.51516 0.392569
0 0.514824 0.392767
0 0.514382 0.393042
0 0.513832 0.393393
0 0.5131 0.393835
0 0.512276 0.394339
0 0.521416 0.387015
0 0.628305 0.366949
0.416297 0.704967 0.310338
0.641718 0.732464 0.235004
0.758221 0.73814 0.157321
0.839612 0.736904 0.0471351
0.882322 0.726772 0
0.915145 0.715496 0
0.935515 0.701976 0
0.947372 0.686885 0
0.94725 0.682231 0
0.946471 0.679026 0
0.945693 0.676341 0
0.945037 0.674128 0
0.944595 0.672419 0
0.944198 0.671061 0
0.943847 0.670069 0
0.943603 0.669032 0
0.943404 0.66836 0
0 0.531426 0.385183
0 0.531212 0.385214
0 0.530999 0.38526
0 0.530938 0.385275
0 0.530724 0.385306
0 0.530571 0.385336
0 0.530358 0.385367
0 0.530007 0.385428
0 0.529717 0.385473
0 0.52929 0.38555
0 0.528725 0.385641
0 0.527947 0.385779
0 0.527016 0.385931
0 0.525872 0.38613
0 0.523583 0.387381
0 0.591943 0.380957
0.186679 0.691035 0.355749
0.554421 0.740856 0.28957
0.714946 0.75668 0.217044
0.811017 0.761212 0.136141
0.869902 0.758022 0.0300145
0.906249 0.751507 0
0.934707 0.743969 0
0.951125 0.732647 0
0.957275 0.724163 0
0.956756 0.721904 0
0.956374 0.720012 0
0.955932 0.717922 0
0.95552 0.716518 0
0.955245 0.715221 0
0.955001 0.713909 0
0.954787 0.713298 0
0.954711 0.712795 0
0 0.551278 0.382727
0 0.55111 0.382727
0 0.550866 0.382742
0 0.550622 0.382757
0 0.550362 0.382773
0 0.55021 0.382773
0 0.549874 0.382788
0 0.549538 0.382803
0 0.54905 0.382834
0 0.548302 0.382864
0 0.547555 0.38291
0 0.546563 0.382956
0 0.545327 0.383017
0 0.543832 0.383093
0 0.54226 0.383352
0 0.560906 0.382269
0.0102083 0.665019 0.369039
0.450019 0.7355 0.329534
0.659693 0.766949 0.265629
0.772396 0.775662 0.198367
0.850156 0.777646 0.112779
0.891508 0.773693 0.0192416
0.924468 0.769207 0
0.947631 0.763302 0
0.962463 0.755154 0
0.96289 0.753262 0
0.962661 0.751873 0
0.962386 0.75021 0
0.962142 0.748943 0
0.961944 0.748058 0
0.961822 0.747295 0
0.961715 0.746639 0
0.961593 0.746288 0
0 0.565179 0.38204
0 0.565179 0.38204
0 0.565179 0.38204
0 0.565179 0.38204
0 0.565179 0.38204
0 0.565179 0.38204
0 0.565179 0.38204
0 0.565179 0.38204
0 0.565179 0.38204
0 0.565179 0.38204
0 0.565179 0.38204
0 0.565179 0.38204
0 0.565179 0.38204
0 0.565179 0.38204
0 0.564843 0.38204
0 0.559304 0.382315
0.000488289 0.648066 0.37322
0.380529 0.724819 0.343893
0.600397 0.766323 0.298985
0.729595 0.783917 0.242542
0.819867 0.790356 0.176333
0.874784 0.789837 0.0918898
0.910613 0.786877 0.014435
0.938796 0.782666 0.000167849
0.957137 0.777234 0
0.964691 0.772824 0
0.96463 0.77142 0
0.964523 0.770382 0
0.964431 0.769497 0
0.96437 0.768841 0
0.964355 0.768353 0
0.964279 0.767956 0
0.964279 0.76762 0
0 0.565179 0.38204
0 0.565179 0.38204
0 0.565179 0.38204
0 0.565179 0.38204
0 0.565179 0.38204
0 0.565179 0.38204
0 0.565179 0.38204
0 0.565179 0.38204
0 0.565179 0.38204
0 0.565179 0.38204
0 0.565179 0.38204
0 0.565179 0.38204
0 0.565179 0.38204
0 0.565179 0.38204
0 0.565179 0.38204
0 0.565179 0.38204
0 0.620478 0.3785
0.305974 0.712154 0.352026
0.55613 0.758633 0.310903
0.699382 0.784192 0.265614
0.789746 0.79678 0.217166
0.857374 0.801709 0.155138
0.895842 0.800061 0.075349
0.926314 0.797925 0.00825513
0.950057 0.79443 0
0.96527 0.789837 0
0.965591 0.788266 0
0.96553 0.787228 0
0.965454 0.786404 0
0.965499 0.785687 0
0.965454 0.785122 0
0.965408 0.784787 0
0.965408 0.784512 0
0 0.565179 0.38204
0 0.565179 0.38204
0 0.565179 0.38204
0 0.565179 0.38204
0 0.565179 0.38204
0 0.565179 0.38204
0 0.565179 0.38204
0 0.565179 0.38204
0 0.565179 0.38204
0 0.565179 0.38204
0 0.565179 0.38204
0 0.565179 0.38204
0 0.565179 0.38204
0 0.565179 0.38204
0 0.565179 0.38204
0 0.565179 0.38204
0 0.589685 0.381277
0.185443 0.695293 0.359442
0.512459 0.750164 0.320714
0.676356 0.780575 0.275761
0.770703 0.794293 0.228305
0.844419 0.801724 0.172641
0.886336 0.802411 0.107347
0.916564 0.80235 0.0282597
0.941649 0.80116 0.00267033
0.958602 0.798627 0
0.965393 0.797086 0
0.965393 0.797086 0
0.965393 0.797086 0
0.965393 0.797086 0
0.965393 0.797086 0
0.965393 0.797086 0
0.965393 0.797086 0
0 0.565179 0.38204
0 0.565179 0.38204
0 0.565179 0.38204
0 0.565179 0.38204
0 0.565179 0.38204
0 0.565179 0.38204
0 0.565179 0.38204
0 0.565179 0.38204
0 0.565179 0.38204
0 0.565179 0.38204
0 0.565179 0.38204
0 0.565179 0.38204
0 0.565179 0.38204
0 0.565179 0.38204
0 0.565179 0.38204
0 0.565179 0.38204
0 0.564294 0.382101
0.0699016 0.677775 0.365301
0.472236 0.742275 0.328908
0.65153 0.776226 0.28394
0.755123 0.792126 0.237186
0.830503 0.800626 0.184588
0.878172 0.802365 0.121294
0.909438 0.802319 0.0468605
0.934432 0.801541 0.00889601
0.952911 0.79968 0
0.965393 0.797086 0
0.965393 0.797086 0
0.965393 0.797086 0
0.965393 0.797086 0
0.965393 0.797086 0
0.965393 0.797086 0
0.965393 0.797086 0
0 0.565179 0.38204
0 0.565179 0.38204
0 0.565179 0.38204
0 0.565179 0.38204
0 0.565179 0.38204
0 0.565179 0.38204
0 0.565179 0.38204
0 0.565179 0.38204
0 0.565179 0.38204
0 0.565179 0.38204
0 0.565179 0.38204
0 0.565179 0.38204
0 0.565179 0.38204
0 0.565179 0.38204
0 0.565179 0.38204
0 0.565179 0.38204
0 0.562203 0.382177
0.0117647 0.662028 0.369726
0.435111 0.735103 0.335531
0.630365 0.772519 0.290944
0.741176 0.790234 0.245228
0.819821 0.79968 0.19353
0.871107 0.80238 0.13344
0.903273 0.802319 0.0631266
0.928786 0.801831 0.0140536
0.948608 0.800366 0
0.962615 0.797894 0
0.965393 0.797086 0
0.965393 0.797086 0
0.965393 0.797086 0
0.965393 0.797086 0
0.965393 0.797086 0
0.965393 0.797086 0
0 0.565179 0.38204
0 0.565179 0.38204
0 0.565179 0.38204
0 0.565179 0.38204
0 0.565179 0.38204
0 0.565179 0.38204
0 0.565179 0.38204
0 0.565179 0.38204
0 0.565179 0.38204
