public/luts/DESERTS_SLOG3_8.RAS-FX6-0071.cube
TITLE "Generated by Resolve"
LUT_3D_SIZE 9
0.00675975 0.00669871 0.00680552
0.0194095 0.00703441 0.00512703
0.113588 0.00642405 0.00294499
0.303365 0 0
0.477531 0 0
0.579828 0 0
0.584543 0 0
0.584543 0 0
0.584543 0 0
0.00306706 0.0348669 0.0196231
0.0117037 0.0223545 0.012192
0.0865797 0.0110628 0.00425727
0.292348 0 0
0.473869 0 0
0.5776 0 0
0.584543 0 0
0.584543 0 0
0.584543 0 0
0 0.173129 0.119295
0 0.162661 0.110262
0.0974441 0.125658 0.041886
0.32488 0.0727855 0.000213626
0.467918 0 0
0.574014 0 0
0.584543 0 0
0.584543 0 0
0.584543 0 0
0 0.382986 0.285145
0 0.378668 0.28188
0 0.372 0.276844
0.364904 0.35407 0.103304
0.659632 0.259174 0
0.658351 0.095964 0
0.584543 0 0
0.579797 0 0
0.584543 0 0
0 0.496269 0.385626
0 0.495705 0.384985
0 0.494835 0.384024
0 0.487312 0.373144
0.686381 0.619989 0.106844
0.86981 0.534707 0
0.874876 0.469749 0
0.865003 0.446128 0
0.860746 0.436377 0
0 0.531426 0.385183
0 0.530724 0.385306
0 0.529717 0.385473
0 0.527016 0.385931
0.186679 0.691035 0.355749
0.869902 0.758022 0.0300145
0.957275 0.724163 0
0.95552 0.716518 0
0.954711 0.712795 0
0 0.565179 0.38204
0 0.565179 0.38204
0 0.565179 0.38204
0 0.565179 0.38204
0 0.589685 0.381277
0.770703 0.794293 0.228305
0.941649 0.80116 0.00267033
0.965393 0.797086 0
0.965393 0.797086 0
0 0.565179 0.38204
0 0.565179 0.38204
0 0.565179 0.38204
0 0.565179 0.38204
0 0.565179 0.38204
0.720195 0.787259 0.25568
0.920836 0.802152 0.0215152
0.965393 0.797086 0
0.965393 0.797086 0
0 0.565179 0.38204
0 0.565179 0.38204
0 0.565179 0.38204
0 0.565179 0.38204
0 0.565179 0.38204
0.699565 0.784222 0.265522
0.912581 0.802289 0.0385138
0.965393 0.797086 0
0.965393 0.797086 0
0.00474556 0.00772107 0.026688
0.0243687 0.00695811 0.0132906
0.15668 0.0031281 0.00198367
0.333089 0 0
0.477073 0 0
0.579599 0 0
0.584543 0 0
0.584543 0 0
0.584543 0 0
0.00805676 0.0150607 0.0154269
0.00877394 0.0124971 0.0128939
0.107271 0.00671397 0.00320439
0.291066 0 0
0.473259 0 0
0.577203 0 0
0.584543 0 0
0.584543 0 0
0.584543 0 0
0 0.159258 0.107332
0 0.148836 0.0983902
0.0940414 0.112932 0.0353094
0.306111 0.0575418 3.0518e-05
0.46746 0 0
0.57377 0 0
0.584543 0 0
0.584543 0 0
0.584543 0 0
0 0.377218 0.280797
0 0.372717 0.277394
0 0.366064 0.272343
0.361639 0.345739 0.0992752
0.652506 0.249058 0
0.6486 0.0764477 0
0.576593 0 0
0.582467 0 0
0.584543 0 0
0 0.495506 0.384756
0 0.494942 0.384131
0 0.494118 0.383215
0 0.486931 0.373678
0.685023 0.617029 0.105348
0.867979 0.530282 0
0.872816 0.464698 0
0.862547 0.440513 0
0.858106 0.430274 0
0 0.53051 0.385336
0 0.52987 0.385443
0 0.528862 0.385611
0 0.526162 0.386084
0.176425 0.689097 0.355703
0.869307 0.756802 0.0297246
0.956954 0.722515 0
0.955032 0.714244 0
0.954177 0.710719 0
0 0.565179 0.38204
0 0.565179 0.38204
0 0.565179 0.38204
0 0.565179 0.38204
0 0.587274 0.381369
0.769802 0.794156 0.228794
0.940917 0.801221 0.00328069
0.965393 0.797086 0
0.965377 0.796948 0
0 0.565179 0.38204
0 0.565179 0.38204
0 0.565179 0.38204
0 0.565179 0.38204
0 0.565179 0.38204
0.719066 0.787091 0.256214
0.920211 0.802213 0.0222171
0.965393 0.797086 0
0.965393 0.797086 0
0 0.565179 0.38204
0 0.565179 0.38204
0 0.565179 0.38204
0 0.565179 0.38204
0 0.565179 0.38204
0.697856 0.783963 0.266331
0.911849 0.802319 0.0405127
0.965393 0.797086 0
0.965393 0.797086 0
0.000198367 0.0151369 0.152377
0.0166629 0.0145113 0.142336
0.167834 0.0121614 0.112413
0.441596 0 0.0244297
0.563241 0 0
0.609613 0 0
0.603952 0 0
0.59649 0 0
0.592859 0 0
0.00030518 0.0153506 0.143618
0.000762951 0.0141756 0.142672
0.13611 0.0129397 0.105837
0.429694 0 0.0157931
0.557107 0 0
0.605859 0 0
0.598764 0 0
0.589609 0 0
0.584695 0 0
0.0181125 0.0807355 0.0919051
0.0164797 0.0742504 0.0849622
0.0568399 0.0996414 0.110018
0.378256 0 0
0.546456 0 0
0.598245 0 0
0.588266 0 0
0.584543 0 0
0.584543 0 0
0 0.354543 0.265599
0 0.351339 0.26302
0 0.34638 0.259007
0.35935 0.339544 0.0961166
0.642252 0.225086 0
0.633494 0.0427558 0
0.573526 0 0
0.584543 0 0
0.584543 0 0
0 0.494377 0.383505
0 0.493797 0.382879
0 0.492927 0.381903
0 0.485924 0.373373
0.683024 0.612039 0.102571
0.86508 0.522957 0
0.869551 0.456626 0
0.858625 0.43151 0
0.854063 0.421042 0
0 0.529152 0.385565
0 0.528511 0.385672
0 0.527581 0.38584
0 0.524971 0.386526
0.160678 0.68603 0.355489
0.86836 0.754971 0.0293278
0.95642 0.719982 0
0.954299 0.711208 0
0.953445 0.707683 0
0 0.565179 0.38204
0 0.565179 0.38204
0 0.565179 0.38204
0 0.565179 0.38204
0 0.583917 0.381521
0.767529 0.793866 0.230137
0.940185 0.801236 0.00387579
0.965393 0.797086 0
0.96553 0.79559 0
0 0.565179 0.38204
0 0.565179 0.38204
0 0.565179 0.38204
0 0.565179 0.38204
0 0.565179 0.38204
0.717067 0.786801 0.257176
0.919478 0.802228 0.0228275
0.965393 0.797086 0
0.965393 0.797086 0
0 0.565179 0.38204
0 0.565179 0.38204
0 0.565179 0.38204
0 0.565179 0.38204
0 0.565179 0.38204
0.695659 0.783627 0.267369
0.911009 0.802304 0.0426947
0.965393 0.797086 0
0.965393 0.797086 0
0 0.028687 0.271885
0 0.0286412 0.279744
0.15317 0.0263218 0.28864
0.41471 0 0.257847
0.596918 0 0.173678
0.637736 0 0.0626535
0.636683 0 0.0357214
0.635767 0 0.0265354
0.635401 0 0.0231785
0 0.0284123 0.269398
0 0.028336 0.268803
0.123201 0.0273136 0.28658
0.399786 0 0.256596
0.594247 0 0.16994
0.636851 0 0.0585336
0.636011 0 0.0290227
0.63505 0 0.0201572
0.634653 0 0.0167849
0 0.0766003 0.26714
0 0.0698558 0.27364
0.0433509 0.0313726 0.304097
0.377218 0 0.254795
0.590234 0 0.163714
0.635462 0 0.0520027
0.634897 0 0.0188907
0.633875 0 0.0100862
0.633448 0 0.00640879
0.0816968 0.236576 0.259998
0.0806744 0.23209 0.255467
0.0794537 0.225162 0.248463
0.296834 0.321309 0.325093
0.64622 0.111147 0.0514687
0.622904 0 0
0.631373 0 0.00105287
0.629969 0 0
0.629358 0 0
0 0.471962 0.453773
0 0.470802 0.452201
0 0.469108 0.449714
0 0.49099 0.41059
0.684138 0.608728 0.0979782
0.856962 0.480201 0
0.84651 0.399466 0
0.834028 0.373281 0
0.828855 0.362753 0
0 0.533211 0.384878
0 0.532784 0.384955
0 0.531731 0.385138
0 0.529442 0.385519
0.0238499 0.66041 0.367605
0.867964 0.750774 0.025452
0.954376 0.711513 0
0.952163 0.702388 0
0.951354 0.698848 0
0 0.565179 0.38204
0 0.565179 0.38204
0 0.565179 0.38204
0 0.565179 0.38204
0 0.574456 0.381842
0.762112 0.793133 0.233265
0.93756 0.801373 0.00610361
0.965637 0.793423 0
0.965713 0.79202 0
0 0.565179 0.38204
0 0.565179 0.38204
0 0.565179 0.38204
0 0.565179 0.38204
0 0.565179 0.38204
0.710765 0.785885 0.260212
0.91693 0.802319 0.0272068
0.965393 0.797086 0
0.965393 0.797086 0
0 0.565179 0.38204
0 0.565179 0.38204
0 0.565179 0.38204
0 0.565179 0.38204
0 0.565179 0.38204
0.689158 0.782635 0.270405
0.908354 0.802335 0.0497902
0.965393 0.79704 0
0.965393 0.797086 0
0 0.0611429 0.349264
0 0.0608988 0.34902
0.120027 0.074052 0.372427
0.3794 0.0265354 0.35169
0.578851 0 0.308324
0.654337 0 0.258549
0.655039 0 0.245487
0.654108 0 0.242847
0.653803 0 0.241856
0 0.0602731 0.348363
0 0.0600443 0.348119
0.0835279 0.0727703 0.36997
0.366781 0.030457 0.352621
0.575036 0 0.307912
0.652842 0 0.258259
0.654307 0 0.243503
0.653544 0 0.24094
0.653239 0 0.239933
0 0.0589151 0.346975
0 0.0587015 0.346731
0.0103151 0.0685283 0.361852
0.3458 0.0368658 0.354086
0.569207 0 0.307301
0.650553 0 0.257588
0.653437 0 0.240558
0.652659 0 0.23801
0.652338 0 0.237003
0 0.213184 0.347692
0 0.20914 0.349203
0 0.202777 0.352956
0.26067 0.189654 0.465705
0.594232 0 0.332692
0.644602 0 0.255268
0.650919 0 0.232303
0.65005 0 0.229435
0.649714 0 0.228321
0.260975 0.465675 0.453651
0.258808 0.462913 0.451652
0.256107 0.459144 0.448829
0.283177 0.460792 0.448585
0.624857 0.610819 0.534234
0.83711 0.415793 0.27187
0.800626 0.232044 0.131823
0.780896 0.1794 0.124331
0.773266 0.158526 0.121843
0 0.628443 0.583368
0 0.626886 0.582254
0 0.626169 0.581353
0 0.621866 0.577768
0 0.612589 0.534264
0.854505 0.781689 0.351095
0.953109 0.699458 0.0272068
0.949935 0.687861 0.0171969
0.948531 0.682857 0.0149233
0 0.563592 0.562097
0 0.56379 0.561669
0 0.564889 0.560845
0 0.565362 0.559228
0 0.609903 0.509773
0.650004 0.778317 0.298222
0.938247 0.806348 0.0652628
0.9738 0.789059 0
0.973983 0.786419 0
0 0.57023 0.550134
0 0.570535 0.549584
0 0.570321 0.549157
0 0.570977 0.546929
0 0.5729 0.541848
0.56672 0.760769 0.308644
0.905852 0.80882 0.0886702
0.971771 0.798856 0
0.971756 0.79884 0
0 0.572015 0.544976
0 0.572045 0.544564
0 0.572 0.543877
0 0.573022 0.54139
0 0.574777 0.536065
0.528023 0.753216 0.317357
0.895247 0.808026 0.107408
0.967468 0.800305 0
0.971588 0.798428 0
0 0.109773 0.394888
0 0.109667 0.394797
0.00607309 0.126024 0.412955
0.328038 0.128527 0.421378
0.538705 0.0660105 0.386618
0.659998 0 0.351354
0.677592 0 0.34461
0.677745 0 0.343771
0.677852 0 0.343374
0 0.109361 0.394522
0 0.109255 0.394415
0 0.117433 0.403052
0.314824 0.128985 0.421866
0.535195 0.0673228 0.386969
0.657832 1.5259e-05 0.351507
0.677699 0 0.343984
0.677897 0 0.343114
0.677943 0 0.342809
0 0.108751 0.393973
0 0.10869 0.393927
0 0.108492 0.393729
0.292729 0.129732 0.422599
0.529534 0.0693523 0.387442
0.654337 6.10361e-05 0.351858
0.677913 0 0.342962
0.678065 0 0.342123
0.678157 0 0.341787
0 0.140795 0.418204
0 0.137285 0.415671
0 0.131563 0.411475
0.203571 0.141802 0.431189
0.512856 0.0746319 0.389303
0.645319 6.10361e-05 0.352544
0.678462 0 0.340291
0.678599 0 0.339406
0.67866 0 0.339086
0.019501 0.43621 0.481132
0.0091249 0.433005 0.479744
0.000839246 0.428351 0.477546
0.00509651 0.415335 0.472221
0.592935 0.476783 0.616693
0.763348 0.263188 0.483314
0.751781 0.0916609 0.38323
0.740749 0.0534524 0.373175
0.736248 0.0389715 0.369116
0.426856 0.653254 0.588907
0.424674 0.651972 0.588144
0.423407 0.650156 0.586923
0.41767 0.64387 0.582925
0.691371 0.743191 0.628519
0.815488 0.787762 0.6477
0.9299 0.694713 0.471931
0.927962 0.66186 0.448676
0.92636 0.652674 0.445792
0.369833 0.753582 0.663767
0.367956 0.753155 0.663523
0.366522 0.752956 0.663447
0.364385 0.753429 0.664012
0.440452 0.771054 0.672053
0.479118 0.806699 0.636088
0.908873 0.852079 0.543984
0.955703 0.830549 0.463371
0.955413 0.828428 0.461814
0.34052 0.751049 0.663508
0.33814 0.750744 0.663508
0.336202 0.750546 0.663401
0.332708 0.750393 0.663508
0.320851 0.74934 0.663355
0.332265 0.775647 0.608072
0.840299 0.858885 0.539559
0.950057 0.856931 0.444755
0.955764 0.854932 0.433768
0.325902 0.749447 0.663111
0.323095 0.748714 0.662699
0.322011 0.748898 0.662867
0.316991 0.748714 0.663066
0.305104 0.747662 0.663005
0.277073 0.768002 0.607294
0.818555 0.855482 0.541329
0.941131 0.857832 0.452949
0.956222 0.85417 0.426963
0 0.137072 0.417258
0 0.137072 0.417258
0 0.137072 0.417258
0.275257 0.170397 0.453285
0.506905 0.145647 0.433097
0.638148 0.0814221 0.396811
0.660365 0.0611582 0.387915
0.660685 0.0582742 0.386786
0.660899 0.0570382 0.386313
0 0.137072 0.417258
0 0.137072 0.417258
0 0.137072 0.417258
0.260334 0.170397 0.452979
0.502815 0.146914 0.434073
0.635233 0.083711 0.397803
0.660624 0.0589151 0.387045
0.661006 0.0561227 0.385946
0.661128 0.0549477 0.385489
0 0.137072 0.417258
0 0.137072 0.417258
0 0.137072 0.417258
0.235157 0.17026 0.452369
0.494743 0.14847 0.435279
0.631037 0.0866407 0.399069
0.661051 0.0557259 0.385794
0.661372 0.052842 0.38468
0.66157 0.0517433 0.384253
0 0.137072 0.417258
0 0.137072 0.417258
0 0.137072 0.417258
0.146609 0.166186 0.447745
0.471946 0.151461 0.437659
0.620935 0.0873732 0.399359
0.66212 0.046891 0.382361
0.662501 0.0442206 0.381323
0.662638 0.0430915 0.380926
0 0.388556 0.533379
0 0.385611 0.533181
0 0.380331 0.53225
0 0.367086 0.530999
0.398917 0.315175 0.540307
0.648768 0.202838 0.462928
0.701106 0.114107 0.406668
0.692393 0.0846113 0.395529
0.688731 0.0722362 0.391089
0.378882 0.640909 0.596429
0.374975 0.639094 0.595483
0.372732 0.637339 0.594629
0.361624 0.630182 0.591257
0.585443 0.732631 0.656733
0.806378 0.744808 0.723049
0.898085 0.601312 0.624857
0.894591 0.559258 0.603128
0.892226 0.550668 0.599817
0.555154 0.766415 0.665202
0.556085 0.76524 0.664225
0.553491 0.762844 0.662501
0.545876 0.755993 0.657755
0.531777 0.742351 0.648112
0.855055 0.847272 0.702159
0.889876 0.854948 0.704524
0.940414 0.831632 0.63444
0.940719 0.827802 0.632441
0.555459 0.773709 0.670207
0.553384 0.773236 0.669932
0.552666 0.773114 0.669856
0.552651 0.772839 0.669596
0.551568 0.773404 0.669871
0.817533 0.870268 0.730663
0.794263 0.875334 0.705364
0.925353 0.878279 0.65275
0.939956 0.874022 0.639231
0.552651 0.773205 0.66981
0.550591 0.772641 0.669581
0.550896 0.772671 0.66949
0.550866 0.7729 0.669581
0.546334 0.772259 0.669154
0.811246 0.868742 0.729595
0.772763 0.871824 0.705257
0.910628 0.88159 0.654795
0.938201 0.878935 0.633585
0 0.137072 0.417258
0 0.137072 0.417258
0 0.137072 0.417258
0.261082 0.170413 0.45301
0.503014 0.146777 0.433982
0.635416 0.0836042 0.397742
0.660258 0.0620737 0.388266
0.660258 0.0620737 0.388266
0.660258 0.0620737 0.388266
0 0.137072 0.417258
0 0.137072 0.417258
0 0.137072 0.417258
0.244984 0.170367 0.452644
0.497841 0.147875 0.434821
0.632578 0.0858473 0.398718
0.660258 0.0620737 0.388266
0.660258 0.0620737 0.388266
0.660258 0.0620737 0.388266
0 0.137072 0.417258
0 0.137072 0.417258
0 0.137072 0.417258
0.217227 0.169619 0.451591
0.489601 0.149462 0.436027
0.62829 0.0893721 0.400259
0.660258 0.0620737 0.388266
0.660258 0.0620737 0.388266
0.660258 0.0620737 0.388266
0 0.137072 0.417258
0 0.137072 0.417258
0 0.137072 0.417258
0.120455 0.164446 0.445975
0.464942 0.154101 0.439597
0.616403 0.0980392 0.40412
0.660258 0.0620737 0.388266
0.660258 0.0620737 0.388266
0.660258 0.0620737 0.388266
0 0.365454 0.543236
0 0.362432 0.543404
0 0.357641 0.54342
0 0.343725 0.542519
0.378698 0.283452 0.522866
0.618555 0.187976 0.455375
0.680491 0.100145 0.40296
0.673869 0.0819715 0.395911
0.672328 0.0801556 0.395224
0.295964 0.631022 0.603098
0.294087 0.630503 0.603037
0.283314 0.62707 0.60148
0.264103 0.620005 0.599237
0.432761 0.718914 0.689906
0.779477 0.694148 0.702785
0.868605 0.578714 0.626825
0.868116 0.541894 0.607584
0.865293 0.53341 0.604288
0.558907 0.75938 0.664622
0.558816 0.758572 0.664012
0.553384 0.755947 0.66247
0.542519 0.749294 0.658457
0.523552 0.736782 0.651164
0.825544 0.847761 0.724041
0.885145 0.848219 0.756893
0.937743 0.806714 0.717754
0.937331 0.802152 0.715343
0.585763 0.779522 0.677348
0.584115 0.779004 0.677119
0.582773 0.778637 0.676829
0.583078 0.778653 0.676646
0.581628 0.77821 0.676005
0.872038 0.869078 0.728389
0.90602 0.877485 0.732097
0.918242 0.879469 0.732113
0.933165 0.873274 0.71133
0.583017 0.778851 0.676555
0.584329 0.77908 0.676722
0.583978 0.778866 0.676417
0.583597 0.778653 0.676188
0.582864 0.778592 0.675807
0.867002 0.867597 0.72726
0.902098 0.881971 0.737652
0.897688 0.887953 0.731975
0.929976 0.885878 0.712428
0 0.137072 0.417258
0 0.137072 0.417258
0 0.137072 0.417258
0.255161 0.170397 0.452873
0.501183 0.14725 0.434333
0.634363 0.0845655 0.398169
0.660258 0.0620737 0.388266
0.660258 0.0620737 0.388266
0.660258 0.0620737 0.388266
0 0.137072 0.417258
0 0.137072 0.417258
0 0.137072 0.417258
0.238804 0.170291 0.452461
0.495949 0.148196 0.435065
0.63154 0.0866865 0.399084
0.660258 0.0620737 0.388266
0.660258 0.0620737 0.388266
0.660258 0.0620737 0.388266
0 0.137072 0.417258
0 0.137072 0.417258
0 0.137072 0.417258
0.209857 0.169329 0.451255
0.487541 0.149859 0.436332
0.627237 0.0902113 0.400626
0.660258 0.0620737 0.388266
0.660258 0.0620737 0.388266
0.660258 0.0620737 0.388266
0 0.137072 0.417258
0 0.137072 0.417258
0 0.137072 0.417258
0.108095 0.163668 0.445136
0.462425 0.154345 0.439811
0.615244 0.0988479 0.404486
0.660258 0.0620737 0.388266
0.660258 0.0620737 0.388266
0.660258 0.0620737 0.388266
0 0.356191 0.543587
0 0.352728 0.543206
0 0.347692 0.543053
0 0.331853 0.540108
0.374212 0.2748 0.5178
0.613367 0.178882 0.449958
0.676829 0.0894636 0.398825
0.671824 0.0793164 0.394888
0.669963 0.0768902 0.393927
0.2795 0.625452 0.600946
0.276951 0.624811 0.600885
0.269734 0.622232 0.600076
0.249821 0.615305 0.597803
0.40914 0.712337 0.689036
0.773831 0.684031 0.698848
0.864363 0.569024 0.623407
0.864393 0.531106 0.603464
0.861631 0.523033 0.600366
0.550011 0.754421 0.661601
0.549325 0.753414 0.660975
0.547219 0.751537 0.659724
0.538766 0.74641 0.65658
0.516976 0.732525 0.648829
0.815229 0.846494 0.728054
0.884932 0.842374 0.756222
0.934951 0.797391 0.715862
0.934096 0.792599 0.713359
0.583856 0.778744 0.677211
0.583856 0.778744 0.677211
0.583856 0.778744 0.677211
0.583856 0.778744 0.677211
0.583856 0.778744 0.677211
0.873823 0.869337 0.729747
0.9028 0.876722 0.735042
0.915419 0.877485 0.752728
0.93341 0.870954 0.743603
0.583856 0.778744 0.677211
0.583856 0.778744 0.677211
0.583856 0.778744 0.677211
0.583856 0.778744 0.677211
0.583856 0.778744 0.677211
0.869657 0.86804 0.728893
0.908797 0.881666 0.738109
0.922225 0.886091 0.74136
0.927214 0.888197 0.743221
