public/luts/DESERTS_SLOG3_8.RAS-FX6-0071.cube
TITLE "Generated by Resolve"
LUT_3D_SIZE 5
0.00675975 0.00669871 0.00680552
0.113588 0.00642405 0.00294499
0.477531 0 0
0.584543 0 0
0.584543 0 0
0 0.173129 0.119295
0.0974441 0.125658 0.041886
0.467918 0 0
0.584543 0 0
0.584543 0 0
0 0.496269 0.385626
0 0.494835 0.384024
0.686381 0.619989 0.106844
0.874876 0.469749 0
0.860746 0.436377 0
0 0.565179 0.38204
0 0.565179 0.38204
0 0.589685 0.381277
0.941649 0.80116 0.00267033
0.965393 0.797086 0
0 0.565179 0.38204
0 0.565179 0.38204
0 0.565179 0.38204
0.912581 0.802289 0.0385138
0.965393 0.797086 0
0.000198367 0.0151369 0.152377
0.167834 0.0121614 0.112413
0.563241 0 0
0.603952 0 0
0.592859 0 0
0.0181125 0.0807355 0.0919051
0.0568399 0.0996414 0.110018
0.546456 0 0
0.588266 0 0
0.584543 0 0
0 0.494377 0.383505
0 0.492927 0.381903
0.683024 0.612039 0.102571
0.869551 0.456626 0
0.854063 0.421042 0
0 0.565179 0.38204
0 0.565179 0.38204
0 0.583917 0.381521
0.940185 0.801236 0.00387579
0.96553 0.79559 0
0 0.565179 0.38204
0 0.565179 0.38204
0 0.565179 0.38204
0.911009 0.802304 0.0426947
0.965393 0.797086 0
0 0.0611429 0.349264
0.120027 0.074052 0.372427
0.578851 0 0.308324
0.655039 0 0.245487
0.653803 0 0.241856
0 0.0589151 0.346975
0.0103151 0.0685283 0.361852
0.569207 0 0.307301
0.653437 0 0.240558
0.652338 0 0.237003
0.260975 0.465675 0.453651
0.256107 0.459144 0.448829
0.624857 0.610819 0.534234
0.800626 0.232044 0.131823
0.773266 0.158526 0.121843
0 0.563592 0.562097
0 0.564889 0.560845
0 0.609903 0.509773
0.938247 0.806348 0.0652628
0.973983 0.786419 0
0 0.572015 0.544976
0 0.572 0.543877
0 0.574777 0.536065
0.895247 0.808026 0.107408
0.971588 0.798428 0
0 0.137072 0.417258
0 0.137072 0.417258
0.506905 0.145647 0.433097
0.660365 0.0611582 0.387915
0.660899 0.0570382 0.386313
0 0.137072 0.417258
0 0.137072 0.417258
0.494743 0.14847 0.435279
0.661051 0.0557259 0.385794
0.66157 0.0517433 0.384253
0 0.388556 0.533379
0 0.380331 0.53225
0.398917 0.315175 0.540307
0.701106 0.114107 0.406668
0.688731 0.0722362 0.391089
0.555154 0.766415 0.665202
0.553491 0.762844 0.662501
0.531777 0.742351 0.648112
0.889876 0.854948 0.704524
0.940719 0.827802 0.632441
0.552651 0.773205 0.66981
0.550896 0.772671 0.66949
0.546334 0.772259 0.669154
0.772763 0.871824 0.705257
0.938201 0.878935 0.633585
0 0.137072 0.417258
0 0.137072 0.417258
0.501183 0.14725 0.434333
0.660258 0.0620737 0.388266
0.660258 0.0620737 0.388266
0 0.137072 0.417258
0 0.137072 0.417258
0.487541 0.149859 0.436332
0.660258 0.0620737 0.388266
0.660258 0.0620737 0.388266
0 0.356191 0.543587
0 0.347692 0.543053
0.374212 0.2748 0.5178
0.676829 0.0894636 0.398825
0.669963 0.0768902 0.393927
0.550011 0.754421 0.661601
0.547219 0.751537 0.659724
0.516976 0.732525 0.648829
0.884932 0.842374 0.756222
0.934096 0.792599 0.713359
0.583856 0.778744 0.677211
0.583856 0.778744 0.677211
0.583856 0.778744 0.677211
0.908797 0.881666 0.738109
0.927214 0.888197 0.743221
