public/luts/Don_Autumn.cube
TITLE "Generated by Resolve"
LUT_3D_SIZE 17
0.0170748 0.0214542 0.0239109
0.0171969 0.0215457 0.0239567
0.0207523 0.0221561 0.0248875
0.0287785 0.0231174 0.0262913
0.0580911 0.0293278 0.0320745
0.133684 0.0436255 0.0423285
0.272648 0.0625925 0.0493172
0.451774 0.0871443 0.045243
0.639414 0.11632 0.0503243
0.832059 0.155779 0.0623331
0.938262 0.169039 0.0753185
0.949081 0.16939 0.0860914
0.948928 0.169406 0.0881208
0.948898 0.169406 0.0884718
0.948898 0.169406 0.0885939
0.948898 0.169406 0.0885939
0.948898 0.169406 0.0885939
0.0183566 0.0221866 0.0245975
0.0179446 0.0219425 0.0243687
0.0203708 0.0224765 0.024979
0.0276188 0.0229038 0.0260014
0.0581674 0.0293431 0.032105
0.138567 0.0444038 0.0431525
0.284489 0.0639963 0.0494698
0.468345 0.0897078 0.0449531
0.661692 0.120638 0.053315
0.852705 0.160647 0.063798
0.944137 0.169192 0.0773022
0.949035 0.16939 0.0866865
0.948913 0.169406 0.0882429
0.948898 0.169406 0.0884718
0.948898 0.169406 0.0885939
0.948898 0.169406 0.0885939
0.948898 0.169406 0.0885939
0.0226444 0.0245823 0.0270542
0.0226444 0.0245823 0.0270542
0.0229801 0.0253452 0.0280919
0.0261082 0.0252079 0.0269932
0.049897 0.0289311 0.0311284
0.129519 0.043183 0.0420996
0.278325 0.0632639 0.0483558
0.468055 0.089662 0.0449683
0.665171 0.121324 0.0534371
0.857618 0.161746 0.0641184
0.945678 0.169238 0.0778515
0.94902 0.16939 0.0869306
0.948913 0.169406 0.0882429
0.948898 0.169406 0.0884718
0.948898 0.169406 0.0885939
0.948898 0.169406 0.0885939
0.948898 0.169406 0.0885939
0.0299229 0.0282597 0.030869
0.0301366 0.0283513 0.0309911
0.0303807 0.0286107 0.0316167
0.030396 0.0297856 0.0322881
0.0412757 0.031281 0.0309758
0.112703 0.0441596 0.0407721
0.260182 0.0610666 0.048127
0.454765 0.0877852 0.0451209
0.654994 0.119326 0.0529946
0.851743 0.160418 0.0637522
0.944869 0.169223 0.0775769
0.949035 0.16939 0.0868086
0.948913 0.169406 0.0882429
0.948898 0.169406 0.0884718
0.948898 0.169406 0.0885939
0.948898 0.169406 0.0885939
0.948898 0.169406 0.0885939
0.0475319 0.0371099 0.0383307
0.0495003 0.037995 0.0391394
0.050248 0.0383001 0.0394446
0.0503243 0.038407 0.0409705
0.0509651 0.0412604 0.041413
0.0960403 0.0519112 0.0413062
0.241032 0.0650797 0.0467842
0.435462 0.0876173 0.0444038
0.637186 0.115908 0.0502022
0.840116 0.157687 0.0629587
0.942489 0.169162 0.0767834
0.949035 0.16939 0.0866865
0.948913 0.169406 0.0882429
0.948898 0.169406 0.0884718
0.948898 0.169406 0.0885939
0.948898 0.169406 0.0885939
0.948898 0.169406 0.0885939
0.121202 0.0663462 0.0586404
0.128069 0.0682689 0.059617
0.132097 0.069398 0.0601511
0.130587 0.068864 0.0600748
0.130007 0.0680247 0.0619364
0.130251 0.0769818 0.0602579
0.224811 0.0898756 0.0456092
0.414878 0.110643 0.0399329
0.614252 0.116686 0.0469673
0.82385 0.153857 0.0616922
0.93901 0.169055 0.0756085
0.949065 0.16939 0.0863203
0.948913 0.169406 0.0882429
0.948898 0.169406 0.0884718
0.948898 0.169406 0.0885939
0.948898 0.169406 0.0885939
0.948898 0.169406 0.0885939
0.266209 0.110933 0.0797436
0.279759 0.114733 0.0813916
0.287892 0.117296 0.0826123
0.287526 0.117113 0.0825208
0.283268 0.115816 0.0820783
0.279042 0.115465 0.0893111
0.281743 0.137881 0.0873884
0.380545 0.172763 0.0546883
0.595331 0.173312 0.0455024
0.804456 0.163851 0.050782
0.932433 0.168948 0.0734264
0.949096 0.16939 0.0858473
0.948928 0.169406 0.0881208
0.948898 0.169406 0.0884718
0.948898 0.169406 0.0885939
0.948898 0.169406 0.0885939
0.948898 0.169406 0.0885939
0.472084 0.188235 0.12723
0.486 0.193896 0.131289
0.494179 0.198154 0.134386
0.495491 0.198871 0.13492
0.493446 0.197681 0.134051
0.488518 0.195193 0.132219
0.494362 0.195178 0.148287
0.493416 0.240482 0.147066
0.581674 0.274235 0.0789349
0.786465 0.27837 0.0678721
0.937469 0.252766 0.0547341
0.953323 0.19617 0.0640726
0.948959 0.16939 0.0877546
0.948898 0.169406 0.0884718
0.948898 0.169406 0.0885939
0.948898 0.169406 0.0885939
0.948898 0.169406 0.0885939
0.693065 0.273671 0.185061
0.707652 0.280995 0.190707
0.716823 0.286687 0.195148
0.720317 0.28809 0.196155
0.718959 0.287526 0.195727
0.715251 0.285664 0.194339
0.709895 0.282307 0.191669
0.738506 0.289082 0.261173
0.721401 0.363394 0.173968
0.798108 0.39881 0.118517
0.938445 0.398566 0.101991
0.960662 0.36556 0.0956741
0.959716 0.313664 0.0784619
0.951156 0.180041 0.0728161
0.948898 0.169406 0.0885939
0.948898 0.169406 0.0885939
0.948898 0.169406 0.0885939
0.920302 0.351858 0.242329
0.928862 0.354849 0.246983
0.937133 0.351919 0.250401
0.940185 0.350607 0.251652
0.940383 0.350576 0.251682
0.938476 0.351339 0.25095
0.935012 0.352911 0.249653
0.930114 0.354879 0.247562
0.940887 0.388724 0.409552
0.940536 0.483818 0.212009
0.959136 0.512001 0.168002
0.960143 0.505455 0.152361
0.960418 0.483436 0.140963
0.9608 0.433371 0.121462
0.956725 0.24007 0.0616159
0.948898 0.169406 0.0885939
0.948898 0.169406 0.0885939
0.95407 0.384375 0.311681
0.954025 0.388479 0.317479
0.953979 0.391516 0.321859
0.953964 0.392752 0.323613
0.953964 0.393118 0.324117
0.953964 0.392752 0.323613
0.953979 0.391897 0.322362
0.953994 0.39057 0.320485
0.954009 0.388754 0.317983
0.948928 0.475151 0.487907
0.958907 0.582422 0.269841
0.958251 0.615991 0.232288
0.958236 0.614374 0.223789
0.958633 0.595392 0.208515
0.959518 0.547295 0.173861
0.960769 0.436423 0.122606
0.960891 0.412528 0.113725
0.951995 0.438178 0.408743
0.951598 0.442588 0.418723
0.951354 0.445655 0.425803
0.951247 0.446983 0.428824
0.951202 0.447395 0.429953
0.951217 0.447303 0.429587
0.951247 0.446784 0.428443
0.951339 0.445869 0.426169
0.951446 0.444633 0.42327
0.951507 0.443015 0.420615
0.954238 0.571725 0.515175
0.956847 0.679026 0.327077
0.956039 0.700389 0.299123
0.956161 0.695186 0.289677
0.956527 0.682017 0.27541
0.957214 0.656367 0.253239
0.957412 0.649561 0.247822
0.948211 0.479347 0.500542
0.948028 0.481437 0.50486
0.94789 0.483024 0.508171
0.947814 0.483879 0.509819
0.947784 0.484199 0.510582
0.947784 0.484306 0.510719
0.947799 0.484092 0.510338
0.947829 0.483665 0.50956
0.947875 0.483024 0.508293
0.947951 0.482383 0.506767
0.948028 0.481437 0.504982
0.95668 0.653284 0.500618
0.954818 0.743679 0.367483
0.95462 0.747921 0.358709
0.954696 0.745434 0.353643
0.954894 0.739422 0.344442
0.954986 0.736522 0.340352
0.946731 0.496208 0.535439
0.94667 0.496864 0.536843
0.946639 0.497185 0.537606
0.946624 0.497398 0.537987
0.946609 0.497505 0.538247
0.946609 0.497505 0.538247
0.946609 0.497505 0.538247
0.946609 0.497398 0.538109
0.946624 0.497292 0.53785
0.946639 0.497185 0.537606
0.946639 0.497078 0.537346
0.94667 0.496864 0.536843
0.955993 0.723751 0.436713
0.954086 0.765194 0.38854
0.954055 0.76582 0.386618
0.95407 0.765087 0.384848
0.954086 0.764599 0.383963
0.946273 0.500298 0.544488
0.946258 0.500511 0.544869
0.946227 0.500618 0.545251
0.946227 0.500725 0.545388
0.946227 0.500725 0.54551
0.946227 0.500725 0.54551
0.946227 0.500725 0.54551
0.946227 0.500725 0.54551
0.946227 0.500725 0.545388
0.946227 0.500618 0.545388
0.946227 0.500618 0.545251
0.946242 0.500511 0.545129
0.946258 0.500511 0.544869
0.954726 0.75378 0.409003
0.953933 0.769604 0.393179
0.953918 0.769848 0.392752
0.953933 0.769726 0.392554
0.946075 0.5019 0.54818
0.946075 0.502007 0.548318
0.946075 0.502007 0.548318
0.946059 0.502007 0.54844
0.946059 0.502007 0.54844
0.946059 0.502007 0.54844
0.946059 0.502007 0.54844
0.946059 0.502007 0.54844
0.946059 0.502007 0.54844
0.946059 0.502007 0.54844
0.946075 0.502007 0.548318
0.946075 0.502007 0.548318
0.946075 0.502007 0.548318
0.946075 0.502007 0.548318
0.953979 0.769436 0.397131
0.953872 0.771435 0.395117
0.953872 0.771435 0.395117
0.946059 0.502113 0.548577
0.946059 0.502113 0.548577
0.946059 0.502113 0.548577
0.946059 0.502113 0.548577
0.946059 0.502113 0.548577
0.946059 0.502113 0.548577
0.946059 0.502113 0.548577
0.946059 0.502113 0.548577
0.946059 0.502113 0.548577
0.946059 0.502113 0.548577
0.946059 0.502113 0.548577
0.946059 0.502113 0.548577
0.946059 0.502113 0.548577
0.946059 0.502113 0.548577
0.95436 0.649927 0.586053
0.953872 0.771435 0.395361
0.953872 0.771557 0.395315
0.016907 0.0215 0.024155
0.0172122 0.0215763 0.0242466
0.0207675 0.0221714 0.0250401
0.0285344 0.0230564 0.0262303
0.0576181 0.029221 0.0319982
0.133547 0.043595 0.0423133
0.272969 0.0626383 0.0493172
0.452781 0.0872969 0.045243
0.641001 0.116625 0.0504005
0.833829 0.156207 0.0625315
0.938842 0.169055 0.0755169
0.949081 0.16939 0.0861982
0.948928 0.169406 0.0881208
0.948898 0.169406 0.0884718
0.948898 0.169406 0.0885939
0.948898 0.169406 0.0885939
0.948898 0.169406 0.0885939
0.017731 0.0222324 0.0242618
0.017792 0.0219883 0.0242618
0.0203708 0.0224765 0.024979
0.0276951 0.0229191 0.0260166
0.0585489 0.0294347 0.032166
0.139681 0.0445869 0.0432593
0.286564 0.0642405 0.0494392
0.470787 0.0900587 0.0449226
0.66424 0.121141 0.0534066
0.855314 0.161257 0.0639353
0.944778 0.169223 0.0775921
0.949035 0.16939 0.0868086
0.948913 0.169406 0.0882429
0.948898 0.169406 0.0884718
0.948898 0.169406 0.0885939
0.948898 0.169406 0.0885939
0.948898 0.169406 0.0885939
0.0226749 0.0245823 0.0270848
0.0227359 0.0246281 0.0271153
0.0231022 0.025452 0.0281529
0.026276 0.0252995 0.027039
0.0505074 0.0290684 0.0312352
0.131044 0.043473 0.042237
0.281193 0.0635996 0.0483711
0.471366 0.0901808 0.0448768
0.668666 0.121996 0.0535439
0.860548 0.162371 0.0643626
0.94638 0.169253 0.0780041
0.949004 0.16939 0.0870375
0.948913 0.169406 0.0882429
0.948898 0.169406 0.0884718
0.948898 0.169406 0.0885939
0.948898 0.169406 0.0885939
0.948898 0.169406 0.0885939
0.0300603 0.028336 0.0309453
0.0303197 0.0284428 0.0310674
0.0305486 0.028687 0.0317235
0.0305638 0.0298772 0.0324407
0.0420081 0.0316167 0.0311742
0.114443 0.0446174 0.041001
0.263554 0.0614786 0.0482032
0.458503 0.0883955 0.0450599
0.659144 0.120134 0.0532235
0.855451 0.161288 0.0639353
0.945632 0.169238 0.0778515
0.94902 0.16939 0.0869306
0.948913 0.169406 0.0882429
0.948898 0.169406 0.0884718
0.948898 0.169406 0.0885939
0.948898 0.169406 0.0885939
0.948898 0.169406 0.0885939
0.0484932 0.0375525 0.0387427
0.0505837 0.038468 0.0395666
0.0516976 0.0389105 0.0399023
0.0517281 0.0390021 0.0414893
0.0521859 0.041825 0.0420386
0.098024 0.0525063 0.0415961
0.245151 0.0656748 0.0467689
0.439841 0.088365 0.0442359
0.641917 0.116793 0.0504311
0.844373 0.158679 0.0632181
0.943572 0.169177 0.0771344
0.949035 0.16939 0.0866865
0.948913 0.169406 0.0882429
0.948898 0.169406 0.0884718
0.948898 0.169406 0.0885939
0.948898 0.169406 0.0885939
0.948898 0.169406 0.0885939
0.124422 0.0672465 0.0591135
0.131365 0.0691691 0.0600443
0.135378 0.0702983 0.0605783
0.134463 0.0699626 0.0606088
0.133806 0.0691386 0.0625925
0.133944 0.0783856 0.0612955
0.229343 0.0917678 0.0454566
0.419898 0.112428 0.0398413
0.619776 0.117449 0.0472725
0.828504 0.15494 0.0620279
0.940139 0.169085 0.0759747
0.94905 0.16939 0.0864424
0.948913 0.169406 0.0882429
0.948898 0.169406 0.0884718
0.948898 0.169406 0.0885939
0.948898 0.169406 0.0885939
0.948898 0.169406 0.0885939
0.272511 0.112657 0.0804608
0.285664 0.116564 0.0822309
0.293523 0.119158 0.0835889
0.293523 0.119158 0.0835889
0.289693 0.117861 0.0831006
0.285832 0.117571 0.0908217
0.287999 0.140856 0.0892958
0.386069 0.17586 0.0554513
0.601236 0.175494 0.0458076
0.809735 0.166018 0.050721
0.934401 0.168978 0.0737774
0.949096 0.16939 0.0859693
0.948928 0.169406 0.0881208
0.948898 0.169406 0.0884718
0.948898 0.169406 0.0885939
0.948898 0.169406 0.0885939
0.948898 0.169406 0.0885939
0.478172 0.19057 0.128847
0.491218 0.196567 0.133257
0.499397 0.201083 0.136584
0.500664 0.201968 0.13724
0.498634 0.200687 0.136309
0.494301 0.198184 0.134463
0.501656 0.198276 0.150484
0.500664 0.244205 0.148653
0.588663 0.278202 0.0801404
0.792111 0.282429 0.0689097
0.940047 0.257176 0.0559396
0.953628 0.199237 0.0635386
0.948959 0.16939 0.0877546
0.948898 0.169406 0.0884718
0.948898 0.169406 0.0885939
0.948898 0.169406 0.0885939
0.948898 0.169406 0.0885939
0.699458 0.276783 0.187411
0.713497 0.284459 0.193362
0.724056 0.289464 0.197101
0.727459 0.290791 0.198077
0.726528 0.290379 0.197742
0.72224 0.288838 0.196674
0.716045 0.286259 0.194827
0.746715 0.292821 0.266041
0.729702 0.367834 0.175311
0.805783 0.403311 0.120134
0.941421 0.402136 0.103319
0.960693 0.369589 0.0971084
0.959777 0.317784 0.0799725
0.950896 0.178149 0.0737621
0.948898 0.169406 0.0885939
0.948898 0.169406 0.0885939
0.948898 0.169406 0.0885939
0.923781 0.353414 0.244419
0.93344 0.353597 0.249058
0.941985 0.349935 0.252399
0.945266 0.348653 0.253956
0.945449 0.348531 0.254063
0.943587 0.34931 0.253162
0.940475 0.350484 0.251774
0.935485 0.352728 0.24979
0.94464 0.390036 0.419852
0.944823 0.487327 0.213779
0.959792 0.515724 0.170123
0.960082 0.509575 0.154467
0.960372 0.487739 0.142947
0.960769 0.437552 0.122957
0.956924 0.243641 0.061677
0.948898 0.169406 0.0885939
0.948898 0.169406 0.0885939
0.954055 0.386099 0.314076
0.953994 0.390188 0.31986
0.953964 0.393225 0.324239
0.953948 0.394553 0.326223
0.953948 0.394919 0.326589
0.953948 0.394644 0.326223
0.953964 0.39379 0.324987
0.953979 0.392462 0.32311
0.953994 0.390753 0.320745
0.948989 0.478218 0.490349
0.958831 0.585916 0.272175
0.958175 0.61944 0.234638
0.958175 0.6177 0.225849
0.958541 0.599863 0.212039
0.959426 0.552148 0.176699
0.960678 0.450263 0.127703
0.96083 0.426703 0.119036
0.951843 0.440024 0.412787
0.951461 0.444434 0.422766
0.951232 0.447196 0.429328
0.951125 0.448524 0.432471
0.95108 0.449027 0.433616
0.951095 0.448936 0.433356
0.951125 0.448417 0.432227
0.951202 0.447501 0.430091
0.951293 0.446281 0.427314
0.951431 0.444739 0.423529
0.954803 0.577646 0.510719
0.956741 0.68249 0.328939
0.955978 0.702907 0.301869
0.956085 0.697826 0.292638
0.956451 0.684886 0.27834
0.957092 0.660792 0.25684
0.95729 0.654017 0.251286
0.948135 0.480186 0.502312
0.947967 0.482277 0.506508
0.947814 0.483879 0.509941
0.947738 0.484733 0.511604
0.947707 0.485054 0.512367
0.947707 0.485161 0.512505
0.947707 0.484947 0.512108
0.947738 0.48452 0.511345
0.947799 0.483986 0.510201
0.94786 0.483238 0.508675
0.947936 0.482383 0.506889
0.956695 0.655818 0.499275
0.954787 0.7449 0.368765
0.954574 0.748882 0.360204
0.954665 0.746502 0.355154
0.954833 0.741222 0.347143
0.954925 0.738567 0.343221
0.9467 0.496529 0.53608
0.946654 0.497078 0.537224
0.946624 0.497398 0.537987
0.946609 0.497612 0.538369
0.946578 0.497612 0.538628
0.946578 0.497719 0.53875
0.946593 0.497719 0.538628
0.946593 0.497612 0.538491
0.946593 0.497505 0.538369
0.946624 0.497398 0.537987
0.946639 0.497292 0.537728
0.946639 0.497078 0.537346
0.955871 0.72697 0.432944
0.95407 0.76556 0.388891
0.95404 0.766064 0.387106
0.95407 0.765454 0.385534
0.954086 0.764965 0.384649
0.946258 0.500404 0.544747
0.946242 0.500511 0.545129
0.946227 0.500725 0.545388
0.946227 0.500725 0.54551
0.946212 0.500832 0.545647
0.946212 0.500832 0.545647
0.946212 0.500832 0.545647
0.946212 0.500832 0.545647
0.946227 0.500725 0.54551
0.946227 0.500725 0.54551
0.946227 0.500725 0.545388
0.946227 0.500618 0.545251
0.946242 0.500511 0.545129
0.954665 0.75491 0.407889
0.953933 0.769726 0.393317
0.953918 0.76997 0.392874
0.953918 0.769848 0.392676
0.94609 0.502007 0.548196
0.946075 0.502007 0.548318
0.946075 0.502007 0.548318
0.946059 0.502007 0.54844
0.946059 0.502007 0.54844
0.946059 0.502007 0.54844
0.946059 0.502007 0.54844
0.946059 0.502007 0.54844
0.946059 0.502007 0.54844
0.946059 0.502007 0.54844
0.946059 0.502007 0.54844
0.946075 0.502007 0.548318
0.946075 0.502007 0.548318
0.946075 0.502007 0.548318
0.953979 0.769314 0.397253
0.953872 0.771435 0.395193
0.953872 0.771435 0.395117
0.946059 0.502113 0.548577
0.946059 0.502113 0.548577
0.946059 0.502113 0.548577
0.946059 0.502113 0.548577
0.946059 0.502113 0.548577
0.946059 0.502113 0.548577
0.946059 0.502113 0.548577
0.946059 0.502113 0.548577
0.946059 0.502113 0.548577
0.946059 0.502113 0.548577
0.946059 0.502113 0.548577
0.946059 0.502113 0.548577
0.946059 0.502113 0.548577
0.946059 0.502113 0.548577
0.956466 0.690867 0.503563
0.953872 0.771435 0.395361
0.953872 0.771557 0.395315
0.0168765 0.0214694 0.0259251
0.0171511 0.0215305 0.0259861
0.0208286 0.0224155 0.026978
0.0279088 0.0231479 0.0272831
0.0559396 0.0288396 0.0324254
0.131762 0.0433356 0.0429847
0.271031 0.0624094 0.0495918
0.451774 0.0871138 0.045304
0.640604 0.116548 0.0504158
0.833555 0.15613 0.0624399
0.938888 0.169055 0.0755016
0.949081 0.16939 0.0861982
0.948928 0.169406 0.0881208
0.948898 0.169406 0.0884718
0.948898 0.169406 0.0885939
0.948898 0.169406 0.0885939
0.948898 0.169406 0.0885939
0.0171054 0.0221561 0.0261845
0.0170443 0.0219883 0.0259556
0.0204776 0.0226444 0.0268559
0.0275731 0.0230869 0.0271916
0.0574655 0.02916 0.0327153
0.138155 0.0443427 0.0436408
0.285908 0.0641642 0.0498207
0.470939 0.090074 0.0449683
0.664897 0.121263 0.0534524
0.855833 0.161364 0.0640116
0.944991 0.169223 0.0775616
0.949035 0.16939 0.0868086
0.948913 0.169406 0.0882429
0.948898 0.169406 0.0884718
0.948898 0.169406 0.0885939
0.948898 0.169406 0.0885939
0.948898 0.169406 0.0885939
0.0183566 0.0254978 0.0272221
0.0183719 0.0255436 0.0272374
0.021912 0.0259403 0.0289006
0.0267491 0.0259403 0.0287022
0.0498054 0.0289616 0.0317082
0.130068 0.0433356 0.0426184
0.282063 0.0637217 0.0498207
0.472374 0.0903182 0.0449378
0.669856 0.122225 0.0536355
0.861692 0.1626 0.0644999
0.946685 0.169268 0.0780957
0.949004 0.16939 0.0870375
0.948913 0.169406 0.0882429
0.948898 0.169406 0.0884718
0.948898 0.169406 0.0885939
0.948898 0.169406 0.0885939
0.948898 0.169406 0.0885939
0.0288548 0.0285191 0.0302586
0.029099 0.0286564 0.0303349
0.029633 0.0290379 0.0313115
0.0307622 0.0309148 0.0339055
0.0419318 0.0317235 0.0318151
0.114199 0.0446174 0.0413519
0.264347 0.0615702 0.0484779
0.459953 0.0885939 0.0450904
0.661021 0.1205 0.0532845
0.857237 0.161669 0.0641337
0.946075 0.169253 0.0779278
0.949004 0.16939 0.0870375
0.948913 0.169406 0.0882429
0.948898 0.169406 0.0884718
0.948898 0.169406 0.0885939
0.948898 0.169406 0.0885939
0.948898 0.169406 0.0885939
0.0480049 0.0376135 0.0384375
0.0499428 0.038529 0.0392157
0.0508125 0.0388952 0.0395514
0.0514992 0.0393378 0.0415656
0.0523079 0.0421912 0.042771
0.0982834 0.0526436 0.0418708
0.246601 0.0657359 0.0469215
0.442115 0.0886854 0.0442359
0.644297 0.117235 0.0503853
0.846418 0.159167 0.063386
0.944183 0.169207 0.0773022
0.949035 0.16939 0.0868086
0.948913 0.169406 0.0882429
0.948898 0.169406 0.0884718
0.948898 0.169406 0.0885939
0.948898 0.169406 0.0885939
0.948898 0.169406 0.0885939
0.125154 0.0675517 0.0592203
0.131838 0.0694591 0.0601358
0.135851 0.070573 0.0606699
0.134936 0.0702373 0.0607004
0.134615 0.0695048 0.0627756
0.135164 0.0789502 0.0617838
0.231662 0.0927291 0.0454108
0.42266 0.113436 0.0398413
0.622599 0.1178 0.0475013
0.831098 0.155566 0.0621958
0.940856 0.169116 0.0762493
0.94905 0.16939 0.0865644
0.948913 0.169406 0.0882429
0.948898 0.169406 0.0884718
0.948898 0.169406 0.0885939
0.948898 0.169406 0.0885939
0.948898 0.169406 0.0885939
0.275319 0.113451 0.0807813
0.28867 0.117556 0.0827497
0.296742 0.120333 0.084184
0.296605 0.120317 0.084184
0.293111 0.119051 0.083711
0.28986 0.118791 0.0915999
0.291798 0.142611 0.090425
0.389258 0.177813 0.0559701
0.604791 0.176913 0.0459144
0.812924 0.167285 0.0506752
0.935637 0.168994 0.074052
0.949081 0.16939 0.0860914
0.948928 0.169406 0.0881208
0.948898 0.169406 0.0884718
0.948898 0.169406 0.0885939
0.948898 0.169406 0.0885939
0.948898 0.169406 0.0885939
0.481407 0.191928 0.129809
0.494514 0.198337 0.134524
0.502281 0.20296 0.137972
0.503532 0.2038 0.138659
0.501854 0.202747 0.137835
0.497704 0.200137 0.135882
0.50605 0.200092 0.151614
0.505074 0.246433 0.149218
0.593057 0.28069 0.080827
0.795636 0.285161 0.0696269
0.941543 0.259922 0.0567788
0.953811 0.201083 0.0632029
0.948943 0.16939 0.0878767
0.948898 0.169406 0.0884718
0.948898 0.169406 0.0885939
0.948898 0.169406 0.0885939
0.948898 0.169406 0.0885939
0.702876 0.278538 0.188769
0.716823 0.286687 0.195148
0.728481 0.291096 0.198276
0.73254 0.29247 0.199222
0.731517 0.292103 0.198993
0.727459 0.290791 0.198077
0.720577 0.288228 0.196262
0.752148 0.295171 0.269001
0.73489 0.370764 0.175982
0.810483 0.406104 0.121172
0.943389 0.404639 0.104356
0.960723 0.372396 0.0981765
0.959823 0.320668 0.0810407
0.950668 0.176577 0.0746319
0.948898 0.169406 0.0885939
0.948898 0.169406 0.0885939
0.948898 0.169406 0.0885939
0.926146 0.354055 0.245579
0.936553 0.352178 0.250172
0.945266 0.348653 0.253956
0.948226 0.347585 0.255467
0.948684 0.347356 0.255634
0.947112 0.347982 0.254902
0.943771 0.349187 0.253178
0.939147 0.351125 0.251209
0.945647 0.391287 0.423972
0.947555 0.489693 0.21471
0.959869 0.51841 0.171603
0.960037 0.512337 0.155856
0.960342 0.490593 0.144305
0.960739 0.440803 0.124132
0.957092 0.246418 0.061799
0.948898 0.169406 0.0885939
0.948898 0.169406 0.0885939
0.95404 0.387137 0.315587
0.953979 0.391226 0.321492
0.953948 0.394354 0.325963
0.953948 0.395773 0.32784
0.953933 0.396063 0.328328
0.953933 0.395773 0.327947
0.953948 0.394919 0.326711
0.953948 0.393698 0.324971
0.953964 0.391989 0.322606
0.949111 0.480659 0.491646
0.958785 0.588403 0.273732
0.958144 0.621729 0.236271
0.958129 0.620005 0.227283
0.958495 0.602518 0.213916
0.959365 0.555352 0.178485
0.960616 0.459968 0.131319
0.960769 0.436423 0.122606
0.95172 0.441154 0.415564
0.95137 0.44535 0.425162
0.951141 0.448218 0.431724
0.951034 0.449439 0.434745
0.951003 0.450065 0.436133
0.951003 0.449958 0.435874
0.951034 0.449439 0.434745
0.95111 0.448631 0.432731
0.951202 0.447395 0.429953
0.951339 0.445869 0.426169
0.955139 0.581674 0.507454
0.956664 0.685008 0.330205
0.955932 0.704692 0.303777
0.956039 0.699611 0.294636
0.95639 0.686915 0.280354
0.957015 0.663996 0.259586
0.957198 0.657084 0.253834
0.948089 0.480705 0.503456
0.947906 0.482811 0.50779
0.947753 0.48452 0.511223
0.947677 0.485267 0.512871
0.947646 0.485695 0.513649
0.947646 0.485801 0.513771
0.947646 0.485588 0.513512
0.947692 0.485267 0.512749
0.947723 0.484627 0.511604
0.947814 0.483986 0.510079
0.94789 0.483131 0.508293
0.95671 0.657755 0.498314
0.954742 0.745876 0.369635
0.954559 0.749615 0.361242
0.954635 0.747219 0.356237
0.954803 0.742428 0.348867
0.954879 0.739895 0.345235
0.946685 0.496742 0.536461
0.946639 0.497185 0.537469
0.946609 0.497505 0.538247
0.946578 0.497719 0.53875
0.946578 0.497826 0.538872
0.946563 0.497826 0.53901
0.946563 0.497826 0.53901
0.946578 0.497719 0.53875
0.946578 0.497612 0.538628
0.946593 0.497505 0.538369
0.946624 0.497398 0.537987
0.946639 0.497185 0.537606
0.95584 0.727825 0.432288
0.95407 0.765805 0.389059
0.95404 0.766308 0.387503
0.954055 0.76582 0.385977
0.95407 0.765209 0.385122
0.946258 0.500404 0.544747
0.946242 0.500618 0.545129
0.946227 0.500725 0.54551
0.946212 0.500832 0.545647
0.946212 0.500832 0.545647
0.946212 0.500832 0.545769
0.946212 0.500832 0.545769
0.946212 0.500832 0.545769
0.946212 0.500832 0.545647
0.946212 0.500725 0.545632
0.946227 0.500725 0.54551
0.946227 0.500725 0.545388
0.946227 0.500618 0.545251
0.95462 0.756054 0.406943
0.953933 0.769726 0.393393
0.953918 0.76997 0.392966
0.953918 0.769848 0.392752
0.946075 0.502007 0.548318
0.946075 0.502007 0.548318
0.946059 0.502007 0.54844
0.946059 0.502007 0.54844
0.946075 0.502113 0.54844
0.946075 0.502113 0.54844
0.946075 0.502113 0.54844
0.946075 0.502113 0.54844
0.946075 0.502113 0.54844
0.946059 0.502007 0.54844
0.946059 0.502007 0.54844
0.946059 0.502007 0.54844
0.946075 0.502007 0.548318
0.946075 0.502007 0.548318
0.953979 0.769192 0.397299
0.953872 0.771435 0.395193
0.953872 0.771435 0.395117
0.946059 0.502113 0.548577
0.946059 0.502113 0.548577
0.946059 0.502113 0.548577
0.946059 0.502113 0.548577
0.946059 0.502113 0.548577
0.946059 0.502113 0.548577
0.946059 0.502113 0.548577
0.946059 0.502113 0.548577
0.946059 0.502113 0.548577
0.946059 0.502113 0.548577
0.946059 0.502113 0.548577
0.946059 0.502113 0.548577
0.946059 0.502113 0.548577
0.946059 0.502113 0.548577
0.956069 0.722087 0.453361
0.953872 0.771435 0.395361
0.953872 0.771557 0.395315
0.0163119 0.0210422 0.0285801
0.016434 0.0211032 0.0285801
0.0194095 0.0220951 0.0295415
0.026688 0.0232395 0.0298009
0.0526436 0.0282444 0.033814
