public/luts/Don_Autumn.cube
TITLE "Generated by Resolve"
LUT_3D_SIZE 9
0.0170748 0.0214542 0.0239109
0.0207523 0.0221561 0.0248875
0.0580911 0.0293278 0.0320745
0.272648 0.0625925 0.0493172
0.639414 0.11632 0.0503243
0.938262 0.169039 0.0753185
0.948928 0.169406 0.0881208
0.948898 0.169406 0.0885939
0.948898 0.169406 0.0885939
0.0226444 0.0245823 0.0270542
0.0229801 0.0253452 0.0280919
0.049897 0.0289311 0.0311284
0.278325 0.0632639 0.0483558
0.665171 0.121324 0.0534371
0.945678 0.169238 0.0778515
0.948913 0.169406 0.0882429
0.948898 0.169406 0.0885939
0.948898 0.169406 0.0885939
0.0475319 0.0371099 0.0383307
0.050248 0.0383001 0.0394446
0.0509651 0.0412604 0.041413
0.241032 0.0650797 0.0467842
0.637186 0.115908 0.0502022
0.942489 0.169162 0.0767834
0.948913 0.169406 0.0882429
0.948898 0.169406 0.0885939
0.948898 0.169406 0.0885939
0.266209 0.110933 0.0797436
0.287892 0.117296 0.0826123
0.283268 0.115816 0.0820783
0.281743 0.137881 0.0873884
0.595331 0.173312 0.0455024
0.932433 0.168948 0.0734264
0.948928 0.169406 0.0881208
0.948898 0.169406 0.0885939
0.948898 0.169406 0.0885939
0.693065 0.273671 0.185061
0.716823 0.286687 0.195148
0.718959 0.287526 0.195727
0.709895 0.282307 0.191669
0.721401 0.363394 0.173968
0.938445 0.398566 0.101991
0.959716 0.313664 0.0784619
0.948898 0.169406 0.0885939
0.948898 0.169406 0.0885939
0.95407 0.384375 0.311681
0.953979 0.391516 0.321859
0.953964 0.393118 0.324117
0.953979 0.391897 0.322362
0.954009 0.388754 0.317983
0.958907 0.582422 0.269841
0.958236 0.614374 0.223789
0.959518 0.547295 0.173861
0.960891 0.412528 0.113725
0.948211 0.479347 0.500542
0.94789 0.483024 0.508171
0.947784 0.484199 0.510582
0.947799 0.484092 0.510338
0.947875 0.483024 0.508293
0.948028 0.481437 0.504982
0.954818 0.743679 0.367483
0.954696 0.745434 0.353643
0.954986 0.736522 0.340352
0.946273 0.500298 0.544488
0.946227 0.500618 0.545251
0.946227 0.500725 0.54551
0.946227 0.500725 0.54551
0.946227 0.500725 0.545388
0.946227 0.500618 0.545251
0.946258 0.500511 0.544869
0.953933 0.769604 0.393179
0.953933 0.769726 0.392554
0.946059 0.502113 0.548577
0.946059 0.502113 0.548577
0.946059 0.502113 0.548577
0.946059 0.502113 0.548577
0.946059 0.502113 0.548577
0.946059 0.502113 0.548577
0.946059 0.502113 0.548577
0.95436 0.649927 0.586053
0.953872 0.771557 0.395315
0.0168765 0.0214694 0.0259251
0.0208286 0.0224155 0.026978
0.0559396 0.0288396 0.0324254
0.271031 0.0624094 0.0495918
0.640604 0.116548 0.0504158
0.938888 0.169055 0.0755016
0.948928 0.169406 0.0881208
0.948898 0.169406 0.0885939
0.948898 0.169406 0.0885939
0.0183566 0.0254978 0.0272221
0.021912 0.0259403 0.0289006
0.0498054 0.0289616 0.0317082
0.282063 0.0637217 0.0498207
0.669856 0.122225 0.0536355
0.946685 0.169268 0.0780957
0.948913 0.169406 0.0882429
0.948898 0.169406 0.0885939
0.948898 0.169406 0.0885939
0.0480049 0.0376135 0.0384375
0.0508125 0.0388952 0.0395514
0.0523079 0.0421912 0.042771
0.246601 0.0657359 0.0469215
0.644297 0.117235 0.0503853
0.944183 0.169207 0.0773022
0.948913 0.169406 0.0882429
0.948898 0.169406 0.0885939
0.948898 0.169406 0.0885939
0.275319 0.113451 0.0807813
0.296742 0.120333 0.084184
0.293111 0.119051 0.083711
0.291798 0.142611 0.090425
0.604791 0.176913 0.0459144
0.935637 0.168994 0.074052
0.948928 0.169406 0.0881208
0.948898 0.169406 0.0885939
0.948898 0.169406 0.0885939
0.702876 0.278538 0.188769
0.728481 0.291096 0.198276
0.731517 0.292103 0.198993
0.720577 0.288228 0.196262
0.73489 0.370764 0.175982
0.943389 0.404639 0.104356
0.959823 0.320668 0.0810407
0.948898 0.169406 0.0885939
0.948898 0.169406 0.0885939
0.95404 0.387137 0.315587
0.953948 0.394354 0.325963
0.953933 0.396063 0.328328
0.953948 0.394919 0.326711
0.953964 0.391989 0.322606
0.958785 0.588403 0.273732
0.958129 0.620005 0.227283
0.959365 0.555352 0.178485
0.960769 0.436423 0.122606
0.948089 0.480705 0.503456
0.947753 0.48452 0.511223
0.947646 0.485695 0.513649
0.947646 0.485588 0.513512
0.947723 0.484627 0.511604
0.94789 0.483131 0.508293
0.954742 0.745876 0.369635
0.954635 0.747219 0.356237
0.954879 0.739895 0.345235
0.946258 0.500404 0.544747
0.946227 0.500725 0.54551
0.946212 0.500832 0.545647
0.946212 0.500832 0.545769
0.946212 0.500832 0.545647
0.946227 0.500725 0.54551
0.946227 0.500618 0.545251
0.953933 0.769726 0.393393
0.953918 0.769848 0.392752
0.946059 0.502113 0.548577
0.946059 0.502113 0.548577
0.946059 0.502113 0.548577
0.946059 0.502113 0.548577
0.946059 0.502113 0.548577
0.946059 0.502113 0.548577
0.946059 0.502113 0.548577
0.956069 0.722087 0.453361
0.953872 0.771557 0.395315
0.0160525 0.0217441 0.0366217
0.01738 0.0219883 0.0359503
0.0492866 0.0279698 0.0435035
0.25536 0.0607156 0.0587015
0.631449 0.11487 0.0519265
0.937209 0.169024 0.0751507
0.948928 0.169406 0.0881208
0.948898 0.169406 0.0885939
0.948898 0.169406 0.0885939
0.0164034 0.0229038 0.0347906
0.0173953 0.0233005 0.0353552
0.0461585 0.0284276 0.0433509
0.270375 0.0625467 0.0598001
0.664302 0.121202 0.0564126
0.946151 0.169253 0.0780346
0.948913 0.169406 0.0882429
0.948898 0.169406 0.0885939
0.948898 0.169406 0.0885939
0.0227665 0.0408637 0.0421454
0.02327 0.0426642 0.0431983
0.0453346 0.0478981 0.0526131
0.236606 0.0626993 0.0531472
0.641825 0.116854 0.0549477
0.943999 0.169192 0.0773327
0.948913 0.169406 0.0882429
0.948898 0.169406 0.0885939
0.948898 0.169406 0.0885939
0.259098 0.111208 0.0787213
0.281346 0.117754 0.0814221
0.279179 0.116854 0.0813306
0.282872 0.140063 0.090013
0.603281 0.17467 0.0459907
0.935836 0.168994 0.0741588
0.948928 0.169406 0.0881208
0.948898 0.169406 0.0885939
0.948898 0.169406 0.0885939
0.702327 0.278202 0.188495
0.728054 0.290959 0.198169
0.73167 0.292119 0.198993
0.721141 0.288396 0.196353
0.735866 0.371374 0.175814
0.944183 0.404974 0.104616
0.959838 0.32137 0.0812543
0.948898 0.169406 0.0885939
0.948898 0.169406 0.0885939
0.954025 0.387518 0.316213
0.953948 0.394919 0.326711
0.953933 0.396826 0.32932
0.953948 0.395773 0.32784
0.953964 0.392844 0.323735
0.958755 0.590097 0.274662
0.958083 0.621729 0.228397
0.959319 0.557549 0.179721
0.960723 0.44416 0.125444
0.948058 0.481132 0.504219
0.947723 0.48484 0.511986
0.947601 0.486137 0.514656
0.947616 0.486122 0.514412
0.947692 0.485267 0.512627
0.947829 0.483665 0.509438
0.954726 0.746609 0.370336
0.95462 0.747936 0.357305
0.954833 0.741222 0.347066
0.946258 0.500404 0.544869
0.946227 0.500725 0.54551
0.946212 0.500832 0.545769
0.946197 0.500832 0.545892
0.946212 0.500832 0.545769
0.946212 0.500725 0.545632
0.946227 0.500618 0.545388
0.953933 0.769848 0.393439
0.953918 0.76997 0.392874
0.946059 0.502113 0.548577
0.946059 0.502113 0.548577
0.946059 0.502113 0.548577
0.946059 0.502113 0.548577
0.946059 0.502113 0.548577
0.946059 0.502113 0.548577
0.946059 0.502113 0.548577
0.954879 0.751247 0.415869
0.953872 0.771557 0.395315
0.0265965 0.0307469 0.122347
0.0280156 0.0308995 0.115511
0.0480812 0.0340429 0.120439
0.212116 0.0569009 0.182925
0.587274 0.113313 0.178241
0.932937 0.169009 0.0817578
0.948928 0.169406 0.0881208
0.948898 0.169406 0.0885939
0.948898 0.169406 0.0885939
0.0261082 0.0301061 0.111269
0.0267491 0.030396 0.112154
0.0466773 0.0341039 0.123064
0.231342 0.0594034 0.20061
0.616083 0.118624 0.201083
0.943999 0.169268 0.0855726
0.948913 0.169406 0.0882429
0.948898 0.169406 0.0885939
0.948898 0.169406 0.0885939
0.0241093 0.0315709 0.094789
0.0246433 0.0327153 0.0993668
0.0332189 0.0349889 0.101579
0.193912 0.0555581 0.178195
0.59971 0.115511 0.190478
0.941848 0.169223 0.0858473
0.948913 0.169406 0.0882429
0.948898 0.169406 0.0885939
0.948898 0.169406 0.0885939
0.0264134 0.156024 0.143328
0.0260624 0.167498 0.154299
0.0263981 0.166278 0.151141
0.169879 0.15079 0.164584
0.548043 0.180102 0.117968
0.933745 0.169009 0.0807202
0.948928 0.169406 0.0881208
0.948898 0.169406 0.0885939
0.948898 0.169406 0.0885939
0.651362 0.271672 0.147021
0.676616 0.282628 0.149828
0.681254 0.283955 0.151843
0.680446 0.281071 0.160067
0.719005 0.368154 0.184665
0.942977 0.402152 0.103441
0.959777 0.31725 0.0797742
0.948898 0.169406 0.0885939
0.948898 0.169406 0.0885939
0.95404 0.386664 0.315068
0.953948 0.394171 0.325719
0.953933 0.396063 0.328328
0.953933 0.395117 0.327077
0.953964 0.392279 0.322988
0.95877 0.589303 0.274205
0.958099 0.621042 0.227893
0.959335 0.556786 0.179294
0.960723 0.442832 0.124971
0.948074 0.480919 0.503838
0.947723 0.484733 0.511727
0.947616 0.48603 0.514412
0.947616 0.48603 0.514412
0.947707 0.485161 0.512505
0.947829 0.483665 0.509438
0.954726 0.746609 0.370336
0.95462 0.747936 0.357382
0.954833 0.741344 0.347341
0.946258 0.500404 0.544869
0.946227 0.500725 0.54551
0.946212 0.500832 0.545769
0.946197 0.500938 0.545892
0.946212 0.500832 0.545769
0.946212 0.500832 0.545647
0.946227 0.500618 0.545388
0.953933 0.769848 0.393439
0.953918 0.76997 0.392874
0.946059 0.502113 0.548577
0.946059 0.502113 0.548577
0.946059 0.502113 0.548577
0.946059 0.502113 0.548577
0.946059 0.502113 0.548577
0.946059 0.502113 0.548577
0.946059 0.502113 0.548577
0.95436 0.761669 0.404883
0.953872 0.771557 0.395315
0.049836 0.0450752 0.328771
0.0484779 0.044358 0.315541
0.0547646 0.0445411 0.305638
0.189044 0.0613565 0.399115
0.54316 0.107652 0.460273
0.876799 0.177188 0.443183
0.947341 0.169512 0.107698
0.948898 0.169406 0.0885939
0.948898 0.169406 0.0885939
0.0483101 0.0442512 0.313924
0.0484932 0.044358 0.315724
0.0550546 0.0449378 0.314672
0.207721 0.06392 0.428901
0.571267 0.113405 0.48896
0.889021 0.177996 0.478523
0.946029 0.169589 0.122805
0.948898 0.169406 0.0885939
0.948898 0.169406 0.0885939
0.0450446 0.0426337 0.287205
0.0459754 0.0431067 0.294835
0.0486152 0.0433204 0.293889
0.175341 0.0600595 0.394354
0.557504 0.110628 0.479042
0.886809 0.17789 0.472831
0.946105 0.169589 0.121996
0.948898 0.169406 0.0885939
0.948898 0.169406 0.0885939
0.0381323 0.0584878 0.286305
0.0384527 0.0638132 0.304448
0.0384375 0.0627756 0.302022
0.105257 0.0643015 0.334722
0.519417 0.108446 0.450217
0.878798 0.177295 0.450736
0.948287 0.169451 0.0966201
0.948898 0.169406 0.0885939
0.948898 0.169406 0.0885939
0.0393225 0.401755 0.373159
0.041062 0.418647 0.388754
0.0415045 0.420935 0.390707
0.04094 0.416068 0.384939
0.422278 0.39028 0.407584
0.868437 0.402518 0.33872
0.959075 0.300175 0.0804456
0.948898 0.169406 0.0885939
0.948898 0.169406 0.0885939
0.611765 0.564858 0.183185
0.562387 0.596109 0.197253
0.557351 0.603006 0.201328
0.569207 0.597528 0.197498
0.625223 0.576577 0.185336
0.958007 0.626902 0.394949
0.95816 0.618051 0.225803
0.959426 0.552697 0.176883
0.9608 0.432364 0.121141
0.952758 0.502586 0.468376
0.955047 0.521798 0.449424
0.955718 0.528313 0.442298
0.955596 0.52723 0.444114
0.954452 0.518425 0.456947
0.949874 0.492958 0.495583
0.954742 0.74612 0.369863
0.95462 0.747585 0.356817
0.954849 0.740871 0.346563
0.946258 0.500404 0.544747
0.946227 0.500725 0.54551
0.946212 0.500832 0.545769
0.946212 0.500832 0.545769
0.946212 0.500832 0.545769
0.946227 0.500725 0.54551
0.946227 0.500618 0.545388
0.953933 0.769848 0.393439
0.953918 0.76997 0.392874
0.946059 0.502113 0.548577
0.946059 0.502113 0.548577
0.946059 0.502113 0.548577
0.946059 0.502113 0.548577
0.946059 0.502113 0.548577
0.946059 0.502113 0.548577
0.946059 0.502113 0.548577
0.954559 0.757763 0.408652
0.953872 0.771557 0.395315
0.0741741 0.0569162 0.596597
0.0734264 0.0567483 0.590448
0.0721294 0.0562448 0.576699
0.0914321 0.0574655 0.577508
0.463157 0.10515 0.748974
0.821073 0.171023 0.762478
0.916808 0.181277 0.715297
0.948898 0.169406 0.0885939
0.948898 0.169406 0.0885939
0.073518 0.0567788 0.591196
0.0736706 0.0568093 0.592599
0.073106 0.0567025 0.588296
0.0992447 0.0588083 0.603815
0.49276 0.110689 0.776883
0.84947 0.178485 0.798352
0.915328 0.181613 0.752636
0.948898 0.169406 0.0885939
0.948898 0.169406 0.0885939
0.0717174 0.0560311 0.570916
0.0723278 0.0563211 0.578775
0.0720226 0.056199 0.575296
0.0872206 0.0573739 0.582483
0.479713 0.108553 0.769512
0.845777 0.177508 0.794751
0.915328 0.181613 0.752636
0.948898 0.169406 0.0885939
0.948898 0.169406 0.0885939
0.0692302 0.0547036 0.536416
0.0701457 0.0551766 0.549233
0.0701305 0.0551766 0.548882
0.0730755 0.0552682 0.545846
0.444373 0.102403 0.744015
0.828672 0.173068 0.77583
0.915938 0.18146 0.738476
0.947707 0.169497 0.103517
0.948898 0.169406 0.0885939
0.0421302 0.295659 0.63537
0.0434272 0.3196 0.653178
0.0436866 0.323949 0.656275
0.0432593 0.316014 0.651209
0.243046 0.339269 0.53698
0.797787 0.31783 0.716197
0.921248 0.213001 0.701137
0.948898 0.169406 0.0885939
0.948898 0.169406 0.0885939
0.0576028 0.672755 0.625086
0.0591745 0.692668 0.643046
0.0596017 0.698024 0.647776
0.0594797 0.696071 0.645701
0.0591135 0.689326 0.639078
0.686259 0.669825 0.673808
0.951598 0.647883 0.631052
0.959701 0.537377 0.168872
0.96083 0.390555 0.105959
0.223087 0.865873 0.510063
0.206241 0.87715 0.531426
0.200427 0.880201 0.538811
0.200656 0.880201 0.538613
0.205432 0.878035 0.532815
0.219409 0.872389 0.517876
0.952499 0.850294 0.685512
0.954665 0.746502 0.35523
0.954894 0.739178 0.344137
0.90338 0.770703 0.26067
0.766644 0.804761 0.279728
0.720226 0.817121 0.291829
0.711254 0.819333 0.294881
0.73698 0.812802 0.286656
0.830594 0.788602 0.268452
0.957153 0.666804 0.305165
0.953933 0.769848 0.393439
0.953918 0.769848 0.392844
0.946059 0.502113 0.548577
0.946059 0.502113 0.548577
0.946059 0.502113 0.548577
0.946059 0.502113 0.548577
0.946059 0.502113 0.548577
0.946059 0.502113 0.548577
0.946059 0.502113 0.548577
0.9552 0.744533 0.423713
0.953872 0.771557 0.395315
0.0869154 0.0585184 0.663035
0.0867628 0.0585031 0.662867
0.0863203 0.0584573 0.662379
0.0856336 0.0583658 0.661601
0.144167 0.0635996 0.709804
0.751965 0.158648 0.868421
0.900099 0.185214 0.875425
0.90486 0.185031 0.875517
0.908644 0.183795 0.856306
0.0868391 0.0585031 0.662943
0.0869154 0.0585184 0.663035
0.0866865 0.0584878 0.662791
0.0863966 0.0584573 0.66247
0.152956 0.0646982 0.716197
0.788205 0.166934 0.870649
0.900343 0.185275 0.875441
0.903548 0.185138 0.875532
0.905287 0.184863 0.874342
0.086244 0.0584268 0.662242
0.0864729 0.0584726 0.662547
0.0863966 0.0584573 0.66247
0.0860914 0.0584115 0.662089
0.141649 0.0633555 0.707881
0.785077 0.166155 0.870481
0.900343 0.185275 0.875441
0.903471 0.185168 0.875532
0.904845 0.185046 0.875563
0.0851148 0.05832 0.661036
0.0855726 0.0583658 0.661524
0.0855726 0.0583658 0.661524
0.0853437 0.0583352 0.66128
0.122606 0.0614328 0.692821
0.765713 0.161639 0.869322
0.900343 0.185275 0.875441
0.9037 0.185153 0.875532
0.905364 0.184833 0.874037
0.0832532 0.0581369 0.655818
0.0841382 0.0582132 0.658778
0.0842908 0.0582284 0.659266
0.084062 0.0582132 0.658595
0.0894026 0.058732 0.663081
0.726528 0.153231 0.866529
0.900099 0.185214 0.875425
0.90428 0.185077 0.875547
0.906767 0.184253 0.869886
0.0519417 0.588769 0.843
0.0521401 0.608423 0.850599
0.0521859 0.613626 0.852338
0.0521706 0.612009 0.851804
0.0521096 0.605814 0.849729
0.597925 0.587518 0.854566
0.935699 0.575967 0.90457
0.931426 0.425483 0.883711
0.914031 0.233143 0.854002
0.0742199 0.892836 0.837491
0.0748455 0.900801 0.845975
0.0751049 0.903685 0.848692
0.0750896 0.903792 0.84892
0.0749981 0.902342 0.847349
0.0747539 0.899443 0.844312
0.902373 0.890883 0.909026
0.949172 0.881941 0.875593
0.952285 0.859297 0.792859
0.0908217 0.926436 0.790494
0.0878309 0.927565 0.806027
0.0866712 0.927993 0.812055
0.0864118 0.9281 0.813428
0.0866712 0.927993 0.812055
0.0875105 0.927687 0.807721
0.0894179 0.926955 0.797787
0.950683 0.927535 0.881148
0.950988 0.900221 0.772137
0.115328 0.917632 0.698054
0.104784 0.921447 0.732341
0.100786 0.922835 0.747311
0.0994888 0.923278 0.7523
0.0996872 0.923201 0.751522
0.101411 0.922621 0.744869
0.106325 0.920913 0.727199
0.947311 0.862165 0.917006
0.953368 0.793957 0.453437
0.0895552 0.058793 0.665904
0.0895552 0.058793 0.665904
0.0895552 0.058793 0.665904
0.0894789 0.058793 0.665827
0.0894942 0.058793 0.665812
0.138094 0.063035 0.70547
0.896117 0.185443 0.875319
0.900725 0.185428 0.875456
0.900862 0.185412 0.875471
0.0895552 0.058793 0.665904
0.0895552 0.058793 0.665904
0.0895552 0.058793 0.665904
0.0895552 0.058793 0.665904
0.0895552 0.058793 0.665904
0.167178 0.0665293 0.726711
0.89807 0.185443 0.87538
0.900725 0.185428 0.875456
0.900786 0.185428 0.875471
0.0895552 0.058793 0.665904
0.0895552 0.058793 0.665904
0.0895552 0.058793 0.665904
0.0895552 0.058793 0.665904
0.0895552 0.058793 0.665904
0.165164 0.0663005 0.725292
0.898192 0.185443 0.87538
0.900725 0.185428 0.875456
0.900786 0.185428 0.875471
0.0894789 0.058793 0.665812
0.0894789 0.058793 0.665827
0.0895552 0.058793 0.665904
0.0894789 0.058793 0.665827
0.0894789 0.058793 0.665812
0.10869 0.0602579 0.682017
0.897475 0.185443 0.875364
0.900725 0.185428 0.875456
0.900786 0.185428 0.875471
0.0893416 0.0587778 0.66566
0.0894026 0.0587778 0.665736
0.0894942 0.058793 0.665812
0.0894026 0.0587778 0.665736
0.0894179 0.0587778 0.665736
0.13933 0.0631571 0.706447
0.896315 0.185443 0.875319
0.900725 0.185428 0.875456
0.900786 0.185428 0.875471
0.0891127 0.0587472 0.665415
0.089189 0.0587625 0.665492
0.0892653 0.0587625 0.665568
0.0892653 0.0587625 0.665568
0.089189 0.0587625 0.665492
0.0896468 0.0588083 0.665965
0.893263 0.185458 0.875227
0.900664 0.185428 0.875456
0.900862 0.185412 0.875471
0.0634165 0.846052 0.883421
0.0645914 0.857206 0.884489
0.0651713 0.862257 0.884962
0.0652476 0.862882 0.885039
0.0649119 0.860243 0.88481
0.0643778 0.855299 0.884428
0.859098 0.846571 0.925704
0.944823 0.828763 0.933944
0.943725 0.784878 0.928115
0.076585 0.931853 0.883741
0.076524 0.931884 0.884413
0.0764935 0.931884 0.884627
0.0764935 0.931884 0.884627
0.0764935 0.931884 0.884627
0.0765087 0.931884 0.88452
0.076524 0.931884 0.884291
0.944549 0.945525 0.947921
0.94786 0.945373 0.948013
0.0768902 0.931716 0.880751
0.0767529 0.931777 0.882078
0.0766918 0.931807 0.88275
0.0766766 0.931807 0.882856
0.0766766 0.931807 0.882856
0.0766918 0.931807 0.88275
0.0767376 0.931792 0.882307
0.650034 0.936934 0.937728
0.949783 0.947951 0.948669
0.0895552 0.058793 0.665904
0.0895552 0.058793 0.665904
0.0895552 0.058793 0.665904
0.0895552 0.058793 0.665904
0.0895552 0.058793 0.665904
0.0895552 0.058793 0.665904
0.892287 0.185473 0.875196
0.900465 0.185428 0.875456
0.900664 0.185428 0.875456
0.0895552 0.058793 0.665904
0.0895552 0.058793 0.665904
0.0895552 0.058793 0.665904
0.0895552 0.058793 0.665904
0.0895552 0.058793 0.665904
0.0895552 0.058793 0.665904
0.896574 0.185443 0.875334
0.900603 0.185428 0.875456
0.900664 0.185428 0.875456
0.0895552 0.058793 0.665904
0.0895552 0.058793 0.665904
0.0895552 0.058793 0.665904
0.0895552 0.058793 0.665904
0.0895552 0.058793 0.665904
0.0895552 0.058793 0.665904
0.896834 0.185443 0.875334
0.900603 0.185428 0.875456
0.900664 0.185428 0.875456
0.0895552 0.058793 0.665904
0.0895552 0.058793 0.665904
0.0895552 0.058793 0.665904
0.0895552 0.058793 0.665904
0.0895552 0.058793 0.665904
0.0895552 0.058793 0.665904
0.895857 0.185473 0.875303
0.900603 0.185428 0.875456
0.900664 0.185428 0.875456
0.0895552 0.058793 0.665904
0.0895552 0.058793 0.665904
0.0895552 0.058793 0.665904
0.0895552 0.058793 0.665904
0.0895552 0.058793 0.665904
0.0895552 0.058793 0.665904
0.894041 0.185458 0.875242
0.900603 0.185428 0.875456
0.900664 0.185428 0.875456
0.0895552 0.058793 0.665904
0.0895552 0.058793 0.665904
0.0895552 0.058793 0.665904
0.0895552 0.058793 0.665904
0.0895552 0.058793 0.665904
0.0895552 0.058793 0.665904
0.883192 0.185428 0.874861
0.900465 0.185428 0.875456
0.900664 0.185428 0.875456
0.0537575 0.551095 0.85449
0.0534676 0.683467 0.878874
0.0539712 0.711879 0.881956
0.0540322 0.714656 0.882155
0.0537575 0.702129 0.881361
0.0533913 0.676616 0.877729
0.764614 0.634653 0.895125
0.933135 0.498772 0.899351
0.913741 0.309224 0.884459
0.0761578 0.932036 0.887953
0.076173 0.932036 0.887846
0.0761883 0.932021 0.887724
0.0761883 0.932021 0.887724
0.0761883 0.932021 0.887724
0.076173 0.932036 0.887846
0.076173 0.932036 0.887846
0.942443 0.944625 0.949569
0.948119 0.943923 0.950057
0.0762188 0.932006 0.887404
0.0762188 0.932006 0.887404
0.0762188 0.932006 0.887404
0.0762188 0.932006 0.887404
0.0762188 0.932006 0.887404
0.0762188 0.932006 0.887404
0.0762188 0.932006 0.887404
0.490196 0.932937 0.934279
0.949722 0.951141 0.951156
