public/luts/Don_Autumn.cube
TITLE "Generated by Resolve"
LUT_3D_SIZE 5
0.0170748 0.0214542 0.0239109
0.0580911 0.0293278 0.0320745
0.639414 0.11632 0.0503243
0.948928 0.169406 0.0881208
0.948898 0.169406 0.0885939
0.0475319 0.0371099 0.0383307
0.0509651 0.0412604 0.041413
0.637186 0.115908 0.0502022
0.948913 0.169406 0.0882429
0.948898 0.169406 0.0885939
0.693065 0.273671 0.185061
0.718959 0.287526 0.195727
0.721401 0.363394 0.173968
0.959716 0.313664 0.0784619
0.948898 0.169406 0.0885939
0.948211 0.479347 0.500542
0.947784 0.484199 0.510582
0.947875 0.483024 0.508293
0.954818 0.743679 0.367483
0.954986 0.736522 0.340352
0.946059 0.502113 0.548577
0.946059 0.502113 0.548577
0.946059 0.502113 0.548577
0.946059 0.502113 0.548577
0.953872 0.771557 0.395315
0.0160525 0.0217441 0.0366217
0.0492866 0.0279698 0.0435035
0.631449 0.11487 0.0519265
0.948928 0.169406 0.0881208
0.948898 0.169406 0.0885939
0.0227665 0.0408637 0.0421454
0.0453346 0.0478981 0.0526131
0.641825 0.116854 0.0549477
0.948913 0.169406 0.0882429
0.948898 0.169406 0.0885939
0.702327 0.278202 0.188495
0.73167 0.292119 0.198993
0.735866 0.371374 0.175814
0.959838 0.32137 0.0812543
0.948898 0.169406 0.0885939
0.948058 0.481132 0.504219
0.947601 0.486137 0.514656
0.947692 0.485267 0.512627
0.954726 0.746609 0.370336
0.954833 0.741222 0.347066
0.946059 0.502113 0.548577
0.946059 0.502113 0.548577
0.946059 0.502113 0.548577
0.946059 0.502113 0.548577
0.953872 0.771557 0.395315
0.049836 0.0450752 0.328771
0.0547646 0.0445411 0.305638
0.54316 0.107652 0.460273
0.947341 0.169512 0.107698
0.948898 0.169406 0.0885939
0.0450446 0.0426337 0.287205
0.0486152 0.0433204 0.293889
0.557504 0.110628 0.479042
0.946105 0.169589 0.121996
0.948898 0.169406 0.0885939
0.0393225 0.401755 0.373159
0.0415045 0.420935 0.390707
0.422278 0.39028 0.407584
0.959075 0.300175 0.0804456
0.948898 0.169406 0.0885939
0.952758 0.502586 0.468376
0.955718 0.528313 0.442298
0.954452 0.518425 0.456947
0.954742 0.74612 0.369863
0.954849 0.740871 0.346563
0.946059 0.502113 0.548577
0.946059 0.502113 0.548577
0.946059 0.502113 0.548577
0.946059 0.502113 0.548577
0.953872 0.771557 0.395315
0.0869154 0.0585184 0.663035
0.0863203 0.0584573 0.662379
0.144167 0.0635996 0.709804
0.900099 0.185214 0.875425
0.908644 0.183795 0.856306
0.086244 0.0584268 0.662242
0.0863966 0.0584573 0.66247
0.141649 0.0633555 0.707881
0.900343 0.185275 0.875441
0.904845 0.185046 0.875563
0.0832532 0.0581369 0.655818
0.0842908 0.0582284 0.659266
0.0894026 0.058732 0.663081
0.900099 0.185214 0.875425
0.906767 0.184253 0.869886
0.0742199 0.892836 0.837491
0.0751049 0.903685 0.848692
0.0749981 0.902342 0.847349
0.902373 0.890883 0.909026
0.952285 0.859297 0.792859
0.115328 0.917632 0.698054
0.100786 0.922835 0.747311
0.0996872 0.923201 0.751522
0.106325 0.920913 0.727199
0.953368 0.793957 0.453437
0.0895552 0.058793 0.665904
0.0895552 0.058793 0.665904
0.0895552 0.058793 0.665904
0.892287 0.185473 0.875196
0.900664 0.185428 0.875456
0.0895552 0.058793 0.665904
0.0895552 0.058793 0.665904
0.0895552 0.058793 0.665904
0.896834 0.185443 0.875334
0.900664 0.185428 0.875456
0.0895552 0.058793 0.665904
0.0895552 0.058793 0.665904
0.0895552 0.058793 0.665904
0.894041 0.185458 0.875242
0.900664 0.185428 0.875456
0.0537575 0.551095 0.85449
0.0539712 0.711879 0.881956
0.0537575 0.702129 0.881361
0.764614 0.634653 0.895125
0.913741 0.309224 0.884459
0.0762188 0.932006 0.887404
0.0762188 0.932006 0.887404
0.0762188 0.932006 0.887404
0.0762188 0.932006 0.887404
0.949722 0.951141 0.951156
