public/luts/EV_DREAMALITY_AFRICA_LUT.cube
TITLE "EV_SURF_AFRICA_LUT"
LUT_3D_SIZE 5
# MLUTS-Log3/Sony S-Gamut3.cine -> LA - EV_SURF_AFRICA_LUT/LA - EV_SURF_AFRICA_LUT, CineEI Shift 0.00, Black Level 2.58% IRE, Input 109% -> Output 100% - Created with LUTCalc v4.09 by Ben Turley February 2025
0.02844610 0.00829860 0.09974469
0.07278727 0.03285049 0.13115916
0.83511546 0.10617123 0.19939947
1.09018265 0.25081567 0.31453380
1.09018265 0.25111519 0.31617717
0.07853806 0.06903514 0.14500159
0.10103680 0.06911930 0.14517926
0.83730183 0.10658419 0.19350996
1.09018265 0.25081567 0.31453489
1.09018265 0.25111519 0.31617717
0.07090167 0.70613571 0.11373168
0.07291843 0.70153077 0.11350449
0.91673300 0.64795042 0.16893655
1.09018265 0.32443091 0.31499229
1.09018265 0.25111519 0.31617717
0.07047875 1.07714319 0.13678749
0.07048579 1.07694531 0.13678673
0.38324668 1.08697566 0.15126936
1.09018265 1.05286808 0.23241645
1.09018265 0.58516187 0.31236125
0.77177335 1.06435736 0.69892417
0.80274710 1.07029300 0.69902600
0.98018233 1.09018265 0.68944125
1.09018265 1.09018265 0.78404564
1.09018265 1.05644207 0.23815501
0.03731007 0.01738352 0.11316232
0.07137211 0.03301761 0.13591832
0.83364006 0.10390121 0.22710750
1.09018265 0.25081567 0.31453424
1.09018265 0.25111519 0.31617717
0.07043876 0.05642017 0.14544786
0.08688602 0.05354778 0.14509812
0.83057265 0.10397959 0.22547970
1.09018265 0.25081567 0.31453489
1.09018265 0.25111519 0.31617717
0.06852741 0.69949064 0.11324234
0.07132428 0.69500311 0.11305254
0.91507146 0.64403756 0.16836431
1.09018265 0.32491481 0.31499055
1.09018265 0.25111519 0.31617717
0.06899694 1.07537712 0.13596904
0.06902920 1.07517511 0.13598248
0.37166271 1.08551838 0.15022806
1.09018265 1.05226645 0.23224474
1.09018265 0.58524877 0.31236921
0.76960838 1.06190076 0.70485195
0.80091098 1.06760081 0.70481910
0.97721749 1.09018265 0.69774741
1.09018265 1.09018265 0.78942762
1.09018265 1.05645308 0.23815330
0.13326011 0.09353094 0.33884362
0.14004761 0.09405658 0.34219448
0.80481540 0.10858071 0.47642741
1.09018265 0.26436128 0.47324058
1.09018265 0.25111519 0.31617717
0.13279236 0.09319223 0.33745709
0.13466790 0.09331725 0.33824264
0.80317076 0.10833751 0.47652231
1.09018265 0.26443282 0.47403249
1.09018265 0.25111519 0.31617717
0.16901774 0.59294091 0.49370234
0.16764661 0.58714536 0.49244172
0.81640479 0.57866057 0.51857385
1.09018265 0.34344704 0.49180310
1.09018265 0.25111519 0.31617717
0.05024164 1.05358062 0.41819785
0.05024143 1.05328999 0.41771196
0.35844695 1.06770870 0.44019096
1.09018265 1.07471136 0.57564618
1.09018265 0.58590143 0.31242624
0.75602068 1.04725197 0.73742774
0.79013943 1.05104063 0.73764719
0.96606718 1.09018265 0.74487063
1.09018265 1.09018265 0.81656818
1.09018265 1.08934447 0.61172158
0.19408277 0.16160374 0.74406581
0.19409642 0.16162442 0.74424968
0.69693340 0.09283617 0.82641888
1.07408111 0.20778584 0.86978141
1.09018265 0.23172397 0.80420788
0.19391331 0.16134570 0.74164332
0.19393179 0.16137444 0.74191770
0.68440181 0.09763018 0.81849737
1.07405194 0.20775788 0.86987445
1.09018265 0.23167402 0.80431224
0.21868218 0.40569766 0.80047080
0.21814199 0.40142253 0.80012788
0.61915484 0.41673553 0.80348941
1.07707962 0.23113553 0.86391060
1.09018265 0.23130754 0.80509078
0.24235939 0.96433426 0.79889119
0.24211753 0.96384427 0.79907015
0.40082931 0.96176172 0.80322704
1.09018265 0.96648517 0.83827747
1.09018265 0.59746321 0.81112830
0.70703590 1.01186717 0.82012757
0.73836028 1.01205640 0.82043898
0.90778770 1.01005505 0.81628062
1.08293820 1.00471426 0.83892038
1.09018265 1.06597097 0.88762151
0.24809745 0.45655814 0.83367335
0.24739603 0.45180289 0.83330584
0.66567136 0.52033454 0.83944806
1.05409941 0.21810349 0.93319626
1.05474012 0.19278093 0.93323579
0.25239624 0.48845331 0.83634006
0.25193865 0.48471165 0.83600976
0.66464354 0.56368656 0.83961509
1.05640547 0.25444315 0.93525174
1.05474012 0.19278093 0.93323579
0.25089960 0.65546312 0.85383932
0.25125981 0.65302537 0.85356656
0.61230814 0.69135587 0.84906427
1.08464263 0.62818716 0.93088579
1.05474012 0.19278093 0.93323579
0.22712488 0.94318900 0.85456439
0.22698642 0.94239335 0.85479236
0.40880680 0.93792030 0.85702539
1.02835903 0.91960250 0.84892856
1.09018265 0.71311253 0.92020195
0.71642848 0.99851410 0.84884143
0.74028682 0.99795617 0.84826237
0.89750644 0.98682464 0.83773802
1.03298270 0.97051667 0.84564732
1.09018265 1.00099864 0.88237008
