public/luts/EV_DREAMALITY_AFRICA_LUT.cube
TITLE "EV_SURF_AFRICA_LUT"
LUT_3D_SIZE 33
# MLUTS-Log3/Sony S-Gamut3.cine -> LA - EV_SURF_AFRICA_LUT/LA - EV_SURF_AFRICA_LUT, CineEI Shift 0.00, Black Level 2.58% IRE, Input 109% -> Output 100% - Created with LUTCalc v4.09 by Ben Turley February 2025
0.02844610 0.00829860 0.09974469
0.02984138 0.00927325 0.10082714
0.03100616 0.01024791 0.10192207
0.03304459 0.01219176 0.10406616
0.03574114 0.01428473 0.10641821
0.04103591 0.01788938 0.11032068
0.04734241 0.02204185 0.11502357
0.05828515 0.02671263 0.12230957
0.07278727 0.03285049 0.13115916
0.09807232 0.04167499 0.14175422
0.13574275 0.05334925 0.15504735
0.19950088 0.07170538 0.17342900
0.33160501 0.10481238 0.19904712
0.46692624 0.13076419 0.22256881
0.59766915 0.11647217 0.21148277
0.73126171 0.10427341 0.20170203
0.83511546 0.10617123 0.19939947
0.94369236 0.10810135 0.19715427
0.97241997 0.16242696 0.23879209
0.99453904 0.21593847 0.27978567
1.04872631 0.23682881 0.29575517
1.09018265 0.24519537 0.30629795
1.09018265 0.24887997 0.31145143
1.09018265 0.25014877 0.31336211
1.09018265 0.25081567 0.31453380
1.09018265 0.25095403 0.31505007
1.09018265 0.25104714 0.31545658
1.09018265 0.25107235 0.31569734
1.09018265 0.25109287 0.31590034
1.09018265 0.25110048 0.31599900
1.09018265 0.25110758 0.31609032
1.09018265 0.25111139 0.31613374
1.09018265 0.25111519 0.31617717
0.03026383 0.00982468 0.10132859
0.03040994 0.00987686 0.10141009
0.03148568 0.01085151 0.10251161
0.03301570 0.01230407 0.10412242
0.03558159 0.01432144 0.10639017
0.04072109 0.01778485 0.11015168
0.04692604 0.02188785 0.11479117
0.05788317 0.02660559 0.12210249
0.07242560 0.03277352 0.13098417
0.09782578 0.04159146 0.14164205
0.13560008 0.05330571 0.15499933
0.19952159 0.07168288 0.17340169
0.33192431 0.10483458 0.19907002
0.46722841 0.13077697 0.22258314
0.59781907 0.11643666 0.21144697
0.73139198 0.10424504 0.20167211
0.83517251 0.10618132 0.19940637
0.94377475 0.10811161 0.19716100
0.97242425 0.16246390 0.23882638
0.99453954 0.21598486 0.27982171
1.04873756 0.23683781 0.29576427
1.09018265 0.24519678 0.30630040
1.09018265 0.24888045 0.31145237
1.09018265 0.25014877 0.31336251
1.09018265 0.25081567 0.31453399
1.09018265 0.25095403 0.31505007
1.09018265 0.25104714 0.31545658
1.09018265 0.25107235 0.31569734
1.09018265 0.25109287 0.31590034
1.09018265 0.25110048 0.31599900
1.09018265 0.25110758 0.31609032
1.09018265 0.25111139 0.31613374
1.09018265 0.25111519 0.31617717
0.03170675 0.01135076 0.10293891
0.03182661 0.01140294 0.10302174
0.03194286 0.01145511 0.10310463
0.03341705 0.01290767 0.10472469
0.03553258 0.01443375 0.10644763
0.04059167 0.01782157 0.11012239
0.04658459 0.02178332 0.11461279
0.05748967 0.02650497 0.12186234
0.07207001 0.03269678 0.13078609
0.09747551 0.04147797 0.14147525
0.13532219 0.05323194 0.15489098
0.19938360 0.07163876 0.17334797
0.33194387 0.10481057 0.19904559
0.46757061 0.13080162 0.22261051
0.59813932 0.11644973 0.21146056
0.73152718 0.10421394 0.20163955
0.83529815 0.10615245 0.19937723
0.94385707 0.10812187 0.19716773
0.97248230 0.16247373 0.23883327
0.99454441 0.21602895 0.27985579
1.04873808 0.23687738 0.29580059
1.09018265 0.24520608 0.30631010
1.09018265 0.24888187 0.31145438
1.09018265 0.25014924 0.31336346
1.09018265 0.25081567 0.31453440
1.09018265 0.25095403 0.31505026
1.09018265 0.25104714 0.31545658
1.09018265 0.25107235 0.31569734
1.09018265 0.25109287 0.31590034
1.09018265 0.25110048 0.31599900
1.09018265 0.25110758 0.31609032
1.09018265 0.25111139 0.31613374
1.09018265 0.25111519 0.31617717
0.03419306 0.01469967 0.10603135
0.03393450 0.01434764 0.10575243
0.03407588 0.01439982 0.10583746
0.03481460 0.01471217 0.10626340
0.03747098 0.01623824 0.10800992
0.04157285 0.01922925 0.11117842
0.04757004 0.02285938 0.11563119
0.05811680 0.02725939 0.12245321
0.07252092 0.03314491 0.13116532
0.09757281 0.04175348 0.14154454
0.13510116 0.05319221 0.15471177
0.19912448 0.07158644 0.17319202
0.33157974 0.10472107 0.19894439
0.46735628 0.13072714 0.22251963
0.59830676 0.11642366 0.21143389
0.73164786 0.10418667 0.20161044
0.83536438 0.10615698 0.19937937
0.94394530 0.10812930 0.19717234
0.97249041 0.16250912 0.23886600
0.99455365 0.21607120 0.27988832
1.04874933 0.23688605 0.29580899
1.09018265 0.24521234 0.30631653
1.09018265 0.24888225 0.31145489
1.09018265 0.25014943 0.31336373
1.09018265 0.25081567 0.31453445
1.09018265 0.25095403 0.31505031
1.09018265 0.25104714 0.31545658
1.09018265 0.25107235 0.31569734
1.09018265 0.25109287 0.31590034
1.09018265 0.25110048 0.31599900
1.09018265 0.25110758 0.31609032
1.09018265 0.25111139 0.31613374
1.09018265 0.25111519 0.31617717
0.03802638 0.01832902 0.10944532
0.03776099 0.01791480 0.10909885
0.03755439 0.01756278 0.10881193
0.03813519 0.01787512 0.10925005
0.03884084 0.01822749 0.10974613
0.04319903 0.02121849 0.11299900
0.04881440 0.02392051 0.11691560
0.05923916 0.02855241 0.12367064
0.07321292 0.03383726 0.13179004
0.09813466 0.04252033 0.14199274
0.13523835 0.05344527 0.15477607
0.19893768 0.07155554 0.17298995
0.33129883 0.10465867 0.19879665
0.46692736 0.13062037 0.22238889
0.59804925 0.11633964 0.21133968
0.73177121 0.10415694 0.20157885
0.83547137 0.10613478 0.19935621
0.94402624 0.10813956 0.19717951
0.97254374 0.16252092 0.23887531
0.99455415 0.21611815 0.27992479
1.04874984 0.23692608 0.29584578
1.09018265 0.24521597 0.30632052
1.09018265 0.24888319 0.31145610
1.09018265 0.25014962 0.31336397
1.09018265 0.25081567 0.31453445
1.09018265 0.25095403 0.31505031
1.09018265 0.25104714 0.31545658
1.09018265 0.25107235 0.31569734
1.09018265 0.25109287 0.31590034
1.09018265 0.25110048 0.31599900
1.09018265 0.25110758 0.31609032
1.09018265 0.25111139 0.31613374
1.09018265 0.25111519 0.31617717
0.04418949 0.02510942 0.11552650
0.04366116 0.02451534 0.11502554
0.04332853 0.02416702 0.11465351
0.04329182 0.02380307 0.11441330
0.04412008 0.02405566 0.11494313
0.04681176 0.02495082 0.11626349
0.05183969 0.02725360 0.12026741
0.06395807 0.03246379 0.12662470
0.07746298 0.03835464 0.13442723
0.10288708 0.04609432 0.14344488
0.14098510 0.05640274 0.15562680
0.20308722 0.07237664 0.17240669
0.33370762 0.10322156 0.19683372
0.46867295 0.12941217 0.22064359
0.59773845 0.11630303 0.21120670
0.73165404 0.10414386 0.20148844
0.83555608 0.10613613 0.19935441
0.94412945 0.10814914 0.19718520
0.97255928 0.16255960 0.23891059
0.99456757 0.21616668 0.27996178
1.04876285 0.23693809 0.29585728
1.09018265 0.24522836 0.30633276
1.09018265 0.24888357 0.31145655
1.09018265 0.25014988 0.31336430
1.09018265 0.25081567 0.31453445
1.09018265 0.25095403 0.31505031
1.09018265 0.25104714 0.31545658
1.09018265 0.25107235 0.31569734
1.09018265 0.25109287 0.31590034
1.09018265 0.25110048 0.31599900
1.09018265 0.25110758 0.31609032
1.09018265 0.25111139 0.31613374
1.09018265 0.25111519 0.31617717
0.05155536 0.03193033 0.12286570
0.05105881 0.03140912 0.12230165
0.05062210 0.03093922 0.12178556
0.05048414 0.03050726 0.12141427
0.05047484 0.03011405 0.12116747
0.05265286 0.03086697 0.12252389
0.05556883 0.03172780 0.12417474
0.06746529 0.03651127 0.13046431
0.08318210 0.04332524 0.13766430
0.10822296 0.05124359 0.14661614
0.14801251 0.06095296 0.15716378
0.21109500 0.07620310 0.17352239
0.33856824 0.10357245 0.19568349
0.47224138 0.12716827 0.21751765
0.59964724 0.11511516 0.20955623
0.73142117 0.10413485 0.20136473
0.83542958 0.10613429 0.19927679
0.94423240 0.10816220 0.19719372
0.97261755 0.16257945 0.23892666
0.99456807 0.21622541 0.28000691
1.04876450 0.23698492 0.29589993
1.09018265 0.24523024 0.30633521
1.09018265 0.24888547 0.31145856
1.09018265 0.25015000 0.31336443
1.09018265 0.25081567 0.31453445
1.09018265 0.25095403 0.31505031
1.09018265 0.25104714 0.31545658
1.09018265 0.25107235 0.31569734
1.09018265 0.25109287 0.31590034
1.09018265 0.25110048 0.31599900
1.09018265 0.25110758 0.31609032
1.09018265 0.25111139 0.31613374
1.09018265 0.25111519 0.31617717
0.06425815 0.04785208 0.13328389
0.06365061 0.04692190 0.13288842
0.06293894 0.04626091 0.13237745
0.06242431 0.04535990 0.13200770
0.06226204 0.04484267 0.13167283
0.06346844 0.04421738 0.13143746
0.06636658 0.04522771 0.13293346
0.07445472 0.04769331 0.13421731
0.09188963 0.05395682 0.14136878
0.12167072 0.06482911 0.14834641
0.16140164 0.07379263 0.15831583
0.23087091 0.08643054 0.16507978
0.35736057 0.10957764 0.18236186
0.48513963 0.12971555 0.20261187
0.60407113 0.11456678 0.20143840
0.73356470 0.10440499 0.19557441
0.83519276 0.10623522 0.19916274
0.94403460 0.10827236 0.19712438
0.97264741 0.16263946 0.23898139
0.99458568 0.21630583 0.28006853
1.04878452 0.23700658 0.29592063
1.09018265 0.24524928 0.30635418
1.09018265 0.24888623 0.31145961
1.09018265 0.25015076 0.31336548
1.09018265 0.25081567 0.31453448
1.09018265 0.25095403 0.31505031
1.09018265 0.25104714 0.31545658
1.09018265 0.25107235 0.31569734
1.09018265 0.25109287 0.31590034
1.09018265 0.25110048 0.31599900
1.09018265 0.25110758 0.31609032
1.09018265 0.25111139 0.31613374
1.09018265 0.25111519 0.31617717
0.07853806 0.06903514 0.14500159
0.07800093 0.06818434 0.14468540
0.07744121 0.06748110 0.14429272
0.07689472 0.06667470 0.14392052
0.07646544 0.06595461 0.14357408
0.07719472 0.06527755 0.14306580
0.07855343 0.06466881 0.14276805
0.08912853 0.06650437 0.14404425
0.10103680 0.06911930 0.14517926
0.13299400 0.07883208 0.15213204
0.17844121 0.09371673 0.15872208
0.25069863 0.10495205 0.16499393
0.38360503 0.12120380 0.16499937
0.51104436 0.13746103 0.17933415
0.61795054 0.11821388 0.18576141
0.73765679 0.10489859 0.18567948
0.83730183 0.10658419 0.19350996
0.94368257 0.10844995 0.19701729
0.97248259 0.16278335 0.23893670
0.99458718 0.21641536 0.28015329
1.04879237 0.23708178 0.29598992
1.09018265 0.24525209 0.30635859
1.09018265 0.24888888 0.31146301
1.09018265 0.25015076 0.31336589
1.09018265 0.25081567 0.31453489
1.09018265 0.25095403 0.31505034
1.09018265 0.25104714 0.31545658
1.09018265 0.25107235 0.31569734
1.09018265 0.25109287 0.31590034
1.09018265 0.25110048 0.31599900
1.09018265 0.25110758 0.31609032
1.09018265 0.25111139 0.31613374
1.09018265 0.25111519 0.31617717
0.09380948 0.10470954 0.15134042
0.09354740 0.10375506 0.15131203
0.09310989 0.10279095 0.15099781
0.09284509 0.10183352 0.15094980
0.09240250 0.10084976 0.15060067
0.09253144 0.09978176 0.15049201
0.09339880 0.09887005 0.14992357
0.09881653 0.09845738 0.14840215
0.11168619 0.10137377 0.14953252
0.14903625 0.10699454 0.14031064
0.19190853 0.12195959 0.14713750
0.26834713 0.13829068 0.15296247
0.40125013 0.15415555 0.15348371
0.53036050 0.16395862 0.15672243
0.63646421 0.14846122 0.16640180
0.74686769 0.12978487 0.17519373
0.84029955 0.11955171 0.18682585
0.94485290 0.12148527 0.19475064
0.97234842 0.16262372 0.23857186
0.99452924 0.21619359 0.27985536
1.04882113 0.23713390 0.29603901
1.09018265 0.24528716 0.30639351
1.09018265 0.24889039 0.31146494
1.09018265 0.25015209 0.31336762
1.09018265 0.25081567 0.31453511
1.09018265 0.25095403 0.31505055
1.09018265 0.25104714 0.31545658
1.09018265 0.25107235 0.31569734
1.09018265 0.25109287 0.31590034
1.09018265 0.25110048 0.31599900
1.09018265 0.25110758 0.31609032
1.09018265 0.25111139 0.31613374
1.09018265 0.25111519 0.31617717
0.10559944 0.15919521 0.15162682
0.10553192 0.15827108 0.15192486
0.10523325 0.15732235 0.15189649
0.10510512 0.15637442 0.15210229
0.10485860 0.15539613 0.15213429
0.10475370 0.15418597 0.15225464
0.10504970 0.15297411 0.15231668
0.11054841 0.15195978 0.15023665
0.12048202 0.15149324 0.14770426
0.15701388 0.15724105 0.13846837
0.21445680 0.16576660 0.11597829
0.29007587 0.17996516 0.12243411
0.41557057 0.19557321 0.12678677
0.54223699 0.20610961 0.13099757
0.64755809 0.19555957 0.14777987
0.76097389 0.18119462 0.15868915
0.84566777 0.15744200 0.17951206
0.94681149 0.14836396 0.19158599
0.97310598 0.17585390 0.23647530
0.99452527 0.21555457 0.27920209
1.04883833 0.23677189 0.29560278
1.09018265 0.24529232 0.30640136
1.09018265 0.24889456 0.31147008
1.09018265 0.25015209 0.31336762
1.09018265 0.25081567 0.31453511
1.09018265 0.25095403 0.31505055
1.09018265 0.25104714 0.31545658
1.09018265 0.25107235 0.31569734
1.09018265 0.25109287 0.31590034
1.09018265 0.25110048 0.31599900
1.09018265 0.25110758 0.31609032
1.09018265 0.25111139 0.31613374
1.09018265 0.25111519 0.31617717
0.11476012 0.21269796 0.14281615
0.11464709 0.21168851 0.14299919
0.11457202 0.21061623 0.14329973
0.11445533 0.20960733 0.14347567
0.11437635 0.20853925 0.14376379
0.11428930 0.20732362 0.14393474
0.11433634 0.20593579 0.14422796
0.11698013 0.20442432 0.14348456
0.12650222 0.20336420 0.14036932
0.15681848 0.20390614 0.13686091
0.21422742 0.21355109 0.11425479
0.30475731 0.22651902 0.10442139
0.43091361 0.24576147 0.10823246
0.55227632 0.25903611 0.11131387
0.65940594 0.24883001 0.12707232
0.77337868 0.23772598 0.14389627
0.85632351 0.21041417 0.16312304
0.95211734 0.18575457 0.18334095
0.97419122 0.19741072 0.23408933
0.99502382 0.23041192 0.27837851
1.04859837 0.23635728 0.29499064
1.09018265 0.24505305 0.30598462
1.09018265 0.24889820 0.31147464
1.09018265 0.25015469 0.31337091
1.09018265 0.25081567 0.31453524
1.09018265 0.25095403 0.31505069
1.09018265 0.25104714 0.31545658
1.09018265 0.25107235 0.31569734
1.09018265 0.25109287 0.31590034
1.09018265 0.25110048 0.31599900
1.09018265 0.25110758 0.31609032
1.09018265 0.25111139 0.31613374
1.09018265 0.25111519 0.31617717
0.11591552 0.28103400 0.11417552
0.11572494 0.28027649 0.11411996
0.11561100 0.27939370 0.11431537
0.11543170 0.27859001 0.11430866
0.11529823 0.27771128 0.11444635
0.11508898 0.27670750 0.11447401
0.11495429 0.27557879 0.11455499
0.11522964 0.27390370 0.11462050
0.11804564 0.27220585 0.11366170
0.14810518 0.27149218 0.11334878
0.19674792 0.27238195 0.11305534
0.28821746 0.28340145 0.10334918
0.43103747 0.29878839 0.11633025
0.55239153 0.31208348 0.11968243
0.66865032 0.30552215 0.11920793
0.78460634 0.29486554 0.13448290
0.86569507 0.27612106 0.14709128
0.96130668 0.25190744 0.16618799
0.97741179 0.24076994 0.22545649
0.99552306 0.25481612 0.27884748
1.04852582 0.24876673 0.29499711
1.09018265 0.24489306 0.30542884
1.09018265 0.24879067 0.31114616
1.09018265 0.25015516 0.31337172
1.09018265 0.25081605 0.31453597
1.09018265 0.25095403 0.31505110
1.09018265 0.25104714 0.31545696
1.09018265 0.25107235 0.31569734
1.09018265 0.25109287 0.31590034
1.09018265 0.25110048 0.31599900
1.09018265 0.25110758 0.31609032
1.09018265 0.25111139 0.31613374
1.09018265 0.25111519 0.31617717
0.11436508 0.35553445 0.09492184
0.11431793 0.35478981 0.09488153
0.11412993 0.35401099 0.09483686
0.11408234 0.35324933 0.09479546
0.11388973 0.35245368 0.09474962
0.11383719 0.35152956 0.09469914
0.11358427 0.35050646 0.09463959
0.11389692 0.34901744 0.09457111
0.11432046 0.34712027 0.09449105
0.13320571 0.34549438 0.09516168
0.18262360 0.34515471 0.09772174
0.27021713 0.34764206 0.10263867
0.41205952 0.36354509 0.11551233
0.55697980 0.37306121 0.12980795
0.67335364 0.36627470 0.12934156
0.79540160 0.35748869 0.12853307
0.87756401 0.33620428 0.13898947
0.96755118 0.31856963 0.15155334
0.98632013 0.30808851 0.20985384
1.00027339 0.29780964 0.27691730
1.05134120 0.27898249 0.29598520
1.09018265 0.26400988 0.30598547
1.09018265 0.24908944 0.31055649
1.09018265 0.25050887 0.31299980
1.09018265 0.25081643 0.31453671
1.09018265 0.25095431 0.31505175
1.09018265 0.25104714 0.31545729
1.09018265 0.25107235 0.31569764
1.09018265 0.25109287 0.31590034
1.09018265 0.25110048 0.31599900
1.09018265 0.25110758 0.31609032
1.09018265 0.25111139 0.31613374
1.09018265 0.25111519 0.31617717
0.10290372 0.49053593 0.10166702
0.10335949 0.48995517 0.10164241
0.10331784 0.48923410 0.10159884
0.10370295 0.48859995 0.10156956
0.10374570 0.48787652 0.10152772
0.10413794 0.48707521 0.10148875
0.10429653 0.48615984 0.10143800
0.10486640 0.48481123 0.10137120
0.10568417 0.48310811 0.10129552
0.11373527 0.48085830 0.10136168
0.14135210 0.47881460 0.10226441
0.22778717 0.47969015 0.10686307
0.38512254 0.48461660 0.11631770
0.53300285 0.49341183 0.13060512
0.69735390 0.47585726 0.14425066
0.81219996 0.46739846 0.14350929
0.89155640 0.42825635 0.13839049
0.97421748 0.40588524 0.14861533
0.99808654 0.39014210 0.21528794
1.01233240 0.37808988 0.28441052
1.06424652 0.34168340 0.30091109
1.09018265 0.31791959 0.30928226
1.09018265 0.27976536 0.31171208
1.09018265 0.25265886 0.31221753
1.09018265 0.25224967 0.31401177
1.09018265 0.25095431 0.31505216
1.09018265 0.25104714 0.31545761
1.09018265 0.25107235 0.31569764
1.09018265 0.25109287 0.31590034
1.09018265 0.25110048 0.31599900
1.09018265 0.25110758 0.31609032
1.09018265 0.25111139 0.31613374
1.09018265 0.25111519 0.31617717
0.09220217 0.61684261 0.10873656
0.09257568 0.61631777 0.10871128
0.09297900 0.61576928 0.10868504
0.09336555 0.61522079 0.10865821
0.09378461 0.61464353 0.10863010
0.09425177 0.61397123 0.10859666
0.09478905 0.61317343 0.10855921
0.09553316 0.61184659 0.10850321
0.09653747 0.61004563 0.10843024
0.10315005 0.60782173 0.10849017
0.12027677 0.60486118 0.10874775
0.17983863 0.60398016 0.11143427
0.33876039 0.60765389 0.12071857
0.50817349 0.60861490 0.13142688
0.67063815 0.58953975 0.14503883
0.83105083 0.56996524 0.15812157
0.91357346 0.53287551 0.15320494
0.98315619 0.49619267 0.14813141
1.00769832 0.48059687 0.20771405
1.02634890 0.46692699 0.28533080
1.07932262 0.43101309 0.30769867
1.09018265 0.38631397 0.31291050
1.09018265 0.33626055 0.31444072
1.09018265 0.28740713 0.31332106
1.09018265 0.25520746 0.31327913
1.09018265 0.25318903 0.31457929
1.09018265 0.25104714 0.31545802
1.09018265 0.25107235 0.31569796
1.09018265 0.25109287 0.31590034
1.09018265 0.25110048 0.31599900
1.09018265 0.25110758 0.31609032
1.09018265 0.25111139 0.31613374
1.09018265 0.25111519 0.31617717
0.07090167 0.70613571 0.11373168
0.07088876 0.70593168 0.11371911
0.07128693 0.70532033 0.11369199
0.07133186 0.70504398 0.11367648
0.07168401 0.70445735 0.11364964
0.07179087 0.70408604 0.11363018
0.07216411 0.70340481 0.11359820
0.07237105 0.70271459 0.11356194
0.07291843 0.70153077 0.11350449
0.07345649 0.70010060 0.11343233
0.08008744 0.69828599 0.11350356
0.12208476 0.69685319 0.11467357
0.23204480 0.69893730 0.11938928
0.40846552 0.70367739 0.13053909
0.63448109 0.70906785 0.14646314
0.80187428 0.68827584 0.15946722
0.91673300 0.64795042 0.16893655
0.98850257 0.61115502 0.16395568
1.03900511 0.58588950 0.16005300
1.06348794 0.57079097 0.22146691
1.09018265 0.55277047 0.28475618
1.09018265 0.51809744 0.30374386
1.09018265 0.46526647 0.31319966
1.09018265 0.40855356 0.31653565
1.09018265 0.32443091 0.31499229
1.09018265 0.26739123 0.31458824
1.09018265 0.26051466 0.31546415
1.09018265 0.25107235 0.31569837
1.09018265 0.25109287 0.31590067
1.09018265 0.25110048 0.31599900
1.09018265 0.25110758 0.31609032
1.09018265 0.25111139 0.31613374
1.09018265 0.25111519 0.31617717
0.05147616 0.80038292 0.11899812
0.05146374 0.80024091 0.11898508
0.05145132 0.80009864 0.11897204
0.05146598 0.79992605 0.11895701
0.05145237 0.79977193 0.11894293
0.05146622 0.79957596 0.11892617
0.05145060 0.79939359 0.11891000
0.05146046 0.79905591 0.11888087
0.05142642 0.79866253 0.11884594
0.05144454 0.79803482 0.11879259
0.05137810 0.79725405 0.11872483
0.08184920 0.79701013 0.11972228
0.17428988 0.79811164 0.12279497
0.29892043 0.80036618 0.12924326
0.53567306 0.80656089 0.14561409
0.76749197 0.80910680 0.16080963
0.87845731 0.77505580 0.17038593
0.99358792 0.72815810 0.17919379
1.04476354 0.70344908 0.17591953
1.09018265 0.67921929 0.17212299
1.09018265 0.65971774 0.22077336
1.09018265 0.64051217 0.28108459
1.09018265 0.59224754 0.30408780
1.09018265 0.53259701 0.31528409
1.09018265 0.44866263 0.31822861
1.09018265 0.33543263 0.31631051
1.09018265 0.27461791 0.31547314
1.09018265 0.26054002 0.31570451
1.09018265 0.25109287 0.31590108
1.09018265 0.25110048 0.31599933
1.09018265 0.25110758 0.31609032
1.09018265 0.25111139 0.31613374
1.09018265 0.25111519 0.31617717
0.05402560 0.85254459 0.12300693
0.05401951 0.85244760 0.12300115
0.05400621 0.85223486 0.12298801
0.05399738 0.85210493 0.12297988
0.05398323 0.85188336 0.12296614
0.05397244 0.85171671 0.12295619
0.05395719 0.85147268 0.12294147
0.05393896 0.85118875 0.12292422
0.05390832 0.85070898 0.12289479
0.05387143 0.85014291 0.12285981
0.05381618 0.84929240 0.12280717
0.05378993 0.84823876 0.12276546
0.09087210 0.84828053 0.12400335
0.20389987 0.85121591 0.12843209
0.43244515 0.86014545 0.13957577
0.66588998 0.86934178 0.15605954
0.86927312 0.86581792 0.17601044
0.98627718 0.82543152 0.18395777
1.07226625 0.80121560 0.18736272
1.09018265 0.78133402 0.18393605
1.09018265 0.76515214 0.18234330
1.09018265 0.74109348 0.23401886
1.09018265 0.72042876 0.25399828
1.09018265 0.66812117 0.26280662
1.09018265 0.61351223 0.28563287
1.09018265 0.52690472 0.29717160
1.09018265 0.38910368 0.30561813
1.09018265 0.28936811 0.31787990
1.09018265 0.27155690 0.31745383
1.09018265 0.25110048 0.31599935
1.09018265 0.25110758 0.31609032
1.09018265 0.25111139 0.31613374
1.09018265 0.25111519 0.31617717
0.05854386 0.91627630 0.12691645
0.05853747 0.91623149 0.12691124
0.05853048 0.91618232 0.12690550
0.05852035 0.91611608 0.12689744
0.05851101 0.91605604 0.12689014
0.05849912 0.91597395 0.12688072
0.05848831 0.91589926 0.12687237
0.05846905 0.91576366 0.12685683
0.05844696 0.91560808 0.12683910
0.05841111 0.91535289 0.12681014
0.05836798 0.91504503 0.12677571
0.05835561 0.91458982 0.12674991
0.05842766 0.91402397 0.12676138
0.12026797 0.91484577 0.12934283
0.33761013 0.91893616 0.13848347
0.56148841 0.92451577 0.14979293
0.78674703 0.92598848 0.17156853
0.98067944 0.92416783 0.18919909
1.06630811 0.90116417 0.19278447
1.09018265 0.86285067 0.19611880
1.09018265 0.84669793 0.19432637
1.09018265 0.83446773 0.19305009
1.09018265 0.81713392 0.20458931
1.09018265 0.80127577 0.20527915
1.09018265 0.75497162 0.22801230
1.09018265 0.69785615 0.26236026
1.09018265 0.58295316 0.28467924
1.09018265 0.40700482 0.30869396
1.09018265 0.30107323 0.31980087
1.09018265 0.27156444 0.31755268
1.09018265 0.25110758 0.31609032
1.09018265 0.25111139 0.31613374
1.09018265 0.25111519 0.31617717
0.06292299 0.96272477 0.13012799
0.06291790 0.96267957 0.13012455
0.06291056 0.96260444 0.13011949
0.06290524 0.96255285 0.13011592
0.06289451 0.96245217 0.13010883
0.06288668 0.96238048 0.13010398
0.06287464 0.96225883 0.13009615
0.06286256 0.96213732 0.13008806
0.06283989 0.96190176 0.13007262
0.06281480 0.96164578 0.13005570
0.06277353 0.96121236 0.13002771
0.06272689 0.96070928 0.12999597
0.06275179 0.95998573 0.12998907
0.08043025 0.95973673 0.13066279
0.22403619 0.96418665 0.13617774
0.44945452 0.96979028 0.14555304
0.69967031 0.97728237 0.16181259
0.91777941 0.97991277 0.18222224
1.06228655 0.96752433 0.19938225
1.09018265 0.93338504 0.20297383
1.09018265 0.92220243 0.20364785
1.09018265 0.91364245 0.20223177
1.09018265 0.90410459 0.20402571
1.09018265 0.87803543 0.20508193
1.09018265 0.85656865 0.20480084
1.09018265 0.81571423 0.23200302
1.09018265 0.77623910 0.24968134
1.09018265 0.64404567 0.26179457
1.09018265 0.45579643 0.29430973
1.09018265 0.31715773 0.32232105
1.09018265 0.28515855 0.31964207
1.09018265 0.25111139 0.31613374
1.09018265 0.25111519 0.31617717
0.06647175 1.00563086 0.13299416
0.06646874 1.00558090 0.13299130
0.06646537 1.00552846 0.13298806
0.06646212 1.00547300 0.13298495
0.06645884 1.00541753 0.13298184
0.06645364 1.00533358 0.13297727
0.06644914 1.00526121 0.13297346
0.06644137 1.00512174 0.13296610
0.06643350 1.00497786 0.13295848
0.06641861 1.00469903 0.13294445
0.06640213 1.00440070 0.13292921
0.06637654 1.00410837 0.13290508
0.06634922 1.00379011 0.13287937
0.08456426 1.00379378 0.13349665
0.17830937 1.00638449 0.13662300
0.32445722 1.01050354 0.14247553
0.58994670 1.02051099 0.15695877
0.84045413 1.02908870 0.17330905
0.99558654 1.01696569 0.19154802
1.09018265 1.00303119 0.21062830
1.09018265 0.98699753 0.21135222
1.09018265 0.97441060 0.21126721
1.09018265 0.96512380 0.21321501
1.09018265 0.95294668 0.21697077
1.09018265 0.93180972 0.21706878
1.09018265 0.91936062 0.21583621
