public/luts/EV_DREAMALITY_AFRICA_LUT.cube
TITLE "EV_SURF_AFRICA_LUT"
LUT_3D_SIZE 9
# MLUTS-Log3/Sony S-Gamut3.cine -> LA - EV_SURF_AFRICA_LUT/LA - EV_SURF_AFRICA_LUT, CineEI Shift 0.00, Black Level 2.58% IRE, Input 109% -> Output 100% - Created with LUTCalc v4.09 by Ben Turley February 2025
0.02844610 0.00829860 0.09974469
0.03574114 0.01428473 0.10641821
0.07278727 0.03285049 0.13115916
0.33160501 0.10481238 0.19904712
0.83511546 0.10617123 0.19939947
1.04872631 0.23682881 0.29575517
1.09018265 0.25081567 0.31453380
1.09018265 0.25109287 0.31590034
1.09018265 0.25111519 0.31617717
0.03802638 0.01832902 0.10944532
0.03884084 0.01822749 0.10974613
0.07321292 0.03383726 0.13179004
0.33129883 0.10465867 0.19879665
0.83547137 0.10613478 0.19935621
1.04874984 0.23692608 0.29584578
1.09018265 0.25081567 0.31453445
1.09018265 0.25109287 0.31590034
1.09018265 0.25111519 0.31617717
0.07853806 0.06903514 0.14500159
0.07646544 0.06595461 0.14357408
0.10103680 0.06911930 0.14517926
0.38360503 0.12120380 0.16499937
0.83730183 0.10658419 0.19350996
1.04879237 0.23708178 0.29598992
1.09018265 0.25081567 0.31453489
1.09018265 0.25109287 0.31590034
1.09018265 0.25111519 0.31617717
0.11591552 0.28103400 0.11417552
0.11529823 0.27771128 0.11444635
0.11804564 0.27220585 0.11366170
0.43103747 0.29878839 0.11633025
0.86569507 0.27612106 0.14709128
1.04852582 0.24876673 0.29499711
1.09018265 0.25081605 0.31453597
1.09018265 0.25109287 0.31590034
1.09018265 0.25111519 0.31617717
0.07090167 0.70613571 0.11373168
0.07168401 0.70445735 0.11364964
0.07291843 0.70153077 0.11350449
0.23204480 0.69893730 0.11938928
0.91673300 0.64795042 0.16893655
1.09018265 0.55277047 0.28475618
1.09018265 0.32443091 0.31499229
1.09018265 0.25109287 0.31590067
1.09018265 0.25111519 0.31617717
0.06292299 0.96272477 0.13012799
0.06289451 0.96245217 0.13010883
0.06283989 0.96190176 0.13007262
0.06275179 0.95998573 0.12998907
0.69967031 0.97728237 0.16181259
1.09018265 0.92220243 0.20364785
1.09018265 0.85656865 0.20480084
1.09018265 0.45579643 0.29430973
1.09018265 0.25111519 0.31617717
0.07047875 1.07714319 0.13678749
0.07048150 1.07707315 0.13678749
0.07048579 1.07694531 0.13678673
0.07050239 1.07656702 0.13678699
0.38324668 1.08697566 0.15126936
1.09018265 1.08983738 0.21281594
1.09018265 1.05286808 0.23241645
1.09018265 1.03263785 0.23556516
1.09018265 0.58516187 0.31236125
0.05570268 1.07199289 0.32108712
0.05575996 1.07205798 0.32059183
0.07543215 1.07262947 0.32039836
0.12294988 1.07453123 0.32304157
0.56884299 1.09018265 0.27871008
1.09018265 1.09018265 0.30564717
1.09018265 1.08048421 0.43239023
1.09018265 1.05644097 0.23813244
1.09018265 1.05638923 0.23816379
0.77177335 1.06435736 0.69892417
0.78589760 1.06660218 0.69882637
0.80274710 1.07029300 0.69902600
0.84976892 1.08264881 0.69755895
0.98018233 1.09018265 0.68944125
1.09018265 1.09018265 0.72373434
1.09018265 1.09018265 0.78404564
1.09018265 1.09018265 0.73611841
1.09018265 1.05644207 0.23815501
0.03019906 0.00973247 0.10151514
0.03537221 0.01416396 0.10650834
0.07234013 0.03276833 0.13145607
0.33175811 0.10451398 0.20006151
0.83437137 0.10628369 0.20191157
1.04872755 0.23683596 0.29576167
1.09018265 0.25081567 0.31453380
1.09018265 0.25109287 0.31590034
1.09018265 0.25111519 0.31617717
0.03594904 0.01635866 0.10795361
0.03711074 0.01635145 0.10825642
0.07089267 0.03261338 0.13066682
0.32658200 0.10381571 0.19924148
0.83462799 0.10611241 0.20209128
1.04875108 0.23693311 0.29585216
1.09018265 0.25081567 0.31453445
1.09018265 0.25109287 0.31590034
1.09018265 0.25111519 0.31617717
0.07656400 0.06668972 0.14406856
0.07452719 0.06339205 0.14257140
0.09789269 0.06660898 0.14432897
0.36384255 0.11836367 0.16714944
0.83509545 0.10555679 0.19570615
1.04879402 0.23708894 0.29599655
1.09018265 0.25081567 0.31453489
1.09018265 0.25109287 0.31590034
1.09018265 0.25111519 0.31617717
0.11553369 0.27918664 0.11432447
0.11492533 0.27589609 0.11457013
0.11730568 0.27039337 0.11384159
0.42712029 0.29704702 0.11598581
0.86378027 0.27623111 0.14654148
1.04852072 0.24885894 0.29499773
1.09018265 0.25081605 0.31453597
1.09018265 0.25109287 0.31590034
1.09018265 0.25111519 0.31617717
0.07161310 0.70423179 0.11363490
0.07232863 0.70264859 0.11355709
0.07352115 0.69973582 0.11341208
0.23024191 0.69718181 0.11921629
0.91643158 0.64697267 0.16879357
1.09018265 0.55299533 0.28470802
1.09018265 0.32460886 0.31499174
1.09018265 0.25109287 0.31590067
1.09018265 0.25111519 0.31617717
0.06281420 0.96164837 0.13005488
0.06278478 0.96133895 0.13003522
0.06273007 0.96075419 0.12999809
0.06263904 0.95874004 0.12991436
0.69783220 0.97622201 0.16166102
1.09018265 0.92159318 0.20356410
1.09018265 0.85665923 0.20481364
1.09018265 0.45587099 0.29432192
1.09018265 0.25111519 0.31617717
0.07005720 1.07637121 0.13655148
0.07006188 1.07631203 0.13655274
0.07007417 1.07620910 0.13655705
0.07011926 1.07592095 0.13657493
0.37955002 1.08636550 0.15095872
1.09018265 1.08956189 0.21268418
1.09018265 1.05273460 0.23237227
1.09018265 1.03264941 0.23556662
1.09018265 0.58519468 0.31236447
0.05490564 1.07132012 0.33938718
0.05495719 1.07138452 0.33892945
0.07458803 1.07195395 0.33880789
0.12180630 1.07383685 0.34234167
0.57708599 1.09018265 0.29860942
1.09018265 1.09018265 0.30937758
1.09018265 1.08260560 0.45758730
1.09018265 1.05645033 0.23812963
1.09018265 1.05638923 0.23816379
0.77095440 1.06343139 0.70117025
0.78504667 1.06564676 0.70099975
0.80205843 1.06927937 0.70122557
0.84872348 1.08153802 0.70012997
0.97907407 1.09018265 0.69258062
1.09018265 1.09018265 0.72657911
1.09018265 1.09018265 0.78615564
1.09018265 1.09018265 0.73924814
1.09018265 1.05644523 0.23815501
0.03731007 0.01738352 0.11316232
0.03989550 0.01910084 0.11497363
0.07137211 0.03301761 0.13591832
0.33214993 0.10184813 0.21046410
0.83364006 0.10390121 0.22710750
1.04869081 0.23712111 0.29816469
1.09018265 0.25081567 0.31453424
1.09018265 0.25109287 0.31590034
1.09018265 0.25111519 0.31617717
0.03814103 0.01844652 0.11428415
0.03885730 0.01867413 0.11444730
0.06916240 0.03238475 0.13458683
0.33118262 0.10161488 0.21032501
0.83393350 0.10385055 0.22794439
1.04871118 0.23722824 0.29838754
1.09018265 0.25081567 0.31453445
1.09018265 0.25109287 0.31590034
1.09018265 0.25111519 0.31617717
0.07043876 0.05642017 0.14544786
0.06853402 0.05322582 0.14341598
0.08688602 0.05354778 0.14509812
0.33919768 0.10041627 0.20034882
0.83057265 0.10397959 0.22547970
1.04858045 0.23609559 0.29735421
1.09018265 0.25081567 0.31453489
1.09018265 0.25109287 0.31590034
1.09018265 0.25111519 0.31617717
0.09185107 0.27137715 0.11621183
0.09217890 0.26814066 0.11628967
0.09410437 0.26262027 0.11512664
0.41678179 0.28911354 0.11886662
0.85067797 0.27574705 0.15105593
1.04663272 0.24558129 0.28931858
1.09018265 0.25081605 0.31453597
1.09018265 0.25109287 0.31590034
1.09018265 0.25111519 0.31617717
0.06852741 0.69949064 0.11324234
0.06965229 0.69786757 0.11317712
0.07132428 0.69500311 0.11305254
0.22395747 0.69227156 0.11869593
0.91507146 0.64403756 0.16836431
1.09018265 0.55247771 0.27327433
1.09018265 0.32491481 0.31499055
1.09018265 0.25109287 0.31590067
1.09018265 0.25111519 0.31617717
0.06255410 0.95917430 0.12988908
0.06252866 0.95883481 0.12987118
0.06248276 0.95821402 0.12983837
0.06239208 0.95602348 0.12975440
0.69404618 0.97407874 0.16134035
1.09018265 0.91922445 0.20329408
1.09018265 0.85674927 0.20482578
1.09018265 0.45599532 0.29434180
1.09018265 0.25111519 0.31617717
0.06899694 1.07537712 0.13596904
0.06900882 1.07530528 0.13597411
0.06902920 1.07517511 0.13598248
0.06909548 1.07482021 0.13601063
0.37166271 1.08551838 0.15022806
1.09018265 1.08916612 0.21244077
1.09018265 1.05226645 0.23224474
1.09018265 1.03266868 0.23556927
1.09018265 0.58524877 0.31236921
0.05374417 1.07010475 0.36608786
0.05378917 1.07016654 0.36569071
0.07341118 1.07073046 0.36568264
0.12003309 1.07255557 0.37036141
0.59017283 1.09018265 0.32172690
1.09018265 1.09018265 0.31518397
1.09018265 1.08529903 0.48695105
1.09018265 1.05653303 0.23811194
1.09018265 1.05638923 0.23816379
0.76960838 1.06190076 0.70485195
0.78371530 1.06406191 0.70464265
0.80091098 1.06760081 0.70481910
0.84690411 1.07965553 0.70425838
0.97721749 1.09018265 0.69774741
1.09018265 1.09018265 0.73107005
1.09018265 1.09018265 0.78942762
1.09018265 1.09018265 0.74637481
1.09018265 1.05645308 0.23815330
0.06145823 0.03614890 0.16571472
0.06163105 0.03614403 0.16553008
0.08594655 0.04351994 0.17596063
0.32164619 0.09480330 0.26725824
0.82615743 0.10542087 0.32454644
1.04577322 0.24020946 0.34857232
1.09018265 0.25159508 0.32261729
1.09018265 0.25109287 0.31590034
1.09018265 0.25111519 0.31617717
0.06144906 0.03614236 0.16569863
0.06137926 0.03604101 0.16544007
0.08306804 0.04286882 0.17512379
0.32018482 0.09452894 0.26690849
0.82641424 0.10542889 0.32510800
1.04576730 0.24033677 0.34912472
1.09018265 0.25161704 0.32280872
1.09018265 0.25109287 0.31590034
1.09018265 0.25111519 0.31617717
0.06756311 0.04422931 0.17370571
0.06650665 0.04262252 0.17187521
0.07607953 0.04298684 0.17388129
0.31005027 0.09374121 0.26325428
0.82483906 0.10559524 0.32541588
1.04575767 0.24051416 0.34998311
1.09018265 0.25165132 0.32314393
1.09018265 0.25109287 0.31590034
1.09018265 0.25111519 0.31617717
0.10030656 0.22820116 0.25006384
0.09991561 0.22466377 0.24871344
0.09955656 0.21845364 0.24618024
0.33559483 0.21413829 0.24118074
0.85077597 0.19020509 0.28758537
1.04487917 0.24456492 0.34512178
1.09018265 0.25157274 0.32230300
1.09018265 0.25109287 0.31590034
1.09018265 0.25111519 0.31617717
0.03863966 0.67334169 0.20771731
0.03877155 0.67171616 0.20719226
0.03904679 0.66885118 0.20640982
0.07207744 0.66283607 0.12052543
0.90698785 0.60960918 0.17225879
1.09018265 0.55370776 0.32889913
1.09018265 0.33741657 0.32149443
1.09018265 0.25109287 0.31590067
1.09018265 0.25111519 0.31617717
0.05619874 0.94752073 0.12660420
0.05620739 0.94717554 0.12660170
0.05621215 0.94652320 0.12659168
0.05623119 0.94427478 0.12655854
0.65828561 0.96690009 0.15848591
1.09018265 0.91502046 0.20176365
1.09018265 0.86053907 0.20492090
1.09018265 0.45637693 0.29440350
1.09018265 0.25111519 0.31617717
0.06402386 1.07203238 0.17072704
0.06404141 1.07196124 0.17056801
0.06407097 1.07182060 0.17026268
0.06417761 1.07144892 0.16917073
0.34731256 1.08295485 0.14703719
1.09018265 1.08867651 0.21139250
1.09018265 1.05084247 0.23147925
1.09018265 1.03272069 0.23557563
1.09018265 0.58541223 0.31238373
0.05100284 1.06626008 0.42718267
0.05103431 1.06631238 0.42689998
0.07030852 1.06684878 0.42689360
0.11540058 1.06847174 0.43202165
0.59611660 1.09018265 0.45553831
1.09018265 1.09018265 0.33177155
1.09018265 1.09018265 0.57831062
1.09018265 1.05773615 0.23793379
1.09018265 1.05638923 0.23816379
0.76567562 1.05739667 0.71543913
0.78009712 1.05935044 0.71537552
0.79748069 1.06263903 0.71510374
0.84174633 1.07373516 0.71597672
0.97207012 1.09018265 0.71257621
1.09018265 1.09018265 0.74600625
1.09018265 1.09018265 0.79791209
1.09018265 1.09018265 0.76501861
1.09018265 1.06386031 0.30475050
0.13326011 0.09353094 0.33884362
0.13316210 0.09346120 0.33858128
0.14004761 0.09405658 0.34219448
0.33770247 0.09182408 0.42136424
0.80481540 0.10858071 0.47642741
1.03340654 0.24863313 0.49323734
1.09018265 0.26436128 0.47324058
1.09018265 0.25395875 0.34880861
1.09018265 0.25111519 0.31617717
0.13317429 0.09346768 0.33857440
0.13309494 0.09341095 0.33836788
0.13845064 0.09391134 0.34116660
0.33568783 0.09210643 0.42030596
0.80502135 0.10860531 0.47667312
1.03341149 0.24873882 0.49347867
1.09018265 0.26438826 0.47354092
1.09018265 0.25397530 0.34897969
1.09018265 0.25111519 0.31617717
0.13279236 0.09319223 0.33745709
0.13271998 0.09314090 0.33726846
0.13466790 0.09331725 0.33824264
0.32580244 0.09352243 0.41441458
0.80317076 0.10833751 0.47652231
1.03342168 0.24890833 0.49387378
1.09018265 0.26443282 0.47403249
1.09018265 0.25400586 0.34929707
1.09018265 0.25111519 0.31617717
0.12154028 0.20779148 0.43594838
0.12143650 0.20431604 0.43407909
0.12116432 0.19844505 0.43099034
0.28869191 0.15057717 0.42723606
0.79257671 0.13499904 0.47380123
1.03246997 0.24558655 0.49334318
1.09018265 0.26455081 0.47536392
1.09018265 0.25411166 0.35039019
1.09018265 0.25111519 0.31617717
0.16901774 0.59294091 0.49370234
0.16853278 0.59085265 0.49321551
0.16764661 0.58714536 0.49244172
0.18557109 0.57503636 0.48824644
0.81640479 0.57866057 0.51857385
1.06086993 0.61743196 0.58714816
1.09018265 0.34344704 0.49180310
1.09018265 0.25376119 0.34677135
1.09018265 0.25111519 0.31617717
0.05183072 0.91710061 0.44692005
0.05184254 0.91692219 0.44675525
0.05188403 0.91657940 0.44657033
0.05206253 0.91535730 0.44620424
0.57923392 0.93929910 0.42606668
1.09018265 0.91516880 0.42548016
1.09018265 0.90264352 0.56830041
1.09018265 0.47758884 0.36667873
1.09018265 0.25111519 0.31617717
0.05024164 1.05358062 0.41819785
0.05024111 1.05346489 0.41800829
0.05024143 1.05328999 0.41771196
0.05024143 1.05276033 0.41682728
0.35844695 1.06770870 0.44019096
1.08533150 1.09018265 0.37093470
1.09018265 1.07471136 0.57564618
1.09018265 1.03947140 0.32756559
1.09018265 0.58590143 0.31242624
0.06064026 1.05530776 0.53025973
0.06146496 1.05536789 0.53013696
0.06603539 1.05560623 0.52985190
0.10548285 1.05669348 0.53342907
0.58188651 1.07899377 0.57505793
1.06256844 1.09018265 0.52664922
1.09018265 1.09018265 0.68601698
1.09018265 1.08555168 0.56249792
1.09018265 1.05640436 0.23816123
0.75602068 1.04725197 0.73742774
0.77132490 1.04864554 0.73759667
0.79013943 1.05104063 0.73764719
0.82983248 1.05967658 0.73818708
0.96606718 1.09018265 0.74487063
1.09018265 1.09018265 0.77454651
1.09018265 1.09018265 0.81656818
1.09018265 1.09018265 0.79941687
1.09018265 1.08934447 0.61172158
0.18054366 0.14144107 0.57383020
0.18053979 0.14143551 0.57379682
0.18057191 0.14142287 0.57381363
0.32945754 0.13099824 0.60866461
0.69725560 0.01250368 0.73218585
1.01212887 0.23725485 0.65530885
1.09018265 0.26480191 0.65851892
1.09018265 0.26856421 0.61325320
1.09018265 0.25843428 0.40267552
0.18050126 0.14137915 0.57334513
0.18050075 0.14137864 0.57334725
0.18050360 0.14137839 0.57335808
0.32519475 0.13114023 0.60750962
0.69685627 0.01250797 0.73194180
1.01214578 0.23732995 0.65539570
1.09018265 0.26478944 0.65862097
1.09018265 0.26856004 0.61338635
1.09018265 0.25843888 0.40276091
0.18040079 0.14123254 0.57219002
0.18040089 0.14123329 0.57220010
0.18040384 0.14123772 0.57224579
0.31394218 0.13158540 0.60436479
0.69211015 0.01224841 0.73036338
1.01217657 0.23743377 0.65554058
1.09018265 0.26476717 0.65879029
1.09018265 0.26855143 0.61359078
1.09018265 0.25844654 0.40291574
0.16986041 0.15987722 0.59352138
0.17021277 0.15875230 0.59280809
0.17079196 0.15665495 0.59127221
0.25737182 0.13905530 0.59993815
0.66522052 0.02348571 0.71890432
1.01058894 0.23045672 0.65515258
1.09018265 0.26469399 0.65930962
1.09018265 0.26852005 0.61416476
1.09018265 0.25847143 0.40342739
0.18276041 0.46541958 0.66479489
0.18267299 0.46375527 0.66457936
0.18252784 0.46077953 0.66422341
0.18816832 0.44806354 0.66399380
0.67299399 0.43915055 0.67672205
1.00975290 0.45328229 0.68390588
1.09018265 0.30409917 0.66471388
1.09018265 0.26840273 0.61576241
1.09018265 0.25854967 0.40508964
0.21670618 0.84328367 0.67540511
0.21654156 0.84284225 0.67543116
0.21622922 0.84203070 0.67551901
0.21517066 0.83939021 0.67590077
0.52156591 0.83555536 0.68199654
1.03630184 0.88125457 0.75285775
1.09018265 0.86775560 0.78005174
1.09018265 0.46353064 0.64154992
1.09018265 0.25876245 0.40993761
0.19750390 1.00969415 0.64636495
0.19759795 1.00955510 0.64639912
0.19772988 1.00932829 0.64644324
0.19808803 1.00872690 0.64656279
0.40024185 1.01202631 0.66314318
1.03255928 1.08255922 0.70557576
1.09018265 1.06260422 0.79212583
1.09018265 1.04897305 0.74293487
1.09018265 0.60716984 0.47590456
0.21735039 1.03517936 0.67152740
0.21744761 1.03518720 0.67151926
0.21890848 1.03528656 0.67144936
0.24812936 1.03586906 0.67298786
0.53012979 1.04361509 0.69535594
1.03581594 1.09018265 0.73118125
1.09018265 1.09018265 0.80631220
1.09018265 1.09018265 0.78948027
1.09018265 1.07219765 0.43125094
0.73532211 1.03031528 0.78610393
0.75154537 1.03091719 0.78643184
0.77347624 1.03193219 0.78668905
0.81257007 1.03575608 0.78704014
0.93484137 1.06010083 0.79173089
1.08769480 1.08768435 0.80784128
1.09018265 1.06106492 0.83220406
1.09018265 1.09018265 0.84778553
1.09018265 1.09018265 0.79543087
0.19408277 0.16160374 0.74406581
0.19408775 0.16161134 0.74413330
0.19409642 0.16162442 0.74424968
0.29427206 0.16001277 0.75584875
0.69693340 0.09283617 0.82641888
0.95812660 0.17488796 0.86983329
1.07408111 0.20778584 0.86978141
1.07855369 0.21198096 0.85549719
1.09018265 0.23172397 0.80420788
0.19402008 0.16150915 0.74319715
0.19402818 0.16152127 0.74331230
0.19403905 0.16153803 0.74345916
0.28759524 0.15979971 0.75481019
0.69289929 0.09445232 0.82401666
0.95815487 0.17488786 0.86983919
1.07407052 0.20777495 0.86981682
1.07854144 0.21196957 0.85553589
1.09018265 0.23170491 0.80424758
0.19391331 0.16134570 0.74164332
0.19392036 0.16135698 0.74175750
0.19393179 0.16137444 0.74191770
0.27318385 0.15936487 0.75269521
0.68440181 0.09763018 0.81849737
0.95731588 0.17304021 0.87056247
1.07405194 0.20775788 0.86987445
1.07852314 0.21195041 0.85559866
1.09018265 0.23167402 0.80431224
0.19051295 0.16482149 0.74523328
0.19081842 0.16435224 0.74457268
0.19137723 0.16353358 0.74330949
0.22495443 0.15983520 0.74661285
0.65463277 0.11667235 0.80331241
0.94929104 0.15539746 0.87565809
1.07399717 0.20770697 0.87004679
1.07846672 0.21189405 0.85579056
1.09018265 0.23158225 0.80450765
0.21868218 0.40569766 0.80047080
0.21848327 0.40418939 0.80034260
0.21814199 0.40142253 0.80012788
0.21885646 0.39134314 0.79970582
0.61915484 0.41673553 0.80348941
0.94523349 0.31173730 0.89430624
1.07707962 0.23113553 0.86391060
1.07829870 0.21172579 0.85636004
1.09018265 0.23130754 0.80509078
0.20957335 0.77051303 0.81661418
0.20966548 0.76983449 0.81665588
0.20980059 0.76863615 0.81670634
0.21026107 0.76462627 0.81693348
0.46534032 0.76456236 0.81906640
0.96577234 0.77375214 0.83600814
1.09018265 0.76354222 0.84303099
1.09018265 0.37155217 0.84723034
1.09018265 0.23050223 0.80677901
0.24235939 0.96433426 0.79889119
0.24227155 0.96415646 0.79895169
0.24211753 0.96384427 0.79907015
0.24167628 0.96288198 0.79938867
0.40082931 0.96176172 0.80322704
0.92040757 0.93411505 0.79915502
1.09018265 0.96648517 0.83827747
1.09018265 0.97698939 0.86002193
1.09018265 0.59746321 0.81112830
0.26097840 1.01233921 0.79166377
0.26116023 1.01231058 0.79169880
0.26257845 1.01232761 0.79174148
0.28327318 1.01250767 0.79239118
0.50005003 1.01379445 0.80066617
0.95565600 1.02061905 0.80878575
1.08502450 1.00978935 0.83391648
1.09018265 1.05375552 0.87426500
1.09018265 1.07342100 0.86763808
0.70703590 1.01186717 0.82012757
0.72126380 1.01191130 0.82031606
0.73836028 1.01205640 0.82043898
0.79244029 1.01303735 0.82040990
0.90778770 1.01005505 0.81628062
1.00239885 1.01255374 0.81511192
1.08293820 1.00471426 0.83892038
1.09018265 1.04219510 0.87461150
1.09018265 1.06597097 0.88762151
0.19825154 0.17629069 0.78479544
0.19819660 0.17605867 0.78472186
0.19809601 0.17562277 0.78458400
0.24757752 0.17251855 0.78751218
0.65861143 0.13894112 0.82461947
0.92608635 0.12665000 0.94207020
1.05430500 0.19280901 0.93307711
1.05474012 0.19278093 0.93323579
1.05474012 0.19278093 0.93323579
0.19859498 0.17770216 0.78523702
0.19855878 0.17755602 0.78519186
0.19849006 0.17727669 0.78510512
0.24119928 0.17512438 0.78782976
0.65308255 0.14403779 0.82335669
0.92495109 0.11739387 0.94585216
1.05430651 0.19280901 0.93307711
1.05474012 0.19278093 0.93323579
1.05474012 0.19278093 0.93323579
0.19928248 0.18042401 0.78603428
0.19923769 0.18025572 0.78598718
0.19915354 0.17993701 0.78589687
0.22993598 0.17807721 0.78805613
0.64340810 0.15367690 0.82082412
0.92325808 0.10057325 0.95274530
1.05429206 0.19280992 0.93307240
1.05474012 0.19278093 0.93323579
1.05474012 0.19278093 0.93323579
0.20322940 0.24071672 0.80187746
0.20307777 0.23933220 0.80155266
0.20275825 0.23687732 0.80099761
0.20987032 0.22434250 0.80042790
0.62175008 0.19432350 0.81967225
0.91705622 0.08561997 0.96468486
1.05384345 0.19283881 0.93290970
1.05474012 0.19278093 0.93323579
1.05474012 0.19278093 0.93323579
0.24471016 0.46480476 0.83323573
0.24453268 0.46348726 0.83306928
0.24423654 0.46115711 0.83278254
0.24335435 0.45348681 0.83188695
0.61576149 0.51371553 0.83074038
0.94672402 0.40825364 0.94874777
1.05851392 0.26448132 0.93536157
1.05474012 0.19278093 0.93323579
1.05474012 0.19278093 0.93323579
0.23038625 0.76933563 0.86171496
0.23047593 0.76870040 0.86170718
0.23064214 0.76754861 0.86170336
0.23148694 0.76375180 0.86169063
0.47564203 0.76993167 0.86047211
0.96387144 0.78428595 0.86632121
1.07835264 0.75357686 0.91192404
1.07622919 0.38205739 0.93255656
1.05474012 0.19278093 0.93323579
0.22661654 0.93856889 0.84472290
0.22655869 0.93824452 0.84481283
0.22646302 0.93773966 0.84495708
0.22618699 0.93630066 0.84537221
0.38332127 0.93364118 0.84771158
0.90135419 0.91138577 0.82602038
1.03771894 0.91963013 0.84639272
1.09018265 0.90864459 0.85936096
1.09018265 0.56576128 0.92561497
0.24892539 0.99727228 0.82943890
0.24954660 0.99712442 0.82949374
0.25191516 0.99695022 0.82958170
0.27381544 0.99641390 0.83032800
0.48570625 0.99486321 0.83526824
0.92247386 0.97489836 0.82605137
1.02480279 0.96629764 0.83998790
1.09018265 0.99521643 0.87200135
1.09018265 0.99660260 0.87996032
0.69563113 1.00217268 0.84178582
0.70897048 1.00198229 0.84173309
0.72527757 1.00176370 0.84156318
0.77800512 1.00137908 0.84068637
0.88747429 0.99334144 0.83367279
0.98405406 0.96902815 0.82015828
1.04276095 0.97783857 0.84385979
1.09018265 1.00638899 0.87501822
1.09018265 1.01411801 0.88908381
0.24809745 0.45655814 0.83367335
0.24783772 0.45479245 0.83353613
0.24739603 0.45180289 0.83330584
0.24992129 0.44154475 0.83252227
0.66567136 0.52033454 0.83944806
0.96165131 0.41019471 0.94516987
1.05409941 0.21810349 0.93319626
1.05474012 0.19278093 0.93323579
1.05474012 0.19278093 0.93323579
0.24999559 0.46986645 0.83474607
0.24978206 0.46832468 0.83461845
0.24941836 0.46573020 0.83440628
0.25196329 0.45621454 0.83363051
0.66667762 0.53883722 0.83964107
0.96361742 0.43878320 0.94236607
1.05464640 0.22998266 0.93369707
1.05474012 0.19278093 0.93323579
1.05474012 0.19278093 0.93323579
0.25239624 0.48845331 0.83634006
0.25222649 0.48705720 0.83621681
0.25193865 0.48471165 0.83600976
0.25404583 0.47666242 0.83530204
0.66464354 0.56368656 0.83961509
0.96579976 0.48219461 0.93624126
1.05640547 0.25444315 0.93525174
1.05474012 0.19278093 0.93323579
1.05474012 0.19278093 0.93323579
0.25675760 0.53825078 0.84112711
0.25668628 0.53700869 0.84099917
0.25656395 0.53488654 0.84078097
0.25722775 0.52811466 0.84008683
0.65081288 0.61144076 0.84003956
0.96901178 0.57301087 0.92487594
1.06579441 0.36076081 0.93873646
1.05474012 0.19278093 0.93323579
1.05474012 0.19278093 0.93323579
0.25089960 0.65546312 0.85383932
0.25102603 0.65458805 0.85374165
0.25125981 0.65302537 0.85356656
0.25201346 0.64826622 0.85303296
0.61230814 0.69135587 0.84906427
0.97022620 0.69440858 0.90742474
1.08464263 0.62818716 0.93088579
1.05609337 0.20113202 0.93383055
1.05474012 0.19278093 0.93323579
0.22037569 0.82191406 0.86904823
0.22043076 0.82151541 0.86902961
0.22051673 0.82085111 0.86900299
0.22074750 0.81883326 0.86892090
0.45353064 0.82102891 0.86764099
0.95124249 0.82140568 0.84945703
1.06486197 0.80804959 0.89215856
1.09018265 0.66119380 0.92737911
1.05476736 0.19293135 0.93324848
0.22712488 0.94318900 0.85456439
0.22707259 0.94288470 0.85465197
0.22698642 0.94239335 0.85479236
0.22674153 0.94100064 0.85518761
0.40880680 0.93792030 0.85702539
0.90515658 0.91443623 0.83203499
1.02835903 0.91960250 0.84892856
1.09018265 0.91297058 0.86041365
1.09018265 0.71311253 0.92020195
0.24689695 0.99321303 0.83933108
0.24822510 0.99311967 0.83940005
0.25212638 0.99299197 0.83952628
0.27602700 0.99238023 0.84049267
0.52484334 0.99090905 0.84502805
0.92268821 0.96510822 0.82921262
1.01698053 0.95881793 0.84148247
1.09018265 0.98161869 0.86612110
1.09018265 0.97925718 0.86969876
0.71642848 0.99851410 0.84884143
0.72565512 0.99829574 0.84864708
0.74028682 0.99795617 0.84826237
0.79178649 0.99715762 0.84695824
0.89750644 0.98682464 0.83773802
0.98031717 0.95897464 0.82222002
1.03298270 0.97051667 0.84564732
1.09018265 0.99475554 0.87160138
1.09018265 1.00099864 0.88237008
