public/luts/EV_GOLD+OVER+BLUE_NAZARE_LUT.cube
TITLE "EV_GOLD_NAZARE"
LUT_3D_SIZE 9
# MLUTS-Log3/Sony S-Gamut3.cine -> LA - EV_GOLD_NAZARE/LA - EV_GOLD_NAZARE, CineEI Shift 0.00, Black Level 2.99% IRE, Input 109% -> Output 100% - Created with LUTCalc v4.09 by Ben Turley February 2025
0.02660467 0.02723270 0.03283642
0.02847414 0.02904143 0.03404328
0.04798516 0.04211088 0.04923573
0.18790043 0.11123870 0.11269872
0.42418527 0.18743121 0.18352693
0.61887116 0.20617333 0.20980447
0.66332171 0.20650182 0.21181891
0.66258121 0.20644959 0.21180580
0.66243451 0.20643996 0.21180412
0.02968624 0.02889349 0.03528195
0.02977345 0.02891486 0.03528997
0.04832872 0.04261687 0.04956963
0.18751735 0.11108330 0.11254943
0.42447469 0.18748607 0.18358518
0.61890836 0.20617435 0.20980702
0.66332171 0.20650182 0.21181891
0.66258121 0.20644959 0.21180580
0.66243353 0.20643996 0.21180412
0.04983202 0.05187525 0.05572263
0.04840803 0.05015072 0.05408821
0.06408919 0.06013094 0.06412675
0.19123886 0.12187850 0.11814744
0.42372493 0.18745325 0.18351483
0.61889392 0.20613637 0.20979961
0.66332122 0.20650182 0.21181891
0.66258121 0.20644959 0.21180580
0.66243451 0.20643996 0.21180412
0.13930382 0.15116683 0.12804644
0.13786546 0.14952855 0.12702586
0.13626672 0.14752039 0.12578418
0.21373319 0.18510303 0.15213138
0.51694862 0.25125698 0.21326167
0.63739030 0.20988038 0.21111317
0.66249141 0.20621700 0.21175314
0.66258170 0.20644959 0.21180580
0.66243414 0.20643996 0.21180412
0.28654255 0.32328388 0.23768338
0.28590880 0.32250124 0.23721259
0.28476846 0.32112595 0.23638740
0.29477506 0.32697907 0.23944313
0.61823739 0.46200672 0.27568395
0.88509529 0.43754761 0.23268186
0.73663462 0.24208952 0.21357972
0.65890983 0.20461216 0.21142833
0.66243451 0.20643996 0.21180412
0.41756100 0.52085917 0.33591183
0.41737896 0.52060652 0.33580214
0.41703249 0.52012528 0.33559332
0.41328816 0.51694201 0.33416348
0.64307650 0.65545655 0.35234428
0.90419769 0.73022462 0.28596273
0.96427741 0.70296088 0.24704481
0.82017384 0.33631178 0.21883340
0.65445716 0.20155178 0.21079360
0.48554940 0.62739341 0.37262667
0.48554293 0.62735240 0.37260402
0.48553298 0.62728301 0.37256524
0.48441897 0.62626525 0.37218948
0.61537606 0.70698547 0.37921611
0.88245159 0.81453749 0.33198537
0.95091547 0.82960510 0.33707750
0.95135359 0.82245531 0.32706367
0.89270493 0.40634667 0.24063387
0.47281534 0.64498838 0.40623240
0.47367901 0.64541671 0.40638110
0.47587059 0.64652028 0.40677986
0.49258047 0.65591578 0.40947027
0.66555454 0.74997690 0.41975595
0.88226139 0.82651051 0.36418121
0.95791391 0.83788237 0.35357461
0.94974199 0.83125752 0.33851340
0.95030223 0.83213440 0.34045818
0.79669913 0.85057906 0.57984304
0.80345705 0.85308357 0.57942373
0.81164244 0.85583107 0.57852269
0.82724939 0.86076493 0.57592007
0.86788886 0.87300222 0.56706645
0.94313412 0.89163700 0.54461171
0.98628376 0.90221998 0.51966677
0.98641887 0.89448186 0.48242092
0.95547650 0.84384764 0.34411499
0.01871107 0.01871107 0.01871107
0.01871107 0.01871107 0.01871107
0.01871107 0.01871107 0.01871107
0.11088719 0.01871107 0.03019156
0.38874229 0.12389654 0.14739095
0.58098664 0.16645536 0.18947668
0.62311479 0.16900257 0.19532191
0.62309355 0.17001752 0.19775380
0.62893351 0.17365805 0.20323707
0.02919330 0.02959108 0.03463075
0.02914803 0.02954727 0.03457449
0.04468570 0.04003687 0.04731773
0.18121017 0.10800616 0.10987840
0.42351384 0.18724917 0.18336385
0.61891850 0.20617435 0.20980746
0.66332171 0.20650182 0.21181891
0.66258121 0.20644959 0.21180580
0.66243353 0.20643996 0.21180412
0.04843586 0.05019470 0.05412756
0.04713615 0.04863255 0.05262349
0.06123952 0.05749776 0.06227006
0.18238343 0.11739177 0.11427956
0.42168188 0.18688326 0.18300740
0.61890511 0.20613724 0.20980039
0.66332122 0.20650182 0.21181891
0.66258121 0.20644959 0.21180580
0.66243365 0.20643996 0.21180412
0.13851864 0.15027039 0.12749090
0.13709877 0.14865964 0.12648063
0.13541663 0.14659818 0.12519304
0.21238740 0.18410176 0.15139988
0.51553436 0.25098868 0.21302650
0.63754156 0.20992847 0.21112355
0.66248602 0.20621569 0.21175303
0.66258121 0.20644959 0.21180580
0.66243353 0.20643996 0.21180412
0.28579450 0.32233027 0.23712608
0.28520438 0.32160341 0.23668788
0.28407604 0.32024508 0.23587228
0.29387060 0.32598313 0.23887242
0.61729033 0.46113714 0.27549118
0.88516656 0.43780441 0.23270823
0.73687378 0.24220856 0.21359366
0.65890552 0.20461030 0.21142766
0.66243414 0.20643996 0.21180412
0.41683065 0.51985378 0.33548786
0.41664218 0.51959068 0.33537216
0.41630025 0.51911644 0.33516702
0.41258236 0.51594711 0.33374440
0.64155030 0.65407192 0.35213710
0.90400998 0.72984353 0.28588430
0.96427186 0.70302938 0.24706837
0.82024228 0.33634821 0.21883983
0.65445555 0.20155136 0.21079360
0.48431859 0.62711673 0.37310109
0.48431809 0.62707816 0.37307662
0.48432494 0.62700668 0.37302626
0.48330417 0.62601676 0.37261837
0.61299361 0.70560451 0.37961996
0.88233656 0.81443130 0.33208926
0.95090656 0.82951385 0.33695520
0.95135171 0.82246083 0.32706817
0.89272470 0.40637185 0.24063639
0.47392732 0.64703463 0.40931813
0.47476767 0.64745062 0.40946488
0.47694188 0.64854027 0.40987070
0.49350958 0.65779806 0.41259888
0.66548253 0.75111508 0.42324604
0.88230048 0.82750632 0.36716102
0.95926916 0.83931049 0.35664228
0.94970326 0.83119566 0.33835279
0.95030085 0.83213305 0.34045222
0.79695942 0.85089839 0.58153020
0.80368639 0.85338129 0.58113092
0.81191538 0.85613440 0.58026222
0.82752079 0.86104786 0.57770418
0.86802606 0.87336222 0.56904930
0.94321772 0.89205681 0.54682195
0.98629713 0.90267764 0.52174831
0.98661975 0.89515348 0.48484988
0.95547204 0.84382413 0.34404394
0.01871107 0.01871107 0.01871107
0.01871107 0.01871107 0.01871107
0.01871107 0.01871107 0.01871107
0.08375966 0.01871107 0.01995660
0.38056568 0.11757549 0.14340720
0.57956413 0.16618063 0.18910836
0.62304910 0.16894138 0.19516075
0.62298418 0.16993099 0.19760314
0.62889734 0.17363168 0.20319642
0.02971462 0.03010785 0.03784889
0.02964072 0.02982861 0.03750676
0.03847214 0.03717443 0.04443063
0.15912982 0.09774243 0.10218123
0.41273173 0.18508311 0.18136697
0.61753080 0.20603704 0.20971404
0.66332562 0.20650241 0.21181891
0.66258121 0.20644959 0.21180580
0.66243353 0.20643996 0.21180412
0.04467390 0.04606099 0.05160495
0.04282315 0.04440192 0.05018169
0.04796572 0.04716348 0.05264776
0.16269008 0.10123678 0.10344354
0.40982013 0.18425960 0.18065493
0.61713485 0.20599983 0.20968457
0.66332708 0.20650241 0.21181891
0.66258121 0.20644959 0.21180580
0.66243451 0.20643996 0.21180412
0.13144322 0.14301983 0.12350173
0.13013958 0.14151923 0.12249236
0.12767039 0.13886223 0.12063120
0.20305567 0.17647458 0.14636768
0.49906894 0.24855830 0.21116091
0.63714553 0.21100906 0.21125576
0.66244980 0.20618745 0.21174810
0.66258158 0.20644959 0.21180580
0.66243414 0.20643996 0.21180412
0.28363385 0.31981432 0.23570210
0.28305564 0.31908568 0.23525953
0.28200012 0.31778383 0.23447643
0.29117957 0.32311130 0.23724334
0.61348769 0.45784487 0.27475103
0.88304096 0.44050431 0.23374840
0.73723394 0.24238451 0.21361078
0.65889764 0.20460699 0.21142688
0.66243451 0.20643996 0.21180412
0.41523375 0.51774165 0.33460601
0.41506318 0.51748933 0.33449377
0.41476150 0.51705138 0.33429989
0.41114882 0.51392711 0.33289284
0.63838904 0.65115500 0.35169045
0.90332777 0.72857180 0.28564108
0.96426661 0.70312615 0.24708870
0.82035191 0.33641150 0.21885187
0.65445283 0.20154897 0.21079327
0.48072119 0.62636054 0.37449078
0.48075247 0.62632361 0.37445354
0.48080076 0.62625595 0.37438958
0.47996671 0.62534081 0.37396227
0.60754340 0.70287583 0.38095048
0.88211877 0.81434060 0.33255087
0.95088279 0.82921806 0.33656551
0.95134784 0.82246868 0.32707448
0.89275780 0.40641339 0.24064142
0.47622626 0.65064215 0.41468277
0.47702278 0.65103480 0.41482517
0.47915412 0.65209445 0.41523741
0.49542213 0.66106405 0.41799605
0.66568126 0.75316857 0.42940240
0.88246176 0.82923565 0.37263307
0.96138980 0.84258290 0.36189008
0.94977428 0.83110176 0.33817350
0.95029807 0.83213070 0.34044208
0.79732870 0.85139147 0.58397656
0.80400714 0.85384225 0.58362503
0.81228833 0.85660390 0.58288534
0.82813386 0.86152385 0.58037197
0.86856892 0.87396697 0.57206099
0.94340117 0.89269813 0.55028221
0.98633091 0.90345441 0.52512709
0.98694018 0.89619405 0.48879444
0.95547154 0.84378542 0.34393645
0.01871107 0.01871107 0.04188268
0.01871107 0.01871107 0.04086182
0.01871107 0.01871107 0.03876406
0.04582198 0.01871107 0.06659087
0.35316401 0.11178642 0.17281730
0.56529800 0.16481938 0.19752644
0.61898482 0.16836715 0.19465439
0.62271034 0.16971901 0.19722401
0.62872714 0.17356230 0.20305355
0.06823898 0.06889974 0.11575848
0.06802572 0.06869119 0.11533467
0.07549345 0.07127602 0.11352304
0.13130214 0.10070726 0.13253398
0.38262811 0.18406437 0.20951384
0.60358520 0.20584500 0.21786596
0.65992450 0.20625006 0.21187742
0.66258170 0.20644959 0.21180580
0.66243353 0.20643996 0.21180412
0.07009260 0.07139849 0.11607647
0.06950163 0.07067906 0.11552522
0.07103389 0.06972499 0.11310734
0.12823632 0.09885070 0.13078787
0.38120344 0.18362540 0.20946832
0.60359755 0.20586256 0.21821530
0.65980759 0.20624074 0.21188639
0.66258268 0.20644959 0.21180580
0.66243414 0.20643996 0.21180412
0.12937609 0.13989005 0.14692478
0.12817455 0.13844615 0.14584319
0.12608148 0.13604991 0.14405902
0.17413440 0.15987826 0.16075445
0.44089920 0.21639513 0.21249600
0.60749905 0.20577506 0.21563509
0.65930000 0.20601596 0.21181398
0.66258256 0.20644959 0.21180580
0.66243414 0.20643996 0.21180412
0.26988387 0.31200034 0.24536236
0.26926108 0.31118103 0.24477045
0.26817883 0.30976882 0.24379043
0.27163555 0.31058674 0.24323491
0.58661187 0.43932469 0.27810746
0.86689866 0.42928023 0.23738118
0.75039492 0.24971042 0.21436625
0.65857079 0.20439420 0.21138665
0.66243414 0.20643996 0.21180412
0.39807844 0.51082332 0.33945965
0.39794909 0.51053818 0.33927977
0.39769593 0.51002865 0.33897661
0.39472783 0.50694641 0.33737101
0.61564970 0.63840668 0.35713345
0.89962995 0.72295048 0.28725772
0.96413081 0.70553402 0.24764539
0.82050203 0.33638489 0.21887174
0.65444452 0.20154294 0.21079171
0.47024005 0.62860043 0.38397483
0.47022590 0.62852406 0.38391177
0.47018949 0.62838058 0.38380036
0.46924702 0.62737639 0.38324291
0.59222846 0.69857894 0.39073466
0.88076887 0.81661024 0.34220619
0.95204845 0.82780571 0.33542690
0.95131417 0.82249151 0.32707242
0.89285558 0.40653694 0.24065727
0.48430028 0.66151520 0.43125850
0.48491772 0.66183528 0.43135467
0.48689169 0.66281202 0.43176067
0.50215273 0.67082487 0.43445634
0.66635683 0.75886909 0.44794429
0.88317238 0.83481114 0.39405283
0.96704992 0.85160379 0.37867194
0.95138360 0.83120688 0.33903360
0.95024558 0.83209301 0.34033159
0.79847471 0.85281097 0.59016300
0.80500486 0.85516648 0.58983745
0.81315946 0.85786186 0.58921672
0.82883204 0.86274123 0.58704264
0.86942849 0.87556160 0.57927266
0.94374815 0.89437620 0.55879096
0.98659538 0.90566714 0.53504606
0.98760137 0.89920152 0.50116642
0.96052774 0.84768694 0.35141044
0.02772429 0.01964202 0.20094094
0.02639628 0.01970553 0.20052864
0.02592961 0.01997431 0.19958795
0.12686692 0.04805511 0.21565587
0.32820294 0.14541022 0.27339014
0.56523399 0.17375458 0.31933841
0.60684707 0.17037215 0.28513824
0.61633533 0.16875983 0.20734184
0.62692204 0.17262256 0.20173374
0.13354082 0.13132525 0.21892200
0.13348257 0.13127356 0.21883212
0.13488771 0.13139996 0.21851687
0.19275714 0.15200275 0.23506628
0.36302672 0.20441228 0.29825001
0.60012714 0.21444501 0.33700755
0.64668059 0.21017525 0.30268023
0.65738426 0.20666523 0.22118193
0.66244087 0.20644055 0.21180412
0.13308866 0.13085121 0.21841459
0.13304693 0.13081983 0.21833823
0.13318636 0.13077801 0.21808513
0.18948212 0.15043605 0.23366020
0.36160883 0.20399587 0.29762093
0.60022660 0.21447716 0.33736614
0.64666660 0.21019873 0.30314512
0.65739067 0.20668277 0.22146439
0.66244136 0.20644055 0.21180412
0.16384433 0.17026288 0.23290135
0.16292638 0.16914691 0.23225214
0.16118871 0.16719005 0.23111625
0.18798382 0.17014021 0.23936564
0.36564180 0.21179448 0.30063040
0.59757373 0.21378666 0.33686983
0.64634557 0.21021214 0.30444002
0.65740820 0.20674446 0.22246964
0.66244099 0.20644055 0.21180412
0.27736786 0.32037669 0.31292798
0.27675394 0.31952015 0.31238927
0.27571939 0.31805730 0.31150461
0.27535435 0.31585976 0.31037033
0.53973153 0.41142672 0.36398397
0.80631977 0.36644481 0.34160825
0.68893057 0.22097529 0.29977965
0.65424734 0.20497960 0.21916590
0.66244527 0.20644055 0.21180412
0.39499092 0.52213632 0.38909263
0.39477246 0.52179271 0.38889452
0.39440069 0.52120201 0.38858880
0.39158646 0.51824785 0.38717481
0.58357093 0.63243491 0.41878248
0.88610105 0.72510040 0.35538232
0.97274134 0.69901633 0.27815430
0.82823807 0.34083490 0.22146190
0.65444043 0.20153915 0.21079115
0.48034707 0.65515068 0.43137230
0.48024369 0.65501337 0.43128943
0.48008787 0.65480939 0.43116395
0.47904996 0.65384314 0.43063118
0.58305606 0.70989938 0.44253046
0.87739569 0.82752632 0.39488244
0.97016872 0.84291082 0.37374647
0.95601456 0.82430988 0.33266351
0.89312118 0.40691263 0.24068521
0.50809320 0.68825711 0.47639230
0.50828616 0.68836674 0.47641792
0.50952785 0.68910934 0.47671718
0.52265739 0.69683949 0.47953927
0.67076214 0.77208070 0.49740909
0.88516237 0.85046851 0.46136729
0.97574316 0.86787219 0.43020187
0.96834614 0.85275140 0.38319343
0.94993732 0.83170028 0.33921931
0.80125754 0.85586655 0.60541410
0.80742890 0.85795487 0.60518084
0.81535293 0.86048019 0.60472420
0.83013701 0.86525631 0.60305597
0.87013131 0.87881004 0.59712623
0.94404125 0.89747209 0.57925985
0.98714968 0.91098964 0.55591629
0.98861241 0.90696548 0.53092039
0.97751949 0.86986961 0.40468209
0.13047476 0.10691145 0.29732293
0.12970834 0.10627507 0.29729545
0.12810478 0.10515935 0.29723823
0.18651784 0.12577411 0.31038986
0.37202373 0.19582999 0.36942571
0.56410715 0.19608731 0.41887738
0.60354989 0.18615061 0.41661118
0.60441586 0.18206391 0.39274502
0.61755696 0.17247209 0.25336356
0.19049424 0.17641680 0.31329473
0.19049255 0.17641558 0.31329300
0.19022320 0.17638914 0.31324687
0.23337598 0.18879403 0.32743485
0.40400863 0.23786472 0.38805531
0.59743254 0.23122225 0.43740187
0.64170635 0.22250412 0.43508198
0.64311373 0.21940143 0.41040921
0.65632145 0.20927740 0.26643350
0.19026208 0.17626940 0.31293506
0.19026247 0.17626952 0.31293592
0.19010686 0.17626927 0.31292748
0.22881841 0.18705999 0.32550843
0.40155870 0.23742415 0.38712361
0.59756203 0.23122127 0.43749162
0.64169374 0.22251458 0.43515045
0.64310858 0.21941561 0.41053462
0.65632343 0.20928631 0.26653938
0.19695069 0.18575510 0.31818958
0.19630254 0.18497571 0.31766035
0.19514132 0.18362490 0.31674567
0.21120208 0.18213705 0.31898109
0.38373253 0.23349066 0.37995942
0.59421478 0.23120250 0.43632964
0.64164732 0.22253123 0.43535681
0.64309021 0.21945898 0.41090912
0.65633134 0.20931691 0.26690351
0.31164522 0.33940228 0.40401516
0.31102835 0.33850763 0.40353228
0.30996762 0.33696953 0.40272276
0.30637969 0.33186253 0.40031842
0.50236217 0.38515631 0.46502230
0.71986132 0.32119107 0.49636086
0.66416264 0.22508930 0.44243370
0.64125762 0.21889897 0.41129587
0.65636298 0.20941688 0.26809563
0.45772465 0.56769559 0.49741717
0.45746697 0.56731374 0.49727148
0.45703288 0.56665925 0.49703708
0.45459502 0.56393926 0.49599134
0.59058358 0.64166485 0.53116992
0.86057028 0.72687478 0.53980629
0.95799612 0.69233367 0.49221525
0.76178974 0.32956321 0.43938410
0.64957849 0.20612430 0.27016433
0.54010069 0.70592726 0.53325484
0.54002286 0.70579074 0.53323715
0.53989128 0.70556770 0.53320013
0.53924631 0.70474492 0.53300996
0.61710360 0.74189849 0.55022157
0.87286365 0.84721509 0.55168251
0.98127620 0.86858142 0.50529278
0.98152780 0.85207977 0.45085301
0.89358870 0.40852962 0.28547315
0.56311251 0.73272838 0.55195844
0.56313985 0.73274350 0.55196632
0.56387307 0.73307404 0.55215404
0.57260607 0.73695664 0.55436916
0.68741706 0.79254671 0.57671232
0.88815160 0.87084414 0.57276488
0.98029904 0.89595803 0.54004360
0.98200821 0.89167722 0.51074963
0.96199700 0.85088222 0.38680343
0.80752112 0.86072494 0.63639267
0.81297999 0.86250366 0.63631307
0.81990879 0.86480438 0.63610150
0.83394042 0.87094639 0.63518316
0.87297322 0.88430483 0.63175800
0.94401698 0.90322465 0.61871964
0.98724557 0.91876179 0.60078494
0.98911580 0.91818807 0.58456057
0.98848849 0.90493460 0.51911632
0.16650877 0.13392484 0.33448402
0.16600044 0.13350789 0.33441736
0.16508070 0.13279903 0.33429989
0.20216296 0.14561465 0.34478251
0.38894289 0.21355954 0.41486155
0.56074673 0.21255950 0.45978849
0.58962013 0.19723135 0.46048852
0.58872792 0.19662483 0.45896226
0.59203073 0.19471865 0.45171434
0.21614874 0.19290236 0.35395856
0.21616106 0.19291161 0.35397592
0.21612479 0.19291755 0.35398723
0.24327429 0.20175524 0.36314999
0.41923730 0.25143881 0.43435599
0.59330568 0.24578238 0.47839857
0.62884340 0.23140550 0.48104372
0.62880658 0.23104634 0.47946150
0.63166182 0.22911406 0.47099396
0.21599565 0.19278129 0.35373940
0.21600692 0.19279040 0.35375596
0.21600508 0.19280109 0.35377498
0.23803913 0.19972058 0.36106053
0.41444241 0.25056703 0.43262952
0.59293700 0.24588018 0.47831295
0.62884275 0.23140710 0.48105034
0.62880606 0.23104818 0.47946803
0.63165463 0.22911735 0.47100873
0.22119115 0.19870593 0.35822722
0.22039225 0.19779719 0.35754557
0.21893615 0.19615650 0.35629997
0.22235660 0.19276743 0.35465230
0.39517548 0.24588547 0.42455849
0.58730312 0.24700649 0.47672909
0.62889939 0.23139126 0.48108747
0.62880349 0.23105345 0.47948889
0.63163244 0.22912588 0.47105202
0.33464232 0.33944073 0.45981848
0.33403194 0.33860204 0.45932697
0.33296555 0.33711866 0.45848147
0.32808310 0.33145022 0.45514426
0.49100414 0.36608512 0.50510712
0.66256200 0.31063304 0.52956730
0.64003682 0.23053897 0.48565560
0.62745106 0.23058771 0.47888120
0.63156741 0.22915368 0.47118110
0.50329584 0.58933342 0.56375239
0.50300217 0.58888222 0.56360451
0.50249479 0.58811432 0.56334292
0.50037377 0.58539010 0.56238174
0.59310686 0.62904253 0.58946589
0.83844882 0.69468670 0.63227257
0.94224353 0.64249234 0.61830153
0.71673205 0.32680210 0.51761568
0.62507590 0.22609823 0.46830721
0.61341251 0.73990173 0.61404466
0.61334398 0.73978723 0.61403787
0.61325065 0.73960939 0.61404388
0.61285757 0.73903216 0.61401269
0.66748427 0.76479824 0.62892952
0.86990514 0.84841856 0.65031122
0.97750543 0.87632937 0.63828078
0.97982566 0.86462212 0.62764280
0.82815644 0.39936002 0.56188019
0.62956155 0.77071223 0.61902514
0.62968605 0.77076501 0.61907936
0.63052341 0.77113780 0.61933017
0.63645468 0.77388043 0.62096803
0.71689992 0.81247019 0.63934677
0.89293789 0.88300683 0.65254286
0.98018195 0.91102319 0.64005757
0.98256459 0.91332229 0.63047177
0.98265711 0.90770620 0.60434076
0.81488966 0.86540371 0.67048176
0.82029412 0.86777390 0.67077957
0.82620946 0.87069324 0.67095055
0.83947948 0.87747224 0.67114871
0.87814980 0.89116707 0.67037351
0.94522683 0.91011433 0.66331352
0.98715622 0.92699799 0.65508382
0.98832198 0.92892547 0.64971581
0.98839875 0.92705663 0.63530768
0.17992048 0.14765265 0.34558607
0.17923459 0.14703617 0.34533932
0.17816272 0.14606232 0.34493285
0.19351864 0.14847993 0.34771080
0.37243092 0.21104695 0.41228682
0.54495375 0.21228596 0.45583151
0.58957193 0.19819265 0.46476459
0.58830250 0.19781902 0.46442813
0.58831904 0.19788700 0.46456328
0.22755041 0.20498537 0.36652733
0.22748771 0.20488624 0.36646190
0.22737520 0.20470590 0.36634292
0.23923792 0.20728159 0.36949483
0.40369548 0.25113573 0.43530263
0.57660182 0.24711900 0.47647523
0.62913365 0.23301107 0.48701933
0.62879924 0.23308210 0.48693974
0.62879924 0.23308210 0.48693974
0.22878796 0.20680413 0.36770206
0.22870150 0.20668087 0.36762587
0.22854922 0.20646345 0.36748849
0.23734743 0.20800849 0.36975984
0.40314825 0.25273467 0.43661422
0.57365628 0.24759142 0.47576301
0.62918821 0.23299541 0.48702939
0.62879924 0.23308210 0.48693974
0.62879924 0.23308210 0.48693974
0.26386497 0.24315783 0.40038411
0.26301958 0.24221832 0.39957208
0.26168045 0.24069817 0.39826825
0.25760998 0.23498735 0.39367674
0.41701181 0.26965224 0.45167896
0.57181545 0.25074181 0.47784968
0.62905102 0.23286991 0.48688362
0.62879924 0.23308210 0.48693974
0.62879924 0.23308210 0.48693974
0.37035411 0.37948111 0.49440429
0.36974562 0.37863101 0.49394244
0.36871523 0.37718203 0.49316491
0.36396517 0.37195828 0.49017615
0.50353397 0.40597518 0.52810583
0.69714125 0.36697844 0.56786928
0.66650032 0.24077772 0.50678637
0.62687855 0.23235651 0.48589546
0.62879924 0.23308210 0.48693962
0.52541896 0.60556319 0.58623532
0.52512546 0.60513170 0.58607718
0.52463780 0.60438479 0.58580553
0.52276034 0.60183573 0.58483962
0.60148653 0.63629219 0.60736620
0.83190334 0.70017402 0.65617397
0.94473800 0.66484057 0.65317340
0.73906025 0.33839921 0.54418334
0.62222364 0.22976372 0.48336515
0.63401110 0.74621843 0.64004125
0.63388046 0.74606177 0.63999531
0.63368585 0.74583228 0.63992824
0.63300748 0.74510796 0.63969773
0.68122342 0.76869732 0.65323533
0.86656138 0.84193013 0.67885733
0.97663940 0.87543925 0.67807569
0.97981635 0.86425442 0.67547257
0.82121620 0.40301265 0.59042292
0.65699391 0.78372267 0.64872338
0.65743424 0.78386738 0.64885969
0.65872192 0.78435842 0.64922863
0.66362069 0.78644403 0.65064414
0.73697595 0.82223113 0.66824256
0.89473396 0.88437619 0.68432622
0.97937239 0.91210124 0.67907973
0.98231864 0.91565789 0.67465940
0.98216818 0.91202842 0.67360046
0.82133626 0.86959582 0.69008376
0.82565226 0.87180366 0.69055702
0.83047899 0.87427036 0.69101695
0.84503841 0.88104994 0.69230730
0.88183023 0.89478488 0.69316613
0.94671748 0.91369569 0.68796204
0.98679884 0.93010609 0.68326228
0.98820143 0.93222287 0.68053264
0.98819609 0.93205973 0.67988766
0.34704556 0.35001089 0.48390860
0.34599991 0.34891621 0.48325230
0.34414709 0.34704908 0.48214243
0.33817689 0.34023737 0.47849122
0.49370801 0.36723662 0.52389294
0.67610171 0.31478185 0.56007167
0.61397707 0.20215140 0.47786143
0.58826254 0.19749594 0.46363564
0.58827582 0.19751378 0.46363148
0.37435808 0.38258782 0.49907309
0.37370159 0.38161885 0.49859914
0.37264386 0.38006309 0.49783093
0.36813419 0.37451942 0.49489140
0.51694449 0.40443018 0.53555133
0.70078522 0.35751391 0.57247073
0.65934762 0.23792093 0.50271467
0.62879924 0.23308210 0.48693974
0.62879924 0.23308210 0.48693974
0.38228098 0.39445405 0.50457881
0.38165447 0.39350076 0.50416047
0.38064348 0.39196683 0.50347759
0.37632423 0.38668249 0.50090569
0.52313868 0.42082297 0.54058039
0.71235671 0.37519917 0.58021073
0.67569123 0.24214326 0.51159970
0.62879473 0.23308087 0.48693726
0.62879924 0.23308210 0.48693974
0.40483507 0.42934206 0.51818942
0.40419975 0.42836711 0.51783621
0.40318933 0.42681828 0.51727348
0.39840704 0.42131353 0.51510098
0.54012855 0.46218842 0.55329569
0.74057827 0.44037531 0.59948048
0.73336744 0.26769163 0.54215467
0.62812098 0.23293032 0.48657510
0.62879924 0.23308210 0.48693974
0.46714449 0.51916793 0.55342538
0.46667490 0.51851646 0.55316612
0.46586008 0.51738726 0.55271964
0.46180807 0.51315077 0.55087174
0.58303673 0.55723787 0.58548218
0.79373518 0.58369694 0.63372191
0.87800899 0.43263142 0.61904880
0.62799998 0.23012372 0.48640627
0.62877864 0.23307816 0.48692882
0.56277452 0.65787797 0.60658153
0.56250126 0.65751876 0.60643945
0.56206474 0.65694674 0.60621530
0.56042590 0.65506475 0.60544045
0.63598390 0.68841022 0.62779066
0.85455514 0.75776288 0.66802027
0.96288194 0.76705716 0.66373435
0.89614632 0.49127685 0.62903648
0.61620881 0.22627167 0.48002190
0.64069490 0.75262920 0.64595470
0.64060137 0.75246976 0.64592056
0.64041148 0.75219769 0.64584715
0.63966227 0.75131157 0.64557817
0.69585640 0.77778525 0.66104577
0.87161630 0.84722572 0.68525957
0.97722530 0.88059987 0.68516026
0.98028556 0.87279349 0.68144083
0.91316750 0.53836016 0.64069490
0.66195177 0.78591578 0.65482822
0.66267565 0.78618257 0.65503033
0.66395915 0.78668355 0.65538687
0.66841930 0.78855562 0.65664374
0.75642069 0.83078454 0.67775477
0.89789550 0.88493782 0.69220998
0.97942469 0.91204281 0.68750146
0.98232300 0.91583640 0.68273419
0.98218720 0.91248519 0.68326561
0.81851160 0.86295902 0.69139523
0.82149131 0.86409453 0.69173030
0.82610103 0.86589035 0.69223021
0.83889643 0.87260557 0.69355256
0.87654781 0.88518575 0.69415972
0.94169616 0.90330886 0.68932136
0.98161338 0.92067690 0.68552040
0.98264938 0.92316386 0.68192863
0.98264096 0.92288720 0.68215631
