public/luts/EV_GOLD+OVER+BLUE_NAZARE_LUT.cube
TITLE "EV_GOLD_NAZARE"
LUT_3D_SIZE 33
# MLUTS-Log3/Sony S-Gamut3.cine -> LA - EV_GOLD_NAZARE/LA - EV_GOLD_NAZARE, CineEI Shift 0.00, Black Level 2.99% IRE, Input 109% -> Output 100% - Created with LUTCalc v4.09 by Ben Turley February 2025
0.02660467 0.02723270 0.03283642
0.02677461 0.02742405 0.03296693
0.02694577 0.02764151 0.03309753
0.02763197 0.02836585 0.03355253
0.02847414 0.02904143 0.03404328
0.02887842 0.02945192 0.03571437
0.03127268 0.03119438 0.03765089
0.03813739 0.03601393 0.04236778
0.04798516 0.04211088 0.04923573
0.06883360 0.05225781 0.06062982
0.10128546 0.06841210 0.07484225
0.13935160 0.08743437 0.09207709
0.18790043 0.11123870 0.11269872
0.23926829 0.13473275 0.13291016
0.30138547 0.15701663 0.15300122
0.35994267 0.17627290 0.17132545
0.42418527 0.18743121 0.18352693
0.48987252 0.19925137 0.19649162
0.53604994 0.20274837 0.20235849
0.58206168 0.20567779 0.20777449
0.61887116 0.20617333 0.20980447
0.65339331 0.20605005 0.21127541
0.66419850 0.20616642 0.21178569
0.66370340 0.20640296 0.21181048
0.66332171 0.20650182 0.21181891
0.66303942 0.20647993 0.21181303
0.66281844 0.20646374 0.21180883
0.66268956 0.20645608 0.21180715
0.66258121 0.20644959 0.21180580
0.66252937 0.20644631 0.21180538
0.66248131 0.20644324 0.21180496
0.66245791 0.20644160 0.21180454
0.66243451 0.20643996 0.21180412
0.02684548 0.02752695 0.03302733
0.02685145 0.02752961 0.03302978
0.02702294 0.02774547 0.03316031
0.02760137 0.02835030 0.03354114
0.02842933 0.02901636 0.03402106
0.02888480 0.02924190 0.03560175
0.03097641 0.03094100 0.03754549
0.03791689 0.03584818 0.04217773
0.04768871 0.04192228 0.04906407
0.06861738 0.05214475 0.06047997
0.10119571 0.06836903 0.07480274
0.13933364 0.08741987 0.09206810
0.18803102 0.11129754 0.11275140
0.23938854 0.13478099 0.13295316
0.30147976 0.15704482 0.15302816
0.36002458 0.17629576 0.17134772
0.42423126 0.18743553 0.18353260
0.48991427 0.19925602 0.19649770
0.53606691 0.20274869 0.20236039
0.58207674 0.20567779 0.20777589
0.61887467 0.20617333 0.20980472
0.65339378 0.20605005 0.21127541
0.66419865 0.20616642 0.21178569
0.66370340 0.20640296 0.21181048
0.66332171 0.20650182 0.21181891
0.66303942 0.20647993 0.21181303
0.66281844 0.20646374 0.21180883
0.66268956 0.20645608 0.21180715
0.66258121 0.20644959 0.21180580
0.66252937 0.20644631 0.21180538
0.66248125 0.20644324 0.21180496
0.66245745 0.20644160 0.21180454
0.66243405 0.20643996 0.21180412
0.02708818 0.02784325 0.03321812
0.02709417 0.02784583 0.03322057
0.02710016 0.02784841 0.03322302
0.02770307 0.02844350 0.03360262
0.02840220 0.02900420 0.03400988
0.02896564 0.02916932 0.03557837
0.03074457 0.03077098 0.03746344
0.03778800 0.03571666 0.04203037
0.04745959 0.04175835 0.04891492
0.06828537 0.05197405 0.06024087
0.10096103 0.06826373 0.07467827
0.13924317 0.08736698 0.09203153
0.18801254 0.11128386 0.11274113
0.23951557 0.13483527 0.13300094
0.30160134 0.15710113 0.15307668
0.36010960 0.17631997 0.17137120
0.42432923 0.18745960 0.18355637
0.48995602 0.19926068 0.19650379
0.53610949 0.20275347 0.20236674
0.58209363 0.20567811 0.20777756
0.61889028 0.20617333 0.20980597
0.65339713 0.20605005 0.21127566
0.66419911 0.20616642 0.21178569
0.66370356 0.20640296 0.21181048
0.66332171 0.20650182 0.21181891
0.66303942 0.20647993 0.21181303
0.66281844 0.20646374 0.21180883
0.66268956 0.20645608 0.21180715
0.66258121 0.20644959 0.21180580
0.66252937 0.20644631 0.21180538
0.66248125 0.20644324 0.21180496
0.66245739 0.20644160 0.21180454
0.66243359 0.20643996 0.21180412
0.02863069 0.02923056 0.03418231
0.02846009 0.02910100 0.03406953
0.02846702 0.02910274 0.03407190
0.02866301 0.02922847 0.03418862
0.02919779 0.02956508 0.03460171
0.02960232 0.02963717 0.03611344
0.03145858 0.03143840 0.03784040
0.03816358 0.03612215 0.04242932
0.04784590 0.04212003 0.04918882
0.06826135 0.05205568 0.06031416
0.10052764 0.06814731 0.07452569
0.13893397 0.08725466 0.09193198
0.18784607 0.11119536 0.11266795
0.23943594 0.13478881 0.13296463
0.30170058 0.15713174 0.15310593
0.36019194 0.17634101 0.17139244
0.42438353 0.18746675 0.18356503
0.49000195 0.19926685 0.19651170
0.53612746 0.20275457 0.20236851
0.58211152 0.20567924 0.20777910
0.61889373 0.20617381 0.20980619
0.65339952 0.20605052 0.21127583
0.66419926 0.20616653 0.21178569
0.66370362 0.20640296 0.21181048
0.66332171 0.20650182 0.21181891
0.66303942 0.20647993 0.21181303
0.66281844 0.20646374 0.21180883
0.66268956 0.20645608 0.21180715
0.66258121 0.20644959 0.21180580
0.66252937 0.20644631 0.21180538
0.66248125 0.20644324 0.21180496
0.66245739 0.20644160 0.21180454
0.66243353 0.20643996 0.21180412
0.02968624 0.02889349 0.03528195
0.02961442 0.02930907 0.03514658
0.02954145 0.02977676 0.03503004
0.02962484 0.02932134 0.03515064
0.02977345 0.02891486 0.03528997
0.02982109 0.03003705 0.03679591
0.03202027 0.03195816 0.03828804
0.03863827 0.03671039 0.04307731
0.04832872 0.04261687 0.04956963
0.06878928 0.05245671 0.06078214
0.10049037 0.06823036 0.07459362
0.13848496 0.08711992 0.09179730
0.18751735 0.11108330 0.11254943
0.23926301 0.13470173 0.13289388
0.30161562 0.15707246 0.15306115
0.36027744 0.17636294 0.17141460
0.42447469 0.18748607 0.18358518
0.49004462 0.19927150 0.19651829
0.53616903 0.20275906 0.20237500
0.58212564 0.20567978 0.20778003
0.61890836 0.20617435 0.20980702
0.65340088 0.20605107 0.21127589
0.66419972 0.20616708 0.21178569
0.66370371 0.20640307 0.21181048
0.66332171 0.20650182 0.21181891
0.66303942 0.20647993 0.21181303
0.66281844 0.20646374 0.21180883
0.66268956 0.20645608 0.21180715
0.66258121 0.20644959 0.21180580
0.66252937 0.20644631 0.21180538
0.66248125 0.20644324 0.21180496
0.66245739 0.20644160 0.21180454
0.66243353 0.20643996 0.21180412
0.03110815 0.03163312 0.03782742
0.03061739 0.03137877 0.03761542
0.03044936 0.03127500 0.03751574
0.03034037 0.03107699 0.03743267
0.03051283 0.03127710 0.03753553
0.03181378 0.03202576 0.03820903
0.03381581 0.03376991 0.03969652
0.04038449 0.03821665 0.04511312
0.05010828 0.04487141 0.05101732
0.06981116 0.05380374 0.06195549
0.10106193 0.06921003 0.07523550
0.13846083 0.08765611 0.09200078
0.18709032 0.11101888 0.11242935
0.23895822 0.13463450 0.13280722
0.30141020 0.15694436 0.15297499
0.36017345 0.17628961 0.17136940
0.42454728 0.18748870 0.18359495
0.49010049 0.19927030 0.19652502
0.53619520 0.20276073 0.20237800
0.58214975 0.20568120 0.20778232
0.61891297 0.20617450 0.20980754
0.65340529 0.20605121 0.21127642
0.66419990 0.20616722 0.21178572
0.66370383 0.20640321 0.21181048
0.66332171 0.20650182 0.21181891
0.66303942 0.20647993 0.21181303
0.66281844 0.20646374 0.21180883
0.66268956 0.20645608 0.21180715
0.66258121 0.20644959 0.21180580
0.66252937 0.20644631 0.21180538
0.66248131 0.20644324 0.21180496
0.66245773 0.20644160 0.21180454
0.66243386 0.20643996 0.21180412
0.03432181 0.03497448 0.04058207
0.03398504 0.03460869 0.04025720
0.03370720 0.03430875 0.03999568
0.03357669 0.03414787 0.03986226
0.03348118 0.03402153 0.03976273
0.03456964 0.03487563 0.04059791
0.03605399 0.03603050 0.04176467
0.04263357 0.04004279 0.04680426
0.05248681 0.04680431 0.05293641
0.07224113 0.05629826 0.06401018
0.10216467 0.07066991 0.07631019
0.13903734 0.08886937 0.09268102
0.18707765 0.11154819 0.11267421
0.23855371 0.13459624 0.13270954
0.30109076 0.15685637 0.15287496
0.35997818 0.17617137 0.17129232
0.42441222 0.18740410 0.18354168
0.49015661 0.19926512 0.19653009
0.53624495 0.20275659 0.20238256
0.58216952 0.20568174 0.20778371
0.61893216 0.20617501 0.20980873
0.65340622 0.20605121 0.21127683
0.66420081 0.20616722 0.21178614
0.66370389 0.20640321 0.21181051
0.66332171 0.20650182 0.21181891
0.66303942 0.20647993 0.21181303
0.66281844 0.20646374 0.21180883
0.66268956 0.20645608 0.21180715
0.66258121 0.20644959 0.21180580
0.66252937 0.20644631 0.21180538
0.66248131 0.20644324 0.21180496
0.66245791 0.20644160 0.21180454
0.66243432 0.20643996 0.21180412
0.04075023 0.04203890 0.04728432
0.04035557 0.04157638 0.04699696
0.04003631 0.04121276 0.04674389
0.03971060 0.04080834 0.04649260
0.03959592 0.04064456 0.04638230
0.04019556 0.04110717 0.04670858
0.04161871 0.04225392 0.04760335
0.04708455 0.04601683 0.05039835
0.05728070 0.05158146 0.05760942
0.07652915 0.06336330 0.06748492
0.10642930 0.07668655 0.08030027
0.14128268 0.09308455 0.09505930
0.18841079 0.11546539 0.11465616
0.23912750 0.13679744 0.13374117
0.30100175 0.15736435 0.15303633
0.35992525 0.17650589 0.17141115
0.42394444 0.18717280 0.18341661
0.48982136 0.19905914 0.19642703
0.53623237 0.20272579 0.20237546
0.58214956 0.20565141 0.20777684
0.61894211 0.20617555 0.20980922
0.65341447 0.20605172 0.21127728
0.66420090 0.20616722 0.21178630
0.66370398 0.20640321 0.21181068
0.66332168 0.20650182 0.21181891
0.66303942 0.20647993 0.21181303
0.66281844 0.20646374 0.21180883
0.66268956 0.20645608 0.21180715
0.66258121 0.20644959 0.21180580
0.66252937 0.20644631 0.21180538
0.66248131 0.20644324 0.21180496
0.66245791 0.20644160 0.21180454
0.66243451 0.20643996 0.21180412
0.04983202 0.05187525 0.05572263
0.04944561 0.05140257 0.05528692
0.04910170 0.05099063 0.05488521
0.04872174 0.05053406 0.05445177
0.04840803 0.05015072 0.05408821
0.04889402 0.05050786 0.05446000
0.04968450 0.05112090 0.05512296
0.05496276 0.05449493 0.05886296
0.06408919 0.06013094 0.06412675
0.08286186 0.07035404 0.07282740
0.11207854 0.08594196 0.08600278
0.14667348 0.10149061 0.09997998
0.19123886 0.12187850 0.11814744
0.24091250 0.14206506 0.13629632
0.30179603 0.15968247 0.15438936
0.36003759 0.17726021 0.17171017
0.42372493 0.18745325 0.18351483
0.48925466 0.19873420 0.19626241
0.53582749 0.20248709 0.20225568
0.58209071 0.20560251 0.20776339
0.61889392 0.20613637 0.20979961
0.65341726 0.20605227 0.21127728
0.66420344 0.20616773 0.21178630
0.66370352 0.20640321 0.21181068
0.66332122 0.20650182 0.21181891
0.66303939 0.20647993 0.21181303
0.66281844 0.20646374 0.21180883
0.66268956 0.20645608 0.21180715
0.66258121 0.20644959 0.21180580
0.66252937 0.20644631 0.21180538
0.66248131 0.20644324 0.21180496
0.66245791 0.20644160 0.21180454
0.66243451 0.20643996 0.21180412
0.06550908 0.06917549 0.06906344
0.06512718 0.06873494 0.06873191
0.06474174 0.06828483 0.06837386
0.06435368 0.06784384 0.06803934
0.06394873 0.06737966 0.06766593
0.06376291 0.06711670 0.06749117
0.06449243 0.06765149 0.06796991
0.06754087 0.06971733 0.06970600
0.07516418 0.07441405 0.07417430
0.08885881 0.08178671 0.08003810
0.11798539 0.09678007 0.09280737
0.15306210 0.11407595 0.10676962
0.19809070 0.13354676 0.12479085
0.24820250 0.15321268 0.14194915
0.31242125 0.16961871 0.16028326
0.36830068 0.18498903 0.17573804
0.42866664 0.19003654 0.18478816
0.49341521 0.20095595 0.19739120
0.53471827 0.20195500 0.20201930
0.58116137 0.20515453 0.20760182
0.61865656 0.20604987 0.20977968
0.65320297 0.20597574 0.21125956
0.66420405 0.20616802 0.21178611
0.66370392 0.20640347 0.21181048
0.66332097 0.20650182 0.21181891
0.66303915 0.20647993 0.21181303
0.66281844 0.20646374 0.21180883
0.66268956 0.20645608 0.21180715
0.66258121 0.20644959 0.21180580
0.66252937 0.20644631 0.21180538
0.66248125 0.20644324 0.21180496
0.66245769 0.20644160 0.21180454
0.66243429 0.20643996 0.21180412
0.08662590 0.09324605 0.08711787
0.08613431 0.09280907 0.08674804
0.08563928 0.09235999 0.08632931
0.08515369 0.09192792 0.08594669
0.08465668 0.09148190 0.08553565
0.08397116 0.09090180 0.08500817
0.08367418 0.09059536 0.08476788
0.08701053 0.09244320 0.08657308
0.09154203 0.09546986 0.08915916
0.10401982 0.10240777 0.09443058
0.12304656 0.11228127 0.10111987
0.15849014 0.12921156 0.11581911
0.20633608 0.15006682 0.13303165
0.25625419 0.16893348 0.15092867
0.32917723 0.18660381 0.16878986
0.38825230 0.20377508 0.18538191
0.44331862 0.20046747 0.19020239
0.50278665 0.20606383 0.19995984
0.53906767 0.20431410 0.20328555
0.57945811 0.20437967 0.20733023
0.61733336 0.20548613 0.20960805
0.65278396 0.20584667 0.21123026
0.66387428 0.20606459 0.21176250
0.66370209 0.20640347 0.21181006
0.66331926 0.20650182 0.21181852
0.66303915 0.20647993 0.21181303
0.66281844 0.20646374 0.21180883
0.66268956 0.20645608 0.21180715
0.66258121 0.20644959 0.21180580
0.66252937 0.20644631 0.21180538
0.66248125 0.20644324 0.21180496
0.66245739 0.20644160 0.21180454
0.66243383 0.20643996 0.21180412
0.10998423 0.12019496 0.10548840
0.10957206 0.11974033 0.10518295
0.10912647 0.11924382 0.10485072
0.10871740 0.11879206 0.10454974
0.10827535 0.11830092 0.10422312
0.10772250 0.11771248 0.10382921
0.10703542 0.11699451 0.10334578
0.10756552 0.11716658 0.10350777
0.11211216 0.12030045 0.10581393
0.12114080 0.12521904 0.10975477
0.13869809 0.13430725 0.11704767
0.16245623 0.14563062 0.12484741
0.21061625 0.16630759 0.14194639
0.26820727 0.18817185 0.16098410
0.34359592 0.20902360 0.17882205
0.41403460 0.22437330 0.19680539
0.47449989 0.22161147 0.20120286
0.52502395 0.21884976 0.20656652
0.55983494 0.21100680 0.20665365
0.59521924 0.20892912 0.20889500
0.61494838 0.20444557 0.20933617
0.65093090 0.20501900 0.21102714
0.66326725 0.20586227 0.21171644
0.66317698 0.20622647 0.21176978
0.66330048 0.20649872 0.21181726
0.66302047 0.20647683 0.21181180
0.66281859 0.20646374 0.21180883
0.66268971 0.20645608 0.21180715
0.66258124 0.20644959 0.21180580
0.66252937 0.20644631 0.21180538
0.66248131 0.20644324 0.21180496
0.66245754 0.20644160 0.21180454
0.66243368 0.20643996 0.21180412
0.13930382 0.15116683 0.12804644
0.13897619 0.15079363 0.12781541
0.13858295 0.15034077 0.12753342
0.13824342 0.14995724 0.12729438
0.13786546 0.14952855 0.12702586
0.13741682 0.14903254 0.12671336
0.13687968 0.14845269 0.12634312
0.13594744 0.14751422 0.12573600
0.13626672 0.14752039 0.12578418
0.14387649 0.15267491 0.12912620
0.15691103 0.16023844 0.13415438
0.17884121 0.17052702 0.14195816
0.21373319 0.18510303 0.15213138
0.27192166 0.20903233 0.16993983
0.36645696 0.23573549 0.19243243
0.44398060 0.25420472 0.21139908
0.51694862 0.25125698 0.21326167
0.57386860 0.24822876 0.21691698
0.60560129 0.22844981 0.21303848
0.64000841 0.21910194 0.21253006
0.63739030 0.20988038 0.21111317
0.64746785 0.20345863 0.21069319
0.66066571 0.20469770 0.21146622
0.66217841 0.20587752 0.21169040
0.66249141 0.20621700 0.21175314
0.66296776 0.20646753 0.21180885
0.66276940 0.20645506 0.21180608
0.66269017 0.20645608 0.21180715
0.66258170 0.20644959 0.21180580
0.66252940 0.20644631 0.21180538
0.66248131 0.20644324 0.21180496
0.66245791 0.20644160 0.21180454
0.66243414 0.20643996 0.21180412
0.17015050 0.18398114 0.15161789
0.16986422 0.18364590 0.15137354
0.16955780 0.18329189 0.15111180
0.16927315 0.18295911 0.15086989
0.16896924 0.18260926 0.15061186
0.16860707 0.18219260 0.15030871
0.16817993 0.18171250 0.14995372
0.16746772 0.18095084 0.14939695
0.16642609 0.17989279 0.14860464
0.16843418 0.18097419 0.14941480
0.17932044 0.18817738 0.15480865
0.19723848 0.19893509 0.16118208
0.23063095 0.21402758 0.17013989
0.27860642 0.23156382 0.18066335
0.37255107 0.26062029 0.20459693
0.47250731 0.28874811 0.22459981
0.54657784 0.28774625 0.22640750
0.61954404 0.28491999 0.22841544
0.65971049 0.26524958 0.22298163
0.68964571 0.24319946 0.21838078
0.68852357 0.22259977 0.21436372
0.67638131 0.21144758 0.21205306
0.65782784 0.20294990 0.21111978
0.66015173 0.20451900 0.21142875
0.66125101 0.20573966 0.21164708
0.66191791 0.20605714 0.21171803
0.66267225 0.20643504 0.21180037
0.66259656 0.20643668 0.21180163
0.66258207 0.20644959 0.21180572
0.66252976 0.20644631 0.21180530
0.66248131 0.20644324 0.21180493
0.66245791 0.20644160 0.21180454
0.66243451 0.20643996 0.21180412
0.20990796 0.22756339 0.17960122
0.20971616 0.22731515 0.17944118
0.20944662 0.22699339 0.17921440
0.20924107 0.22673102 0.17904196
0.20898573 0.22642341 0.17882774
0.20872633 0.22609744 0.17861080
0.20839500 0.22570102 0.17833658
0.20787104 0.22509814 0.17793231
0.20701131 0.22427337 0.17736346
0.20565434 0.22318346 0.17660761
0.20799956 0.22413360 0.17735029
0.22295137 0.23429480 0.18384877
0.25020857 0.25134427 0.19373776
0.29820207 0.27103102 0.20577560
0.39074884 0.30440113 0.21966916
0.49113368 0.33107896 0.24026521
0.58141846 0.34179093 0.24088866
0.65760353 0.34078232 0.24278929
0.72212062 0.32470238 0.23267620
0.76009284 0.30499411 0.22631990
0.76692939 0.26165965 0.21837098
0.75983949 0.23452773 0.21356118
0.70239707 0.21464234 0.21173338
0.65963637 0.20201194 0.21103658
0.66017249 0.20372145 0.21131432
0.65971203 0.20506875 0.21150527
0.66085547 0.20562877 0.21162668
0.66232170 0.20637380 0.21178482
0.66232552 0.20639089 0.21179000
0.66252976 0.20644631 0.21180488
0.66248131 0.20644324 0.21180451
0.66245791 0.20644160 0.21180451
0.66243451 0.20643996 0.21180412
0.24720160 0.27299413 0.21012893
0.24698474 0.27272820 0.20999106
0.24676012 0.27245471 0.20984845
0.24654185 0.27218592 0.20970937
0.24631566 0.27190927 0.20956540
0.24605143 0.27158497 0.20939769
0.24575803 0.27122792 0.20921198
0.24525725 0.27064349 0.20891038
0.24457414 0.26986751 0.20850741
0.24365570 0.26884922 0.20798328
0.24243636 0.26753082 0.20720378
0.24920053 0.27181169 0.20917894
0.27709109 0.28914762 0.21780723
0.31748758 0.31101556 0.22797684
0.41104957 0.34341160 0.24276821
0.50919496 0.37339926 0.25688403
0.59994905 0.38381341 0.25754340
0.69238907 0.39466754 0.25820347
0.75760653 0.38070681 0.24704520
0.82161673 0.36431262 0.23591539
0.83597719 0.32607577 0.22609708
0.83663377 0.27859602 0.21734523
0.78701026 0.24165399 0.21344165
0.70708685 0.21719240 0.21185105
0.66111380 0.20137981 0.21097513
0.66008986 0.20321337 0.21122560
0.65854110 0.20457017 0.21140025
0.66039959 0.20549376 0.21159733
0.66203310 0.20632206 0.21177182
0.66225578 0.20638163 0.21178779
0.66248131 0.20644324 0.21180412
0.66245791 0.20644160 0.21180412
0.66243451 0.20643996 0.21180412
0.28654255 0.32328388 0.23768338
0.28643974 0.32313744 0.23760536
0.28622817 0.32289588 0.23745018
0.28610697 0.32273227 0.23735873
0.28590880 0.32250124 0.23721259
0.28576196 0.32230913 0.23710218
0.28553041 0.32203621 0.23693169
0.28525298 0.32167875 0.23672597
0.28476846 0.32112595 0.23638740
0.28395993 0.32026014 0.23588044
0.28289828 0.31915003 0.23522921
0.28383311 0.31967109 0.23539444
0.29477506 0.32697907 0.23944313
0.33455078 0.35105055 0.25056415
0.42998342 0.40073488 0.26752339
0.52565070 0.43561133 0.28154868
0.61823739 0.46200672 0.27568395
0.71135816 0.47311774 0.27630290
0.78095138 0.47874571 0.25986262
0.84485188 0.46409094 0.24746740
0.88509529 0.43754761 0.23268186
0.89540746 0.39246305 0.22208822
0.88384515 0.33688534 0.21807750
0.82918393 0.29681697 0.21643722
0.73663462 0.24208952 0.21357972
0.68094695 0.20299079 0.21162542
0.67138992 0.20372808 0.21152700
0.65661782 0.20341132 0.21117792
0.65890983 0.20461216 0.21142833
0.66171935 0.20622920 0.21175040
0.66198086 0.20630089 0.21176922
0.66245791 0.20644160 0.21180412
0.66243451 0.20643996 0.21180412
0.32416050 0.37093089 0.26800723
0.32406184 0.37078853 0.26792331
0.32396317 0.37064623 0.26783940
0.32385428 0.37049397 0.26774694
0.32375243 0.37034784 0.26766001
0.32363353 0.37018105 0.26755873
0.32351848 0.37001567 0.26746024
0.32330565 0.36971917 0.26728116
0.32304550 0.36935206 0.26706255
0.32244773 0.36866349 0.26664365
0.32151868 0.36765431 0.26603503
0.32255911 0.36823814 0.26635594
0.32758186 0.37206232 0.26858307
0.35169137 0.38665554 0.27433227
0.44823138 0.44438427 0.29056596
0.54331285 0.49657720 0.30528421
0.63618520 0.52095249 0.29937552
0.72896685 0.54626809 0.29345057
0.79809863 0.55173699 0.27785878
0.86719315 0.55683223 0.26029779
0.90928975 0.53446689 0.24409998
0.94003082 0.50767407 0.22857986
0.93829882 0.45452968 0.22283767
0.92440952 0.38743649 0.22115105
0.85923632 0.32231604 0.21821463
0.75697357 0.24354264 0.21424139
0.69336989 0.20350460 0.21192766
0.66951494 0.20257690 0.21130447
0.65511942 0.20254416 0.21100942
0.65859441 0.20452058 0.21140696
0.66144416 0.20614856 0.21173184
0.66195744 0.20629925 0.21176922
0.66243451 0.20643996 0.21180412
0.35713758 0.42400764 0.29354160
0.35709666 0.42392560 0.29350750
0.35700475 0.42376105 0.29342818
0.35695030 0.42365318 0.29338262
0.35685855 0.42348869 0.29330324
0.35679105 0.42335663 0.29324580
0.35669390 0.42317960 0.29316164
0.35657900 0.42295575 0.29306427
0.35637774 0.42258982 0.29289313
0.35610153 0.42210491 0.29267678
0.35549503 0.42121964 0.29226389
0.35415971 0.41963513 0.29153211
0.35464534 0.41996675 0.29174684
0.37089513 0.43368061 0.29655588
0.44885332 0.48407051 0.31227271
0.54443224 0.53669576 0.32611865
0.64442156 0.57796230 0.31455963
0.73654478 0.60334030 0.30872669
0.79878104 0.61497687 0.28949610
0.86787315 0.62035983 0.27266173
0.91306007 0.62301703 0.25483880
0.94373017 0.59880756 0.23859761
0.95693055 0.57818382 0.22864233
0.94828189 0.52706003 0.22548766
0.94094320 0.47106525 0.22231317
0.88406043 0.40031650 0.21812209
0.78205666 0.29286812 0.21432444
0.71705033 0.20703297 0.21217911
0.68454748 0.20467045 0.21140995
0.65352140 0.20125458 0.21076718
0.65718825 0.20337852 0.21119472
0.66116191 0.20602068 0.21170518
0.66167545 0.20617122 0.21174256
0.38949769 0.47781581 0.31825824
0.38945600 0.47774523 0.31822847
0.38941025 0.47766917 0.31819559
0.38934935 0.47756915 0.31815166
0.38929491 0.47747719 0.31811273
0.38922289 0.47735900 0.31806002
0.38915855 0.47724895 0.31801330
0.38904119 0.47705468 0.31792798
0.38890699 0.47682676 0.31783129
0.38864373 0.47643193 0.31765669
0.38829166 0.47591802 0.31743699
0.38708585 0.47471108 0.31688635
0.38455288 0.47246076 0.31587368
0.39783086 0.48143022 0.31869472
0.46944317 0.52682880 0.33371306
0.54382448 0.57501283 0.34752736
0.64488941 0.61944756 0.33459566
0.74330028 0.66139377 0.32303301
0.80711803 0.67238473 0.30419741
0.86719090 0.68213513 0.28399555
0.91240933 0.68478628 0.26675197
0.94591837 0.68690604 0.24901511
0.95953071 0.67058642 0.23857171
0.96529378 0.65383709 0.23131221
0.96319572 0.60787048 0.22663565
0.96158882 0.55609188 0.22216262
0.90941254 0.45673937 0.21815195
0.80660729 0.29625542 0.21461432
0.73379236 0.20901523 0.21231921
0.68274046 0.20327265 0.21115121
0.65201372 0.20005643 0.21054015
0.65688542 0.20324464 0.21116627
0.66086102 0.20588394 0.21167663
0.41756100 0.52085917 0.33591183
0.41752345 0.52081060 0.33589275
0.41747855 0.52074516 0.33586250
0.41743763 0.52069175 0.33584169
0.41737896 0.52060652 0.33580214
0.41732440 0.52053513 0.33577352
0.41725611 0.52043554 0.33572760
0.41716837 0.52031931 0.33568100
0.41703249 0.52012528 0.33559332
0.41685955 0.51989377 0.33549721
0.41653728 0.51949178 0.33531761
0.41564958 0.51870657 0.33497654
0.41328816 0.51694201 0.33416348
0.41760107 0.51969788 0.33502347
0.46515267 0.55225135 0.34647026
0.53476080 0.59978346 0.35909663
0.64307650 0.65545655 0.35234428
0.74265290 0.69976632 0.34002001
0.80413120 0.71532716 0.31896755
0.86472159 0.72548547 0.29902065
0.90419769 0.73022462 0.28596273
0.93940148 0.73201292 0.26881998
0.95473003 0.73097504 0.26183427
0.96071274 0.71625872 0.25486472
0.96427741 0.70296088 0.24704481
0.96353664 0.66184380 0.24147482
0.96458710 0.61993026 0.23272702
0.91582117 0.51386255 0.22466207
0.82017384 0.33631178 0.21883340
0.75229716 0.21447824 0.21215316
0.69981678 0.20850136 0.21094416
0.64957089 0.19840365 0.21016916
0.65445716 0.20155178 0.21079360
0.44376453 0.56290328 0.35196360
0.44373047 0.56285624 0.35194898
0.44369466 0.56280473 0.35193186
0.44365690 0.56275068 0.35191449
0.44361866 0.56269642 0.35189731
0.44356664 0.56262077 0.35187162
0.44351605 0.56255048 0.35184949
0.44343343 0.56242992 0.35180902
0.44333811 0.56229683 0.35176770
0.44318179 0.56207007 0.35169073
0.44298636 0.56180081 0.35160644
0.44219610 0.56105077 0.35133839
0.44038706 0.55957380 0.35081881
0.44488711 0.56280125 0.35177861
0.47605288 0.58629316 0.35940881
0.52272703 0.62033577 0.36850078
0.63358824 0.67865954 0.36332062
0.74076759 0.73432993 0.35648619
0.80131917 0.74859442 0.33561647
0.86035292 0.76229463 0.31401832
0.89896693 0.76736908 0.30107260
0.93137777 0.77103874 0.28980248
0.94670632 0.76992595 0.28321475
0.95411676 0.76728902 0.28177263
0.95790108 0.75599122 0.27507857
0.95954215 0.74609529 0.26699106
0.96145874 0.71798172 0.25677122
