public/luts/EV_GOLD+OVER+BLUE_NAZARE_LUT.cube
TITLE "EV_GOLD_NAZARE"
LUT_3D_SIZE 5
# MLUTS-Log3/Sony S-Gamut3.cine -> LA - EV_GOLD_NAZARE/LA - EV_GOLD_NAZARE, CineEI Shift 0.00, Black Level 2.99% IRE, Input 109% -> Output 100% - Created with LUTCalc v4.09 by Ben Turley February 2025
0.02660467 0.02723270 0.03283642
0.04798516 0.04211088 0.04923573
0.42418527 0.18743121 0.18352693
0.66332171 0.20650182 0.21181891
0.66243451 0.20643996 0.21180412
0.04983202 0.05187525 0.05572263
0.06408919 0.06013094 0.06412675
0.42372493 0.18745325 0.18351483
0.66332122 0.20650182 0.21181891
0.66243451 0.20643996 0.21180412
0.28654255 0.32328388 0.23768338
0.28476846 0.32112595 0.23638740
0.61823739 0.46200672 0.27568395
0.73663462 0.24208952 0.21357972
0.66243451 0.20643996 0.21180412
0.48554940 0.62739341 0.37262667
0.48553298 0.62728301 0.37256524
0.61537606 0.70698547 0.37921611
0.95091547 0.82960510 0.33707750
0.89270493 0.40634667 0.24063387
0.79669913 0.85057906 0.57984304
0.81164244 0.85583107 0.57852269
0.86788886 0.87300222 0.56706645
0.98628376 0.90221998 0.51966677
0.95547650 0.84384764 0.34411499
0.01871107 0.01871107 0.01871107
0.01871107 0.01871107 0.01871107
0.38056568 0.11757549 0.14340720
0.62304910 0.16894138 0.19516075
0.62889734 0.17363168 0.20319642
0.04467390 0.04606099 0.05160495
0.04796572 0.04716348 0.05264776
0.40982013 0.18425960 0.18065493
0.66332708 0.20650241 0.21181891
0.66243451 0.20643996 0.21180412
0.28363385 0.31981432 0.23570210
0.28200012 0.31778383 0.23447643
0.61348769 0.45784487 0.27475103
0.73723394 0.24238451 0.21361078
0.66243451 0.20643996 0.21180412
0.48072119 0.62636054 0.37449078
0.48080076 0.62625595 0.37438958
0.60754340 0.70287583 0.38095048
0.95088279 0.82921806 0.33656551
0.89275780 0.40641339 0.24064142
0.79732870 0.85139147 0.58397656
0.81228833 0.85660390 0.58288534
0.86856892 0.87396697 0.57206099
0.98633091 0.90345441 0.52512709
0.95547154 0.84378542 0.34393645
0.02772429 0.01964202 0.20094094
0.02592961 0.01997431 0.19958795
0.32820294 0.14541022 0.27339014
0.60684707 0.17037215 0.28513824
0.62692204 0.17262256 0.20173374
0.13308866 0.13085121 0.21841459
0.13318636 0.13077801 0.21808513
0.36160883 0.20399587 0.29762093
0.64666660 0.21019873 0.30314512
0.66244136 0.20644055 0.21180412
0.27736786 0.32037669 0.31292798
0.27571939 0.31805730 0.31150461
0.53973153 0.41142672 0.36398397
0.68893057 0.22097529 0.29977965
0.66244527 0.20644055 0.21180412
0.48034707 0.65515068 0.43137230
0.48008787 0.65480939 0.43116395
0.58305606 0.70989938 0.44253046
0.97016872 0.84291082 0.37374647
0.89312118 0.40691263 0.24068521
0.80125754 0.85586655 0.60541410
0.81535293 0.86048019 0.60472420
0.87013131 0.87881004 0.59712623
0.98714968 0.91098964 0.55591629
0.97751949 0.86986961 0.40468209
0.16650877 0.13392484 0.33448402
0.16508070 0.13279903 0.33429989
0.38894289 0.21355954 0.41486155
0.58962013 0.19723135 0.46048852
0.59203073 0.19471865 0.45171434
0.21599565 0.19278129 0.35373940
0.21600508 0.19280109 0.35377498
0.41444241 0.25056703 0.43262952
0.62884275 0.23140710 0.48105034
0.63165463 0.22911735 0.47100873
0.33464232 0.33944073 0.45981848
0.33296555 0.33711866 0.45848147
0.49100414 0.36608512 0.50510712
0.64003682 0.23053897 0.48565560
0.63156741 0.22915368 0.47118110
0.61341251 0.73990173 0.61404466
0.61325065 0.73960939 0.61404388
0.66748427 0.76479824 0.62892952
0.97750543 0.87632937 0.63828078
0.82815644 0.39936002 0.56188019
0.81488966 0.86540371 0.67048176
0.82620946 0.87069324 0.67095055
0.87814980 0.89116707 0.67037351
0.98715622 0.92699799 0.65508382
0.98839875 0.92705663 0.63530768
0.34704556 0.35001089 0.48390860
0.34414709 0.34704908 0.48214243
0.49370801 0.36723662 0.52389294
0.61397707 0.20215140 0.47786143
0.58827582 0.19751378 0.46363148
0.38228098 0.39445405 0.50457881
0.38064348 0.39196683 0.50347759
0.52313868 0.42082297 0.54058039
0.67569123 0.24214326 0.51159970
0.62879924 0.23308210 0.48693974
0.46714449 0.51916793 0.55342538
0.46586008 0.51738726 0.55271964
0.58303673 0.55723787 0.58548218
0.87800899 0.43263142 0.61904880
0.62877864 0.23307816 0.48692882
0.64069490 0.75262920 0.64595470
0.64041148 0.75219769 0.64584715
0.69585640 0.77778525 0.66104577
0.97722530 0.88059987 0.68516026
0.91316750 0.53836016 0.64069490
0.81851160 0.86295902 0.69139523
0.82610103 0.86589035 0.69223021
0.87654781 0.88518575 0.69415972
0.98161338 0.92067690 0.68552040
0.98264096 0.92288720 0.68215631
