public/luts/EV_IMMERSIVE_BLUE_IRELAND_LUT.cube
TITLE "EV_BLUE_IRELAND_LUT"
LUT_3D_SIZE 5
# MLUTS-Log3/Sony S-Gamut3.cine -> LA - EV_BLUE_IRELAND_LUT/LA - EV_BLUE_IRELAND_LUT, CineEI Shift 0.00, Black Level 1.26% IRE, Input 109% -> Output 100% - Created with LUTCalc v4.09 by Ben Turley February 2025
0.00853341 0.01421730 0.02924659
0.01158931 0.01421587 0.02914034
0.31933514 0.01096472 0.03628855
0.91255897 0.00885913 0.02837299
0.91249212 0.00885913 0.02837299
0.00850848 0.01421786 0.02813810
0.01306818 0.01421630 0.02813461
0.31932383 0.01095900 0.03151720
0.91255897 0.00885913 0.02837299
0.91249212 0.00885913 0.02837299
0.00898831 0.54564310 0.03305459
0.00898056 0.54018172 0.03299652
0.48838750 0.52982279 0.03039160
0.93846344 0.11079912 0.02848280
0.91249212 0.00885913 0.02837299
0.00967883 1.02094404 0.03883218
0.00967825 1.02089885 0.03882789
0.00956305 1.02074619 0.03786480
0.95322728 1.00964148 0.03344245
0.98168724 0.51269845 0.02960321
0.01656991 1.03964276 0.82880639
0.01554508 1.03799737 0.82445130
0.45848324 1.02532975 0.84905060
0.96392156 1.00655774 0.93407883
0.98144769 1.01273259 0.03306539
0.00849610 0.01422133 0.04117674
0.01166754 0.01421484 0.04732031
0.31939473 0.01097432 0.11153581
0.91255897 0.00885913 0.02837299
0.91249212 0.00885913 0.02837299
0.00843463 0.01423636 0.05296563
0.01213533 0.01421528 0.05322681
0.31647035 0.01097416 0.10957181
0.91255897 0.00885913 0.02837299
0.91249212 0.00885913 0.02837299
0.00897736 0.53703565 0.03297402
0.00896936 0.53169867 0.03291578
0.48316547 0.52374009 0.03035246
0.93854151 0.11107247 0.02848331
0.91249212 0.00885913 0.02837299
0.00970671 1.02062452 0.03907262
0.00970570 1.02051624 0.03906223
0.00958486 1.02095928 0.03805347
0.95305078 1.00926049 0.03343892
0.98169652 0.51279802 0.02960348
0.01765186 1.04072155 0.84286281
0.01679321 1.03908677 0.83885685
0.45629821 1.02649635 0.85966446
0.96523920 1.00624163 0.94557625
0.98144972 1.01273637 0.03306539
0.00874326 0.01419982 0.18459297
0.01151066 0.01420404 0.18623881
0.33726985 0.00878149 0.41158128
0.92381280 0.00883598 0.55390962
0.91249212 0.00885913 0.02837299
0.00870713 0.01419978 0.18337657
0.00995243 0.01420030 0.18362324
0.33566109 0.00878149 0.41032064
0.92389410 0.00883589 0.55546806
0.91249212 0.00885913 0.02837299
0.02148592 0.48098479 0.57384912
0.02140412 0.47540025 0.57058963
0.40720572 0.44234400 0.58330457
0.94597364 0.00884583 0.53323189
0.91249212 0.00885913 0.02837299
0.01092868 1.02047768 0.53618414
0.01092624 1.02028745 0.53547744
0.01026477 1.02051108 0.45111002
0.94002102 1.00514011 0.03365295
0.98176117 0.51353759 0.02960568
0.02304480 1.04819589 0.92205513
0.02258388 1.04673764 0.91943269
0.44337391 1.03580209 0.92665454
0.97218454 1.00473807 0.97939174
0.97974087 1.01192946 0.28416917
0.00871791 0.00943783 0.71624554
0.00871800 0.00943791 0.71647377
0.47062553 0.00969382 0.90568326
0.93914979 0.00879235 0.99321744
0.94929782 0.00879412 0.97826753
0.00871657 0.00943513 0.71327537
0.00871682 0.00943547 0.71360857
0.45865660 0.00971656 0.90033445
0.93913117 0.00879235 0.99322661
0.94930288 0.00879412 0.97831783
0.01292295 0.39407406 0.94968012
0.01265146 0.38813350 0.94697224
0.32431216 0.16477195 0.99998372
0.94763469 0.00879252 0.99516360
0.94933521 0.00879412 0.97864396
0.04964612 1.02252453 1.06086577
0.04967639 1.02173761 1.06100482
0.05003065 1.01803986 1.06454278
0.98118604 0.99026497 1.00327805
0.99692161 0.24582792 0.99678784
0.04691391 1.06998934 1.05501470
0.04684505 1.06944667 1.05433365
0.33531580 1.06541480 1.05094332
0.98382821 1.02029900 1.01501932
0.99675039 1.00256388 1.00161348
0.01486751 0.46734087 0.99686614
0.01448378 0.46215784 0.99666598
0.21999597 0.28733343 1.02182407
0.93298334 0.00879109 0.99824240
0.92704737 0.00879109 0.99706700
0.01713733 0.50178920 0.99871934
0.01692153 0.49789728 0.99849102
0.21160668 0.34918790 1.02729794
0.94117043 0.00879109 1.00124247
0.92704737 0.00879109 0.99706700
0.02535907 0.66679736 1.04175836
0.02520943 0.66413341 1.04111004
0.12073912 0.59920834 1.05420137
0.96033636 0.16532055 1.04198522
0.92704737 0.00879109 0.99706700
0.05099398 0.99199240 1.09018265
0.05096887 0.99137412 1.09018265
0.05076559 0.98487159 1.09018265
0.98404764 0.99224146 1.04161253
0.97919458 0.46689444 1.03966014
0.05100677 1.04524282 1.08667619
0.29108679 1.04876858 1.08956109
0.72499871 1.05821676 1.09018265
0.99339730 1.02819863 1.06679044
1.00631466 1.02092033 1.06275631
