public/luts/EV_IMMERSIVE_BLUE_IRELAND_LUT.cube
TITLE "EV_BLUE_IRELAND_LUT"
LUT_3D_SIZE 33
# MLUTS-Log3/Sony S-Gamut3.cine -> LA - EV_BLUE_IRELAND_LUT/LA - EV_BLUE_IRELAND_LUT, CineEI Shift 0.00, Black Level 1.26% IRE, Input 109% -> Output 100% - Created with LUTCalc v4.09 by Ben Turley February 2025
0.00853341 0.01421730 0.02924659
0.00853546 0.01421756 0.02896364
0.00853751 0.01421782 0.02868581
0.00868462 0.01421763 0.02873839
0.00885404 0.01421737 0.02884204
0.00921613 0.01421710 0.02892722
0.00964829 0.01421684 0.02900587
0.01048421 0.01421641 0.02907595
0.01158931 0.01421587 0.02914034
0.01486757 0.01421583 0.02923290
0.02249591 0.01421637 0.02935814
0.03599270 0.01421717 0.02992822
0.05864611 0.01421848 0.03146239
0.09159133 0.01421749 0.03388119
0.15072783 0.01420602 0.03989635
0.21711398 0.01357352 0.04317524
0.31933514 0.01096472 0.03628855
0.41900693 0.00895157 0.02866947
0.54265742 0.00882739 0.02827557
0.65889025 0.00883812 0.02830623
0.76061860 0.00884659 0.02833015
0.85450304 0.00885448 0.02835241
0.89430811 0.00885774 0.02836395
0.90714444 0.00885869 0.02837011
0.91255897 0.00885913 0.02837299
0.91253656 0.00885913 0.02837299
0.91251946 0.00885913 0.02837299
0.91251033 0.00885913 0.02837299
0.91250263 0.00885913 0.02837299
0.91249890 0.00885913 0.02837299
0.91249544 0.00885913 0.02837299
0.91249378 0.00885913 0.02837299
0.91249212 0.00885913 0.02837299
0.00847530 0.01421756 0.02903701
0.00853751 0.01421756 0.02871642
0.00853957 0.01421782 0.02844324
0.00867955 0.01421786 0.02840721
0.00884788 0.01421763 0.02849493
0.00919735 0.01421737 0.02852168
0.00962492 0.01421710 0.02857761
0.01045885 0.01421652 0.02860713
0.01156263 0.01421587 0.02864377
0.01475413 0.01421583 0.02885293
0.02247861 0.01421637 0.02911412
0.03600232 0.01421717 0.02975573
0.05872731 0.01421848 0.03144945
0.09167297 0.01421728 0.03387094
0.15082042 0.01420470 0.03990136
0.21724201 0.01357111 0.04317796
0.31941330 0.01096472 0.03628855
0.41910658 0.00895157 0.02866947
0.54270332 0.00882739 0.02827557
0.65893814 0.00883812 0.02830623
0.76063951 0.00884659 0.02833015
0.85451660 0.00885448 0.02835241
0.89431337 0.00885774 0.02836395
0.90714444 0.00885869 0.02837011
0.91255897 0.00885913 0.02837299
0.91253656 0.00885913 0.02837299
0.91251946 0.00885913 0.02837299
0.91251033 0.00885913 0.02837299
0.91250263 0.00885913 0.02837299
0.91249890 0.00885913 0.02837299
0.91249544 0.00885913 0.02837299
0.91249378 0.00885913 0.02837299
0.91249212 0.00885913 0.02837299
0.00841720 0.01421782 0.02883020
0.00847941 0.01421782 0.02851403
0.00854162 0.01421782 0.02820489
0.00868161 0.01421786 0.02816949
0.00884282 0.01421786 0.02816949
0.00919119 0.01421763 0.02818237
0.00960614 0.01421737 0.02818190
0.01043548 0.01421678 0.02819058
0.01153727 0.01421597 0.02818871
0.01461841 0.01421583 0.02836584
0.02244550 0.01421637 0.02873703
0.03596258 0.01421717 0.02950595
0.05873452 0.01421848 0.03126408
0.09174915 0.01421728 0.03385691
0.15089340 0.01420443 0.03989084
0.21737207 0.01356852 0.04318087
0.31951333 0.01096414 0.03629336
0.41920625 0.00895157 0.02866947
0.54278197 0.00882739 0.02827557
0.65898861 0.00883812 0.02830623
0.76068484 0.00884659 0.02833015
0.85453575 0.00885448 0.02835241
0.89432916 0.00885774 0.02836395
0.90714910 0.00885869 0.02837011
0.91255897 0.00885913 0.02837299
0.91253656 0.00885913 0.02837299
0.91251946 0.00885913 0.02837299
0.91251033 0.00885913 0.02837299
0.91250263 0.00885913 0.02837299
0.91249890 0.00885913 0.02837299
0.91249544 0.00885913 0.02837299
0.91249378 0.00885913 0.02837299
0.91249212 0.00885913 0.02837299
0.00840945 0.01421786 0.02883936
0.00849000 0.01421786 0.02848727
0.00855221 0.01421786 0.02817872
0.00873539 0.01421763 0.02813769
0.00889660 0.01421763 0.02813769
0.00924978 0.01421763 0.02813735
0.00966580 0.01421740 0.02813688
0.01046851 0.01421682 0.02813586
0.01155947 0.01421601 0.02813411
0.01460846 0.01421596 0.02813377
0.02240570 0.01421660 0.02835209
0.03585256 0.01421731 0.02912970
0.05861938 0.01421848 0.03084121
0.09169791 0.01421707 0.03352752
0.15097546 0.01420326 0.03988620
0.21749067 0.01356612 0.04317980
0.31959463 0.01096405 0.03629405
0.41930793 0.00895153 0.02866973
0.54282980 0.00882739 0.02827557
0.65904123 0.00883812 0.02830623
0.76070572 0.00884659 0.02833015
0.85455303 0.00885448 0.02835241
0.89433442 0.00885774 0.02836395
0.90715097 0.00885869 0.02837011
0.91255897 0.00885913 0.02837299
0.91253656 0.00885913 0.02837299
0.91251946 0.00885913 0.02837299
0.91251033 0.00885913 0.02837299
0.91250263 0.00885913 0.02837299
0.91249890 0.00885913 0.02837299
0.91249544 0.00885913 0.02837299
0.91249378 0.00885913 0.02837299
0.91249212 0.00885913 0.02837299
0.00840945 0.01421786 0.02888160
0.00849282 0.01421786 0.02852299
0.00857337 0.01421786 0.02817872
0.00875654 0.01421763 0.02813769
0.00895833 0.01421737 0.02813722
0.00931152 0.01421737 0.02813688
0.00973452 0.01421737 0.02813642
0.01053829 0.01421682 0.02813539
0.01159950 0.01421601 0.02813399
0.01475603 0.01421596 0.02813377
0.02240294 0.01421677 0.02813517
0.03576314 0.01421758 0.02875003
0.05852380 0.01421862 0.03041434
0.09157761 0.01421707 0.03304296
0.15093180 0.01420281 0.03953788
0.21760893 0.01356354 0.04317798
0.31968414 0.01096355 0.03629147
0.41940764 0.00895153 0.02866973
0.54290606 0.00882739 0.02827557
0.65908863 0.00883812 0.02830623
0.76075059 0.00884659 0.02833015
0.85456842 0.00885448 0.02835241
0.89435020 0.00885774 0.02836395
0.90715376 0.00885869 0.02837011
0.91255897 0.00885913 0.02837299
0.91253656 0.00885913 0.02837299
0.91251946 0.00885913 0.02837299
0.91251033 0.00885913 0.02837299
0.91250263 0.00885913 0.02837299
0.91249890 0.00885913 0.02837299
0.91249544 0.00885913 0.02837299
0.91249378 0.00885913 0.02837299
0.91249212 0.00885913 0.02837299
0.00843898 0.01421786 0.02862884
0.00847464 0.01421786 0.02853400
0.00855801 0.01421786 0.02818409
0.00877353 0.01421763 0.02813769
0.00897532 0.01421737 0.02813722
0.00944204 0.01421710 0.02813676
0.00986503 0.01421710 0.02813629
0.01071567 0.01421678 0.02813526
0.01178682 0.01421601 0.02813386
0.01561073 0.01421596 0.02813399
0.02264654 0.01421677 0.02813551
0.03599198 0.01421808 0.02813831
0.05845147 0.01421961 0.02908033
0.09145898 0.01421793 0.03174907
0.15074130 0.01420356 0.03869812
0.21744225 0.01356414 0.04283612
0.31978166 0.01096338 0.03629061
0.41952841 0.00895149 0.02866957
0.54296676 0.00882739 0.02827557
0.65915282 0.00883812 0.02830623
0.76077646 0.00884659 0.02833015
0.85459211 0.00885448 0.02835241
0.89435575 0.00885774 0.02836395
0.90715749 0.00885869 0.02837011
0.91255897 0.00885913 0.02837299
0.91253656 0.00885913 0.02837299
0.91251946 0.00885913 0.02837299
0.91251033 0.00885913 0.02837299
0.91250263 0.00885913 0.02837299
0.91249890 0.00885913 0.02837299
0.91249544 0.00885913 0.02837299
0.91249378 0.00885913 0.02837299
0.91249212 0.00885913 0.02837299
0.00847924 0.01421786 0.02827651
0.00849756 0.01421786 0.02827651
0.00853322 0.01421786 0.02818409
0.00875411 0.01421763 0.02813769
0.00899080 0.01421737 0.02813722
0.00945751 0.01421710 0.02813676
0.01002056 0.01421684 0.02813629
0.01087120 0.01421652 0.02813526
0.01200693 0.01421597 0.02813386
0.01644841 0.01421596 0.02813399
0.02299911 0.01421677 0.02813586
0.03671288 0.01421808 0.02813878
0.05862108 0.01422036 0.02814438
0.09138922 0.01421921 0.02997893
0.15060515 0.01420492 0.03712154
0.21713237 0.01356607 0.04232632
0.31965339 0.01096369 0.03568812
0.41965522 0.00895149 0.02866957
0.54305753 0.00882739 0.02827557
0.65921246 0.00883812 0.02830623
0.76083039 0.00884659 0.02833015
0.85460947 0.00885448 0.02835241
0.89437597 0.00885774 0.02836395
0.90715869 0.00885869 0.02837011
0.91255897 0.00885913 0.02837299
0.91253656 0.00885913 0.02837299
0.91251946 0.00885913 0.02837299
0.91251033 0.00885913 0.02837299
0.91250263 0.00885913 0.02837299
0.91249890 0.00885913 0.02837299
0.91249544 0.00885913 0.02837299
0.91249378 0.00885913 0.02837299
0.91249212 0.00885913 0.02837299
0.00850027 0.01421786 0.02813810
0.00850750 0.01421786 0.02813810
0.00852582 0.01421786 0.02813810
0.00864368 0.01421779 0.02813797
0.00888573 0.01421753 0.02813750
0.00946692 0.01421710 0.02813676
0.01002997 0.01421684 0.02813629
0.01122652 0.01421657 0.02813554
0.01236226 0.01421603 0.02813414
0.01819106 0.01421612 0.02813427
0.02427577 0.01421693 0.02813614
0.03959843 0.01421832 0.02813940
0.06094406 0.01422065 0.02814513
0.09270618 0.01421693 0.02815391
0.15070572 0.01419308 0.03191264
0.21713682 0.01354703 0.03892808
0.31935675 0.01096388 0.03533015
0.41942195 0.00895152 0.02862407
0.54315874 0.00882739 0.02827557
0.65931384 0.00883812 0.02830623
0.76087432 0.00884659 0.02833015
0.85464741 0.00885448 0.02835241
0.89438405 0.00885774 0.02836395
0.90716586 0.00885869 0.02837011
0.91255897 0.00885913 0.02837299
0.91253656 0.00885913 0.02837299
0.91251946 0.00885913 0.02837299
0.91251033 0.00885913 0.02837299
0.91250263 0.00885913 0.02837299
0.91249890 0.00885913 0.02837299
0.91249544 0.00885913 0.02837299
0.91249378 0.00885913 0.02837299
0.91249212 0.00885913 0.02837299
0.00850848 0.01421786 0.02813810
0.00850832 0.01421786 0.02813810
0.00851556 0.01421786 0.02813810
0.00859148 0.01421786 0.02813810
0.00871821 0.01421779 0.02813797
0.00932245 0.01421733 0.02813716
0.01003534 0.01421684 0.02813629
0.01123189 0.01421657 0.02813554
0.01306818 0.01421630 0.02813461
0.01873160 0.01421639 0.02813474
0.02627763 0.01421719 0.02813660
0.04222782 0.01421858 0.02813987
0.06438573 0.01422107 0.02814594
0.09598753 0.01421746 0.02815484
0.15199273 0.01417867 0.02817635
0.21743086 0.01351064 0.03148903
0.31932383 0.01095900 0.03151720
0.41899733 0.00895152 0.02862407
0.54296960 0.00882739 0.02827557
0.65942627 0.00883812 0.02830623
0.76096653 0.00884659 0.02833015
0.85468001 0.00885448 0.02835241
0.89441948 0.00885774 0.02836395
0.90716586 0.00885869 0.02837011
0.91255897 0.00885913 0.02837299
0.91253656 0.00885913 0.02837299
0.91251946 0.00885913 0.02837299
0.91251033 0.00885913 0.02837299
0.91250263 0.00885913 0.02837299
0.91249890 0.00885913 0.02837299
0.91249544 0.00885913 0.02837299
0.91249378 0.00885913 0.02837299
0.91249212 0.00885913 0.02837299
0.00851839 0.01875220 0.02815095
0.00851808 0.01873218 0.02815008
0.00851792 0.01873218 0.02815008
0.00855160 0.01875183 0.02814921
0.00863639 0.01875183 0.02814921
0.00900276 0.01871971 0.02814765
0.00973871 0.01871941 0.02814672
0.01132074 0.01842601 0.02814143
0.01342624 0.01842567 0.02814049
0.02199766 0.01856325 0.02813673
0.02965240 0.01856438 0.02813859
0.04696131 0.01995718 0.02814373
0.07221818 0.02138186 0.02815055
0.10339736 0.02241599 0.02816176
0.15900233 0.02404508 0.02818602
0.22315081 0.02266583 0.02820648
0.32064757 0.01118143 0.02822261
0.42036053 0.00917823 0.02824610
0.54254892 0.00882739 0.02827557
0.65912382 0.00883812 0.02830623
0.76105322 0.00884659 0.02833015
0.85474644 0.00885448 0.02835241
0.89443972 0.00885774 0.02836395
0.90718156 0.00885869 0.02837011
0.91255897 0.00885913 0.02837299
0.91253656 0.00885913 0.02837299
0.91251946 0.00885913 0.02837299
0.91251033 0.00885913 0.02837299
0.91250263 0.00885913 0.02837299
0.91249890 0.00885913 0.02837299
0.91249544 0.00885913 0.02837299
0.91249378 0.00885913 0.02837299
0.91249212 0.00885913 0.02837299
0.00853023 0.02867707 0.02817854
0.00852976 0.02812587 0.02817666
0.00852945 0.02787560 0.02817579
0.00852902 0.02742053 0.02817417
0.00856265 0.02711340 0.02817305
0.00881707 0.02662817 0.02817099
0.00924513 0.02615939 0.02816868
0.01091755 0.02568387 0.02816214
0.01421733 0.02502890 0.02815310
0.02230776 0.02516427 0.02814933
0.03684317 0.02546032 0.02814233
0.05183459 0.02751340 0.02814746
0.08358612 0.03567869 0.02815914
0.11485408 0.03965038 0.02817111
0.17098281 0.04770336 0.02820295
0.23682123 0.04809230 0.02822618
0.32661668 0.01874134 0.02823135
0.42367935 0.00966533 0.02824751
0.54369503 0.00908717 0.02827632
0.65855357 0.00883812 0.02830623
0.76071488 0.00884659 0.02833015
0.85480525 0.00885448 0.02835241
0.89449451 0.00885774 0.02836395
0.90718156 0.00885869 0.02837011
0.91255897 0.00885913 0.02837299
0.91253656 0.00885913 0.02837299
0.91251946 0.00885913 0.02837299
0.91251033 0.00885913 0.02837299
0.91250263 0.00885913 0.02837299
0.91249890 0.00885913 0.02837299
0.91249544 0.00885913 0.02837299
0.91249378 0.00885913 0.02837299
0.91249212 0.00885913 0.02837299
0.00859149 0.05573938 0.02837030
0.00859028 0.05515264 0.02836540
0.00858981 0.05463388 0.02836350
0.00858891 0.05405249 0.02835876
0.00858844 0.05354464 0.02835686
0.00871370 0.05284094 0.02835064
0.00902981 0.05218373 0.02834780
0.01010581 0.05113911 0.02833283
0.01240254 0.05032375 0.02832243
0.02428281 0.04942208 0.02827519
0.04101636 0.04973559 0.02826812
0.06154912 0.05022200 0.02819236
0.09284650 0.05664528 0.02820407
0.13112374 0.06699838 0.02821336
0.18838810 0.07993832 0.02824096
0.25621045 0.08863363 0.02827067
0.34230525 0.06823574 0.02827384
0.43760243 0.03922014 0.02827902
0.54858691 0.02145266 0.02828936
0.66238664 0.01950266 0.02831864
0.76010593 0.00884653 0.02833015
0.85443247 0.00885443 0.02835241
0.89454016 0.00885774 0.02836395
0.90720989 0.00885869 0.02837011
0.91255897 0.00885913 0.02837299
0.91253656 0.00885913 0.02837299
0.91251946 0.00885913 0.02837299
0.91251033 0.00885913 0.02837299
0.91250263 0.00885913 0.02837299
0.91249890 0.00885913 0.02837299
0.91249544 0.00885913 0.02837299
0.91249378 0.00885913 0.02837299
0.91249212 0.00885913 0.02837299
0.00875160 0.11464885 0.02890378
0.00874891 0.11390743 0.02889246
0.00874770 0.11329623 0.02888737
0.00874613 0.11256177 0.02887773
0.00874507 0.11191475 0.02887163
0.00874263 0.11104352 0.02886066
0.00886718 0.11016083 0.02885094
0.00960040 0.10873350 0.02882916
0.01095449 0.10709539 0.02880115
0.02250711 0.10576187 0.02873641
0.04725515 0.10425525 0.02862651
0.07050085 0.10481787 0.02854874
0.11089886 0.10577531 0.02833217
0.14750387 0.11548644 0.02834154
0.21842692 0.13729258 0.02834107
0.28377760 0.14639685 0.02836663
0.36873400 0.15558813 0.02836426
0.46976550 0.13912679 0.02836746
0.56506891 0.09447477 0.02834656
0.67301910 0.07639158 0.02835509
0.76507148 0.02871373 0.02834960
0.85374770 0.00885427 0.02835241
0.89400965 0.00885764 0.02836395
0.90720989 0.00885869 0.02837011
0.91255897 0.00885913 0.02837299
0.91253656 0.00885913 0.02837299
0.91251946 0.00885913 0.02837299
0.91251033 0.00885913 0.02837299
0.91250263 0.00885913 0.02837299
0.91249890 0.00885913 0.02837299
0.91249544 0.00885913 0.02837299
0.91249378 0.00885913 0.02837299
0.91249212 0.00885913 0.02837299
0.00887349 0.17922599 0.02954609
0.00887119 0.17848098 0.02953553
0.00886850 0.17771899 0.02952375
0.00886683 0.17695698 0.02951355
0.00886509 0.17617706 0.02950230
0.00886272 0.17525342 0.02948987
0.00885956 0.17425130 0.02947506
0.00926238 0.17275141 0.02945190
0.01027370 0.17086562 0.02941626
0.01424418 0.16877618 0.02935462
0.04111464 0.16704369 0.02922388
0.08290865 0.16596792 0.02907635
0.12245544 0.16688184 0.02885182
0.16571718 0.16776618 0.02854950
0.23954686 0.18915661 0.02854902
0.31016440 0.21289481 0.02853054
0.39953645 0.22582917 0.02849247
0.50249164 0.23701784 0.02849008
0.59645075 0.20035538 0.02845348
0.69398390 0.15457865 0.02843058
0.77695706 0.10040448 0.02839840
0.86027049 0.04431476 0.02838414
0.89399216 0.00885758 0.02836366
0.90742898 0.00885868 0.02836983
0.91255897 0.00885913 0.02837299
0.91253656 0.00885913 0.02837299
0.91251946 0.00885913 0.02837299
0.91251033 0.00885913 0.02837299
0.91250263 0.00885913 0.02837299
0.91249890 0.00885913 0.02837299
0.91249544 0.00885913 0.02837299
0.91249378 0.00885913 0.02837299
0.91249212 0.00885913 0.02837299
0.00884254 0.29492707 0.03058820
0.00884175 0.29432489 0.03058225
0.00883945 0.29364803 0.03057110
0.00883841 0.29300460 0.03056429
0.00883699 0.29231261 0.03055438
0.00883571 0.29151051 0.03054527
0.00883351 0.29062131 0.03053313
0.00883092 0.28928344 0.03051748
0.00923412 0.28759401 0.03049301
0.00977083 0.28518242 0.03045407
0.01217815 0.28244185 0.03038745
0.05807363 0.28118745 0.03024040
0.14647459 0.28106985 0.03006691
0.19161584 0.28196388 0.02974159
0.27069780 0.28271165 0.02908322
0.33601626 0.30232897 0.02906406
0.43819350 0.32147378 0.02878634
0.53639139 0.33165094 0.02874759
0.63378943 0.32799315 0.02865445
0.73585181 0.29635000 0.02861099
0.80665499 0.23203086 0.02852933
0.88133580 0.16630485 0.02848235
0.90681490 0.06616561 0.02841521
0.91012209 0.00885900 0.02836841
0.91428546 0.00885934 0.02837204
0.91253656 0.00885913 0.02837299
0.91251946 0.00885913 0.02837299
0.91251033 0.00885913 0.02837299
0.91250263 0.00885913 0.02837299
0.91249890 0.00885913 0.02837299
0.91249544 0.00885913 0.02837299
0.91249378 0.00885913 0.02837299
0.91249212 0.00885913 0.02837299
0.00882458 0.39946531 0.03169806
0.00882381 0.39875557 0.03169201
0.00882302 0.39802881 0.03168576
0.00882224 0.39728935 0.03167964
0.00882145 0.39652775 0.03167340
0.00882045 0.39562643 0.03166576
0.00881934 0.39463771 0.03165725
0.00881762 0.39315588 0.03164441
0.00881541 0.39127643 0.03162798
0.00881175 0.38870429 0.03160089
0.00880607 0.38518281 0.03155850
0.02439600 0.38255922 0.03147413
0.12049700 0.38225124 0.03130141
0.21933673 0.38218450 0.03104382
0.29395405 0.38301354 0.03033959
0.36057444 0.38362515 0.02964687
0.46852379 0.40667241 0.02935905
0.56669741 0.43114028 0.02907611
0.66834117 0.42703176 0.02892883
0.77320437 0.42043049 0.02882801
0.84654606 0.36238466 0.02871804
0.90985532 0.30317541 0.02862107
0.92639481 0.19621869 0.02852104
0.92194397 0.07260331 0.02842731
0.91711355 0.00885969 0.02837084
0.91452872 0.00885938 0.02837227
0.91251946 0.00885913 0.02837299
0.91251033 0.00885913 0.02837299
0.91250263 0.00885913 0.02837299
0.91249890 0.00885913 0.02837299
0.91249544 0.00885913 0.02837299
0.91249378 0.00885913 0.02837299
0.91249212 0.00885913 0.02837299
0.00898831 0.54564310 0.03305459
0.00898784 0.54527350 0.03305101
0.00898707 0.54468822 0.03304466
0.00898642 0.54426266 0.03303966
0.00898566 0.54367547 0.03303347
0.00898487 0.54316064 0.03302824
0.00898387 0.54244947 0.03302070
0.00898248 0.54150998 0.03301071
0.00898056 0.54018172 0.03299652
0.00897799 0.53840138 0.03297734
0.00897391 0.53597348 0.03294671
0.00896381 0.53290216 0.03286511
0.02473030 0.53062133 0.03270277
0.13798419 0.53058600 0.03247999
0.30199061 0.53150075 0.03204465
0.36879358 0.53205208 0.03129672
0.48838750 0.52982279 0.03039160
0.58508622 0.54935854 0.03009200
0.68897949 0.54972942 0.02947724
0.79167945 0.54518326 0.02930385
0.86502703 0.51612420 0.02905746
0.92844029 0.45421748 0.02891049
0.95792742 0.37783927 0.02876271
0.95744942 0.28388938 0.02863715
0.93846344 0.11079912 0.02848280
0.92104331 0.00886016 0.02837416
0.91688927 0.00885966 0.02837426
0.91251033 0.00885913 0.02837299
0.91250263 0.00885913 0.02837299
0.91249890 0.00885913 0.02837299
0.91249544 0.00885913 0.02837299
0.91249378 0.00885913 0.02837299
0.91249212 0.00885913 0.02837299
0.00915205 0.68162607 0.03447155
0.00915157 0.68122412 0.03446783
0.00915110 0.68082257 0.03446411
0.00915047 0.68037865 0.03445911
0.00914984 0.67994785 0.03445416
0.00914908 0.67944429 0.03444908
0.00914829 0.67893771 0.03444412
0.00914701 0.67805892 0.03443517
0.00914543 0.67693935 0.03442402
0.00914314 0.67528066 0.03440723
0.00914014 0.67310441 0.03438497
0.00913165 0.67048893 0.03431438
0.00911270 0.66723733 0.03415239
0.04301435 0.66503964 0.03393985
0.21974356 0.66605184 0.03353453
0.37755251 0.66682345 0.03306975
0.49731605 0.66442321 0.03210059
0.60243890 0.66202709 0.03116468
0.70834120 0.66244423 0.03051655
0.81434948 0.66136319 0.02986487
0.88598867 0.63115866 0.02954024
0.95314852 0.59651545 0.02925421
0.97663730 0.53936235 0.02905491
0.98073476 0.46861699 0.02888078
0.96924178 0.32002334 0.02869348
0.94410395 0.11080053 0.02848615
0.92342028 0.00886045 0.02837616
0.91688030 0.00885966 0.02837426
0.91250263 0.00885913 0.02837299
0.91249890 0.00885913 0.02837299
0.91249544 0.00885913 0.02837299
0.91249378 0.00885913 0.02837299
0.91249212 0.00885913 0.02837299
0.00929265 0.79003247 0.03561733
0.00929247 0.78992127 0.03561588
0.00929199 0.78957746 0.03561207
0.00929179 0.78942219 0.03560990
0.00929119 0.78906755 0.03560503
0.00929091 0.78885349 0.03560227
0.00929025 0.78847092 0.03559782
0.00928955 0.78810122 0.03559312
0.00928829 0.78736391 0.03558400
0.00928700 0.78656389 0.03557434
0.00928496 0.78527939 0.03555858
0.00928202 0.78367652 0.03553571
0.00927273 0.78189711 0.03545525
0.00924390 0.77954510 0.03521257
0.04754641 0.77954364 0.03470244
0.23078915 0.78032791 0.03428756
0.46671016 0.77937739 0.03378138
0.57483579 0.77723850 0.03279023
0.69553760 0.77345079 0.03180523
0.80079108 0.77246365 0.03111466
0.88425299 0.75252419 0.03027413
0.95334100 0.71743720 0.02990213
0.98031603 0.67435522 0.02955330
0.98836003 0.61055804 0.02932283
0.99132071 0.54987561 0.02910869
0.97654060 0.39317716 0.02888350
0.95188609 0.16521328 0.02860243
0.93090397 0.02781388 0.02839789
0.92141707 0.02164847 0.02838978
0.91249890 0.00885913 0.02837299
0.91249544 0.00885913 0.02837299
0.91249378 0.00885913 0.02837299
0.91249212 0.00885913 0.02837299
0.00943159 0.89875209 0.03676769
0.00943144 0.89864135 0.03676639
0.00943126 0.89851110 0.03676492
0.00943106 0.89832965 0.03676271
0.00943090 0.89818204 0.03676076
0.00943065 0.89795129 0.03675816
0.00943049 0.89776810 0.03675621
0.00942992 0.89740310 0.03675205
0.00942929 0.89702598 0.03674750
0.00942832 0.89633742 0.03674000
0.00942737 0.89560147 0.03673220
0.00942538 0.89441011 0.03671609
0.00942254 0.89316158 0.03669270
0.00940337 0.89167135 0.03653214
0.00933500 0.89129284 0.03597360
0.05225062 0.89116269 0.03545360
0.30936426 0.89026898 0.03501260
0.54578146 0.88915907 0.03449708
0.66289192 0.88475097 0.03345925
0.78561370 0.88008841 0.03245036
0.86856923 0.86024145 0.03156257
0.95020380 0.83683333 0.03066212
0.97965204 0.79398814 0.03022394
0.99346127 0.75169957 0.02984019
0.99733177 0.69247177 0.02956783
0.99691660 0.63045376 0.02931770
0.98117862 0.46347220 0.02901652
0.95941990 0.19801796 0.02862610
0.93812216 0.05110766 0.02841499
0.92141339 0.02164847 0.02838978
0.91249544 0.00885913 0.02837299
0.91249378 0.00885913 0.02837299
0.91249212 0.00885913 0.02837299
0.00951471 0.95101881 0.03746725
0.00951468 0.95098371 0.03746699
0.00951452 0.95086666 0.03746567
0.00951436 0.95082722 0.03746484
0.00951420 0.95067092 0.03746287
0.00951416 0.95061152 0.03746186
0.00951401 0.95042825 0.03745997
0.00951376 0.95032265 0.03745840
0.00951319 0.94999131 0.03745445
0.00951271 0.94973224 0.03745077
0.00951197 0.94917304 0.03744463
0.00951118 0.94858396 0.03743784
0.00950945 0.94778115 0.03742307
0.00950231 0.94664398 0.03736591
0.00946037 0.94638796 0.03702445
0.01337962 0.94596711 0.03646919
0.19272165 0.94538894 0.03602977
0.45064686 0.94438341 0.03558337
0.60848475 0.94281031 0.03483001
0.73302120 0.93762815 0.03378122
0.84308111 0.93471807 0.03284551
0.91879271 0.91045792 0.03189971
0.97494975 0.89493361 0.03109900
0.99156763 0.85519089 0.03065590
0.99866193 0.82264582 0.03029333
0.99884595 0.77068889 0.03001428
0.99867786 0.71349002 0.02970849
0.98360443 0.53755857 0.02931477
0.96322562 0.27351977 0.02883537
0.94613724 0.11108108 0.02845734
0.92619814 0.06961489 0.02842499
0.91249378 0.00885913 0.02837299
0.91249212 0.00885913 0.02837299
0.00958387 0.98329259 0.03805515
0.00958387 0.98327926 0.03805515
0.00958384 0.98324738 0.03805488
0.00958368 0.98322015 0.03805413
0.00958352 0.98319668 0.03805338
0.00958348 0.98314355 0.03805236
0.00958348 0.98312213 0.03805170
0.00958324 0.98303893 0.03805020
0.00958292 0.98299868 0.03804887
0.00958250 0.98283718 0.03804582
0.00958218 0.98275884 0.03804317
0.00958160 0.98246815 0.03803808
0.00958113 0.98233694 0.03803344
0.00957510 0.98190421 0.03798474
0.00955078 0.98179671 0.03779216
0.01387415 0.98161391 0.03745682
0.16630416 0.98132086 0.03701383
0.34859513 0.98094128 0.03657010
0.52174493 0.98030632 0.03584804
0.67101802 0.97962276 0.03507136
0.78131570 0.97854638 0.03410256
0.88796820 0.97687268 0.03317913
0.94456751 0.96241646 0.03234066
0.98488296 0.95199060 0.03158366
0.99675525 0.91957079 0.03116205
0.99878162 0.89689195 0.03081749
