public/luts/EV_IMMERSIVE_BLUE_IRELAND_LUT.cube
TITLE "EV_BLUE_IRELAND_LUT"
LUT_3D_SIZE 9
# MLUTS-Log3/Sony S-Gamut3.cine -> LA - EV_BLUE_IRELAND_LUT/LA - EV_BLUE_IRELAND_LUT, CineEI Shift 0.00, Black Level 1.26% IRE, Input 109% -> Output 100% - Created with LUTCalc v4.09 by Ben Turley February 2025
0.00853341 0.01421730 0.02924659
0.00885404 0.01421737 0.02884204
0.01158931 0.01421587 0.02914034
0.05864611 0.01421848 0.03146239
0.31933514 0.01096472 0.03628855
0.76061860 0.00884659 0.02833015
0.91255897 0.00885913 0.02837299
0.91250263 0.00885913 0.02837299
0.91249212 0.00885913 0.02837299
0.00840945 0.01421786 0.02888160
0.00895833 0.01421737 0.02813722
0.01159950 0.01421601 0.02813399
0.05852380 0.01421862 0.03041434
0.31968414 0.01096355 0.03629147
0.76075059 0.00884659 0.02833015
0.91255897 0.00885913 0.02837299
0.91250263 0.00885913 0.02837299
0.91249212 0.00885913 0.02837299
0.00850848 0.01421786 0.02813810
0.00871821 0.01421779 0.02813797
0.01306818 0.01421630 0.02813461
0.06438573 0.01422107 0.02814594
0.31932383 0.01095900 0.03151720
0.76096653 0.00884659 0.02833015
0.91255897 0.00885913 0.02837299
0.91250263 0.00885913 0.02837299
0.91249212 0.00885913 0.02837299
0.00875160 0.11464885 0.02890378
0.00874507 0.11191475 0.02887163
0.01095449 0.10709539 0.02880115
0.11089886 0.10577531 0.02833217
0.36873400 0.15558813 0.02836426
0.76507148 0.02871373 0.02834960
0.91255897 0.00885913 0.02837299
0.91250263 0.00885913 0.02837299
0.91249212 0.00885913 0.02837299
0.00898831 0.54564310 0.03305459
0.00898566 0.54367547 0.03303347
0.00898056 0.54018172 0.03299652
0.02473030 0.53062133 0.03270277
0.48838750 0.52982279 0.03039160
0.86502703 0.51612420 0.02905746
0.93846344 0.11079912 0.02848280
0.91250263 0.00885913 0.02837299
0.91249212 0.00885913 0.02837299
0.00951471 0.95101881 0.03746725
0.00951420 0.95067092 0.03746287
0.00951319 0.94999131 0.03745445
0.00950945 0.94778115 0.03742307
0.19272165 0.94538894 0.03602977
0.84308111 0.93471807 0.03284551
0.99866193 0.82264582 0.03029333
0.96322562 0.27351977 0.02883537
0.91249212 0.00885913 0.02837299
0.00967883 1.02094404 0.03883218
0.00967875 1.02092787 0.03883057
0.00967825 1.02089885 0.03882789
0.00967719 1.02082650 0.03881878
0.00956305 1.02074619 0.03786480
0.64350333 1.01617503 0.03598258
0.95322728 1.00964148 0.03344245
0.99315215 1.00234713 0.03263095
0.98168724 0.51269845 0.02960321
0.01018473 1.02302736 0.32732773
0.01017786 1.02304384 0.32577626
0.01015934 1.02309496 0.32248032
0.01006898 1.02342634 0.28857710
0.00977517 1.02764241 0.09128646
0.52532019 1.02363854 0.10191324
0.90277459 1.01658393 0.03406007
0.98129161 1.01273029 0.03306872
0.98143877 1.01270985 0.03306539
0.01656991 1.03964276 0.82880639
0.01615197 1.03901883 0.82688396
0.01554508 1.03799737 0.82445130
0.01424699 1.03484892 0.82121314
0.45848324 1.02532975 0.84905060
0.85439788 1.01134694 0.92761964
0.96392156 1.00655774 0.93407883
0.98606853 1.00640799 0.83016712
0.98144769 1.01273259 0.03306539
0.00849901 0.01421730 0.03025268
0.00884987 0.01421730 0.03156340
0.01156910 0.01421587 0.03580413
0.05858467 0.01421793 0.04409994
0.31926908 0.01097083 0.04314849
0.76062847 0.00884659 0.02833015
0.91255897 0.00885913 0.02837299
0.91250263 0.00885913 0.02837299
0.91249212 0.00885913 0.02837299
0.00840916 0.01421730 0.03261231
0.00884402 0.01421730 0.03260214
0.01161630 0.01421587 0.03362241
0.05729990 0.01421793 0.04367892
0.31954737 0.01097079 0.04348211
0.76076058 0.00884659 0.02833015
0.91255897 0.00885913 0.02837299
0.91250263 0.00885913 0.02837299
0.91249212 0.00885913 0.02837299
0.00840937 0.01421772 0.03670963
0.00840937 0.01421730 0.03591341
0.01250179 0.01421630 0.02813461
0.06038892 0.01422062 0.02814494
0.31822365 0.01096788 0.03485252
0.76097639 0.00884659 0.02833015
0.91255897 0.00885913 0.02837299
0.91250263 0.00885913 0.02837299
0.91249212 0.00885913 0.02837299
0.00871758 0.11310553 0.03037159
0.00870903 0.11042003 0.03021919
0.01075180 0.10565294 0.02878602
0.10962643 0.10466972 0.02832864
0.36711554 0.15522769 0.02836287
0.76511900 0.02904605 0.02834985
0.91255897 0.00885913 0.02837299
0.91250263 0.00885913 0.02837299
0.91249212 0.00885913 0.02837299
0.00898486 0.54319644 0.03302855
0.00898221 0.54135107 0.03300873
0.00897720 0.53788244 0.03297212
0.02458937 0.52846412 0.03268425
0.48734864 0.52842771 0.03038059
0.86505062 0.51638469 0.02905839
0.93848825 0.11089673 0.02848306
0.91250263 0.00885913 0.02837299
0.91249212 0.00885913 0.02837299
0.00951294 0.94984253 0.03745147
0.00951227 0.94945436 0.03744709
0.00951134 0.94875502 0.03743867
0.00950759 0.94648311 0.03740765
0.19228310 0.94417083 0.03602122
0.84297498 0.93406781 0.03283825
0.99866140 0.82274556 0.03029404
0.96324381 0.27400687 0.02883537
0.91249212 0.00885913 0.02837299
0.00968608 1.02082252 0.03889545
0.00968591 1.02081440 0.03889312
0.00968536 1.02080058 0.03888830
0.00968385 1.02073686 0.03887650
0.00956835 1.02076632 0.03790945
0.64207806 1.01602407 0.03599095
0.95314698 1.00955676 0.03344133
0.99314845 1.00234856 0.03263095
0.98169082 0.51273554 0.02960321
0.01024393 1.02322578 0.36937700
0.01023690 1.02324124 0.36794926
0.01021803 1.02328966 0.36490203
0.01012296 1.02360106 0.34242350
0.00979627 1.02782549 0.09421694
0.51690200 1.02371596 0.10588268
0.90027336 1.01679342 0.03409376
0.98128226 1.01273408 0.03306872
0.98143877 1.01270985 0.03306539
0.01699556 1.04004480 0.83422260
0.01663022 1.03942165 0.83235199
0.01600433 1.03840245 0.82998284
0.01419987 1.03525603 0.82677304
0.45762487 1.02575865 0.85313841
0.85482689 1.01143867 0.93079938
0.96443895 1.00643587 0.93867424
0.98640019 1.00633104 0.84091904
0.98144850 1.01273354 0.03306539
0.00849610 0.01422133 0.04117674
0.00893101 0.01422133 0.04181980
0.01166754 0.01421484 0.04732031
0.05904411 0.01421716 0.06762642
0.31939473 0.01097432 0.11153581
0.76037795 0.00884646 0.02833507
0.91255897 0.00885913 0.02837299
0.91250263 0.00885913 0.02837299
0.91249212 0.00885913 0.02837299
0.00841775 0.01422247 0.04168213
0.00873665 0.01422222 0.04218875
0.01150203 0.01421484 0.04707257
0.05881740 0.01421716 0.06774074
0.31974128 0.01097432 0.11295591
0.76050162 0.00884646 0.02833507
0.91255897 0.00885913 0.02837299
0.91250263 0.00885913 0.02837299
0.91249212 0.00885913 0.02837299
0.00843463 0.01423636 0.05296563
0.00843425 0.01423626 0.05218714
0.01213533 0.01421528 0.05322681
0.06829020 0.01421813 0.06110672
0.31647035 0.01097416 0.10957181
0.75912006 0.00884633 0.02833507
0.91255897 0.00885913 0.02837299
0.91250263 0.00885913 0.02837299
0.91249212 0.00885913 0.02837299
0.00850048 0.10829936 0.08461209
0.00849804 0.10568131 0.08351141
0.00849362 0.10111747 0.08095095
0.10593905 0.10080759 0.02831489
0.35853262 0.15361399 0.02836148
0.75693459 0.03650145 0.02835339
0.91255897 0.00885913 0.02837299
0.91250263 0.00885913 0.02837299
0.91249212 0.00885913 0.02837299
0.00897736 0.53703565 0.03297402
0.00897442 0.53512743 0.03295296
0.00896936 0.53169867 0.03291578
0.02405550 0.52267710 0.03263909
0.48316547 0.52374009 0.03035246
0.85993882 0.51909679 0.02907047
0.93854151 0.11107247 0.02848331
0.91250263 0.00885913 0.02837299
0.91249212 0.00885913 0.02837299
0.00950953 0.94722057 0.03742430
0.00950903 0.94681374 0.03741939
0.00950793 0.94608799 0.03741098
0.00950406 0.94370653 0.03737892
0.19130146 0.94146821 0.03600155
0.84250597 0.93201625 0.03281665
0.99865708 0.82286197 0.03029461
0.96327247 0.27477383 0.02883602
0.91249212 0.00885913 0.02837299
0.00970671 1.02062452 0.03907262
0.00970641 1.02058900 0.03906779
0.00970570 1.02051624 0.03906223
0.00970351 1.02032037 0.03904468
0.00958486 1.02095928 0.03805347
0.63826461 1.01586464 0.03601420
0.95305078 1.00926049 0.03343892
0.99314280 1.00235117 0.03263095
0.98169652 0.51279802 0.02960348
0.01036334 1.02360468 0.43349626
0.01035635 1.02361811 0.43244026
0.01033702 1.02366246 0.42983762
0.01023466 1.02393831 0.40782543
0.00983071 1.02775122 0.09894223
0.50572485 1.02367815 0.11208010
0.89646088 1.01703066 0.07458583
0.98127384 1.01276699 0.03306967
0.98143877 1.01270985 0.03306539
0.01765186 1.04072155 0.84286281
0.01731676 1.04010225 0.84110499
0.01679321 1.03908677 0.83885685
0.01482582 1.03594543 0.83568877
0.45629821 1.02649635 0.85966446
0.85562036 1.01162371 0.93607889
0.96523920 1.00624163 0.94557625
0.98691348 1.00617370 0.85634053
0.98144972 1.01273637 0.03306539
0.00852844 0.01424459 0.07800809
0.00866667 0.01424436 0.07781748
0.01229655 0.01424352 0.08385646
0.06322653 0.01421325 0.12313647
0.32408968 0.01092039 0.24620779
0.76175154 0.00884040 0.28732889
0.91265155 0.00885825 0.05479980
0.91250263 0.00885913 0.02837299
0.91249212 0.00885913 0.02837299
0.00850949 0.01424462 0.07799542
0.00857749 0.01424443 0.07775988
0.01201710 0.01424362 0.08323001
0.06284260 0.01421325 0.12303233
0.32443507 0.01091769 0.24711549
0.76191215 0.00884014 0.28894588
0.91265719 0.00885825 0.05865853
0.91250263 0.00885913 0.02837299
0.91249212 0.00885913 0.02837299
0.00845012 0.01424531 0.08191821
0.00844962 0.01424516 0.08119414
0.01109453 0.01424581 0.08694186
0.06057210 0.01421325 0.12189327
0.32314476 0.01093112 0.24695008
0.76214541 0.00884014 0.29138422
0.91266836 0.00885825 0.06455450
0.91250263 0.00885913 0.02837299
0.91249212 0.00885913 0.02837299
0.00912587 0.09110920 0.17191523
0.00909029 0.08860313 0.16981422
0.00902195 0.08454274 0.16657475
0.08714016 0.08046437 0.17363130
0.42524202 0.01420014 0.23127155
0.76989036 0.00884195 0.27791406
0.91263574 0.00885825 0.04230089
0.91250263 0.00885913 0.02837299
0.91249212 0.00885913 0.02837299
0.00934658 0.51386033 0.31498501
0.00934267 0.51184947 0.31388148
0.00933673 0.50826678 0.31219917
0.01017525 0.50346078 0.28716382
0.46695223 0.50847431 0.04816233
0.86615798 0.49996519 0.02900686
0.94311207 0.11567345 0.02849416
0.91250263 0.00885913 0.02837299
0.91249212 0.00885913 0.02837299
0.00960014 0.93760188 0.03818200
0.00959892 0.93711722 0.03817137
0.00959690 0.93624377 0.03815525
0.00959012 0.93336993 0.03809947
0.05979896 0.93849710 0.03610835
0.83819516 0.92535651 0.03276155
0.99801764 0.82808813 0.03033221
0.96335742 0.27691659 0.02883838
0.91249212 0.00885913 0.02837299
0.00981867 1.01969923 0.08778315
0.00981803 1.01965368 0.08729813
0.00981694 1.01956150 0.08636183
0.00981311 1.01928254 0.08283824
0.00968368 1.02261505 0.03888633
0.59887455 1.01738265 0.03627789
0.95216223 1.00812066 0.03343281
0.99312698 1.00235806 0.03263189
0.98171352 0.51298357 0.02960458
0.01079681 1.02503686 0.54414112
0.01078953 1.02504510 0.54351846
0.01076978 1.02507873 0.54198669
0.01065167 1.02526779 0.53135345
0.01000414 1.02742243 0.26595550
0.49823496 1.02256584 0.12756614
0.88832517 1.01683898 0.10842902
0.98132854 1.01317915 0.03307444
0.98143877 1.01270985 0.03306539
0.01873071 1.04281898 0.86607110
0.01874929 1.04221175 0.86459478
0.01866385 1.04121580 0.86268907
0.01745349 1.03811103 0.85975786
0.45268494 1.02890518 0.88056853
0.85731219 1.01250854 0.94927418
0.96729529 1.00572020 0.95970886
0.98820718 1.00537205 0.89747758
0.98099887 1.01372721 0.03308938
0.00874326 0.01419982 0.18459297
0.00874305 0.01419980 0.18438836
0.01151066 0.01420404 0.18623881
0.10293637 0.01116022 0.26981738
0.33726985 0.00878149 0.41158128
0.77526086 0.00881404 0.59268680
0.92381280 0.00883598 0.55390962
0.91448618 0.00885471 0.17234711
0.91249212 0.00885913 0.02837299
0.00874280 0.01419980 0.18434573
0.00874225 0.01419979 0.18418946
0.01104923 0.01420259 0.18557278
0.10196406 0.01116123 0.26897824
0.33755073 0.00878149 0.41210472
0.77541157 0.00881404 0.59311520
0.92384325 0.00883598 0.55450502
0.91450161 0.00885471 0.17278355
0.91249212 0.00885913 0.02837299
0.00870713 0.01419978 0.18337657
0.00870701 0.01419978 0.18323469
0.00995243 0.01420030 0.18362324
0.09711337 0.01217508 0.26420392
0.33566109 0.00878149 0.41032064
0.77565723 0.00881404 0.59381664
0.92389410 0.00883589 0.55546806
0.91453017 0.00885459 0.17359391
0.91249212 0.00885913 0.02837299
0.00913362 0.08659774 0.30883060
0.00910355 0.08431014 0.30551672
0.00904642 0.08003081 0.29966883
0.09859309 0.01675832 0.38455313
0.34519859 0.01070300 0.43248640
0.77180127 0.00881366 0.59258107
0.92403410 0.00883555 0.55800568
0.91462762 0.00885446 0.17636362
0.91249212 0.00885913 0.02837299
0.02148592 0.48098479 0.57384912
0.02145219 0.47883730 0.57249551
0.02140412 0.47540025 0.57058963
0.02234644 0.46902657 0.56943357
0.40720572 0.44234400 0.58330457
0.89048225 0.24451281 0.55370159
0.94597364 0.00884583 0.53323189
0.91430227 0.00885509 0.16706913
0.91249212 0.00885913 0.02837299
0.01192262 0.92210609 0.63091775
0.01192194 0.92169594 0.63069453
0.01192354 0.92097510 0.63046897
0.01193419 0.91859475 0.63006559
0.03925733 0.92335751 0.50283660
0.82045442 0.91001350 0.27600672
1.00341956 0.76951520 0.11851830
0.96996289 0.30428129 0.05977552
0.91249212 0.00885913 0.02837299
0.01092868 1.02047768 0.53618414
0.01092767 1.02036841 0.53590706
0.01092624 1.02028745 0.53547744
0.01092094 1.01997220 0.53420862
0.01026477 1.02051108 0.45111002
0.52361815 1.01374658 0.28958187
0.94002102 1.00514011 0.03365295
0.99337601 1.00197512 0.03258837
0.98176117 0.51353759 0.02960568
0.01242176 1.03084978 0.71875664
0.01241693 1.03084967 0.71853373
0.01240445 1.03086773 0.71784831
0.01242796 1.03099899 0.71230527
0.01123096 1.03028251 0.63725159
0.61358280 1.01628351 0.66344591
0.90708672 1.01116646 0.55650810
0.97941688 1.01259108 0.17382808
0.98144130 1.01271608 0.03306539
0.02304480 1.04819589 0.92205513
0.02286055 1.04764555 0.92091545
0.02258388 1.04673764 0.91943269
0.02186821 1.04384833 0.91684778
0.44337391 1.03580209 0.92665454
0.85793800 1.01662472 0.96742903
0.97218454 1.00473807 0.97939174
0.99108104 1.00375531 0.96052496
0.97974087 1.01192946 0.28416917
0.00858238 0.00917564 0.45405166
0.00858238 0.00917564 0.45399858
0.00858238 0.00917564 0.45398792
0.14210202 0.00951100 0.52675530
0.43937882 0.00907290 0.70672586
0.79053362 0.00879092 0.84645096
0.94735567 0.00880393 0.87042421
0.94216088 0.00881033 0.80617939
0.91968789 0.00884499 0.28314624
0.00858208 0.00917509 0.45326148
0.00858208 0.00917509 0.45326614
0.00858208 0.00917517 0.45328065
0.13926752 0.00950658 0.52411442
0.43895881 0.00907412 0.70644733
0.79065803 0.00879092 0.84659964
0.94736619 0.00880393 0.87053500
0.94217750 0.00881033 0.80639925
0.91969572 0.00884499 0.28327823
0.00858141 0.00917357 0.45138357
0.00858141 0.00917357 0.45140054
0.00858153 0.00917370 0.45147572
0.12983710 0.00949526 0.51681369
0.43490358 0.00908250 0.70356012
0.79084676 0.00879092 0.84683118
0.94738181 0.00880381 0.87071618
0.94220375 0.00881033 0.80675789
0.91971006 0.00884499 0.28351598
0.00871526 0.02183603 0.48165747
0.00870688 0.02125620 0.47933805
0.00869012 0.01873005 0.47524687
0.09113256 0.00948456 0.52128178
0.40660743 0.00914031 0.68911060
0.78363229 0.00879075 0.84278064
0.94742967 0.00880372 0.87126483
0.94228153 0.00881012 0.80782616
0.91975668 0.00884486 0.28430106
0.01796036 0.46318812 0.83349259
0.01784882 0.46098728 0.83228627
0.01764098 0.45711390 0.83024709
0.01694239 0.44591198 0.83168212
0.35737578 0.27696322 0.91181921
0.86072498 0.04867558 0.92336568
0.95930017 0.00880621 0.87701010
0.94249043 0.00881000 0.81066217
0.91990832 0.00884461 0.28682920
0.04327069 0.91280528 0.96831846
0.04327332 0.91228263 0.96824418
0.04328109 0.91134363 0.96813999
0.04330800 0.90818076 0.96785213
0.07508986 0.91107107 0.97948248
0.83366324 0.86131939 0.96215834
0.99491714 0.75168426 0.89760227
0.97998087 0.17338437 0.82004982
0.92037783 0.00884360 0.29459859
0.02436816 1.03067777 0.90846329
0.02438236 1.03059538 0.90856656
0.02440524 1.03045745 0.90871930
0.02447371 1.03004029 0.90914949
0.02355774 1.03029481 0.90061804
0.60927028 1.00720330 0.86856827
0.96889515 0.99631279 0.90865069
0.99683323 0.98237514 0.73021746
0.98672357 0.46303536 0.27776779
0.02547694 1.04710931 0.92880236
0.02547591 1.04711078 0.92878470
0.02546483 1.04713414 0.92872057
0.02533998 1.04737433 0.92814627
0.02348187 1.04740570 0.91325092
0.63306185 1.02651024 0.90508351
0.96342568 1.00571552 0.96474668
0.99046276 1.00455246 0.92011722
0.98432108 1.01028900 0.34366359
0.03377554 1.05938675 0.98679237
0.03353416 1.05900210 0.98644352
0.03318188 1.05835119 0.98596689
0.03219859 1.05612656 0.98495934
0.40468657 1.05105472 0.98618548
0.86767923 1.03374846 0.99520948
0.97814011 1.00532847 0.99563695
0.99363055 1.00202619 0.99287120
0.99258710 1.00403438 0.93660733
0.00871791 0.00943783 0.71624554
0.00871800 0.00943791 0.71632895
0.00871800 0.00943791 0.71647377
0.11574913 0.00974532 0.75409362
0.47062553 0.00969382 0.90568326
0.79114722 0.00882743 0.98036324
0.93914979 0.00879235 0.99321744
0.94206111 0.00879235 0.99145872
0.94929782 0.00879412 0.97826753
0.00871737 0.00943673 0.71517161
0.00871758 0.00943694 0.71531335
0.00871758 0.00943703 0.71549536
0.10976293 0.00973475 0.75053640
0.46687508 0.00970102 0.90403803
0.79116809 0.00882743 0.98036235
0.93914301 0.00879235 0.99322117
0.94205303 0.00879235 0.99146492
0.94929964 0.00879412 0.97828669
0.00871657 0.00943513 0.71327537
0.00871678 0.00943513 0.71341367
0.00871682 0.00943547 0.71360857
0.09657110 0.00970839 0.74296936
0.45865660 0.00971656 0.90033445
0.79021802 0.00882911 0.98021902
0.93913117 0.00879235 0.99322661
0.94204121 0.00879235 0.99147401
0.94930288 0.00879412 0.97831783
0.00871947 0.00943968 0.71664772
0.00871888 0.00943858 0.71585587
0.00871783 0.00943686 0.71443660
0.03436572 0.00955555 0.72495808
0.42858961 0.00977163 0.88486792
0.77923094 0.00884478 0.97912568
0.93909567 0.00879235 0.99324384
0.94200482 0.00879235 0.99150206
0.94931160 0.00879412 0.97840755
0.01292295 0.39407406 0.94968012
0.01282188 0.39192921 0.94867585
0.01265146 0.38813350 0.94697224
0.01240349 0.37503808 0.94381608
0.32431216 0.16477195 0.99998372
0.76892693 0.02523403 0.99731592
0.94763469 0.00879252 0.99516360
0.94189778 0.00879235 0.99158436
0.94933521 0.00879412 0.97864396
0.03901227 0.81256988 1.04100406
0.03893157 0.81179749 1.04088860
0.03879146 0.81044450 1.04067178
0.03833454 0.80592194 1.04000371
0.05312905 0.77736543 1.04920922
0.78902687 0.77874248 1.02192046
0.98120530 0.61082096 1.01237150
0.96481300 0.14854628 0.99826989
0.94941257 0.00879412 0.97916231
0.04964612 1.02252453 1.06086577
0.04965696 1.02223773 1.06091216
0.04967639 1.02173761 1.06100482
0.04973075 1.02052944 1.06124907
0.05003065 1.01803986 1.06454278
0.62170015 1.01453969 1.06348702
0.98118604 0.99026497 1.00327805
0.99631062 0.97521564 0.99954551
0.99692161 0.24582792 0.99678784
0.04531854 1.06382111 1.03595886
0.04532562 1.06381162 1.03602139
0.04533550 1.06383679 1.03612974
0.04536633 1.06415802 1.03659736
0.04517726 1.06557394 1.03578719
0.61030289 1.06037559 1.03082394
0.97841628 1.01725751 1.00412537
0.99565162 1.00174525 1.00136567
0.99632696 1.00076592 0.99676315
0.04691391 1.06998934 1.05501470
0.04688652 1.06979746 1.05475194
0.04684505 1.06944667 1.05433365
0.04670398 1.06781889 1.05263939
0.33531580 1.06541480 1.05094332
0.88948324 1.05548965 1.04543785
0.98382821 1.02029900 1.01501932
0.99631450 1.00593339 1.00437209
0.99675039 1.00256388 1.00161348
0.00885656 0.01873288 0.78105430
0.00885067 0.01872500 0.78065300
0.00884086 0.01759756 0.77990235
0.05861372 0.00969399 0.79966660
0.43501184 0.00987892 0.92363961
0.77158801 0.00892722 0.98873074
0.92670385 0.00879109 0.99706002
0.92704737 0.00879109 0.99706700
0.92704737 0.00879109 0.99706700
0.00888987 0.02243408 0.78346674
0.00888633 0.02218940 0.78322099
0.00887930 0.02174255 0.78274756
0.05202167 0.01442473 0.79899743
0.43075777 0.00989429 0.92349656
0.76863428 0.00893332 0.98843824
0.92670513 0.00879109 0.99706002
0.92704737 0.00879109 0.99706700
0.92704737 0.00879109 0.99706700
0.00895547 0.02828795 0.78765915
0.00895147 0.02785939 0.78743187
0.00894364 0.02707019 0.78698647
0.04110343 0.02421269 0.79601547
0.42193288 0.00992368 0.92287342
0.76343740 0.00894313 0.98794507
0.92669310 0.00879109 0.99705971
0.92704737 0.00879109 0.99706700
0.92704737 0.00879109 0.99706700
0.00976494 0.13239433 0.86116146
0.00974300 0.12968434 0.85957675
0.00969972 0.12467165 0.85672067
0.00949934 0.09730868 0.86047291
0.39707653 0.01005917 0.94430057
0.75106172 0.00897033 0.98778550
0.92634427 0.00879109 0.99705216
0.92704737 0.00879109 0.99706700
0.92704737 0.00879109 0.99706700
0.01597596 0.46995484 0.99691243
0.01588527 0.46831256 0.99669726
0.01572460 0.46543546 0.99636640
0.01502321 0.45613887 0.99393266
0.17284026 0.31408449 1.02078995
0.74348067 0.08774648 1.02097096
0.93718798 0.00878633 1.00529951
0.92704737 0.00879109 0.99706700
0.92704737 0.00879109 0.99706700
0.03569475 0.78779544 1.06584392
0.03562394 0.78721728 1.06573004
0.03549703 0.78616676 1.06553117
0.03509874 0.78276412 1.06489346
0.03155195 0.75414422 1.07101147
0.77226652 0.77771444 1.04289911
0.95608991 0.65136210 1.02608935
0.95620958 0.15578372 1.00919468
0.92704737 0.00879109 0.99706700
0.05079993 0.99222561 1.08993547
0.05079027 0.99197688 1.08995489
0.05077601 0.99156141 1.08998785
0.05073106 0.99026817 1.09007667
0.05064444 0.98592413 1.09018265
0.69123262 0.98686373 1.07904327
0.98147138 0.98688730 1.02651103
0.99113954 0.96905270 1.01311896
0.97373685 0.24588390 1.02598134
0.05092001 1.04813156 1.08563769
0.05092903 1.04797219 1.08569085
0.05094334 1.04776214 1.08580022
0.05099123 1.04719735 1.08620225
0.10376799 1.04594305 1.08768556
0.78516266 1.04569406 1.07889135
0.98837042 1.02093024 1.05042932
1.00006868 1.01109009 1.04400601
1.00037346 1.00217995 1.03641180
0.05084593 1.05112561 1.08286317
0.05082484 1.05039106 1.08179138
0.07175482 1.04981431 1.08072726
0.28329817 1.05086657 1.08006969
0.69791088 1.05732589 1.08222863
0.94205178 1.05701235 1.07969609
0.99147428 1.02541971 1.05159152
0.99914802 1.01720830 1.04634192
1.00041051 1.01514698 1.04364844
0.01486751 0.46734087 0.99686614
0.01469709 0.46541111 0.99678957
0.01448378 0.46215784 0.99666598
0.01420523 0.45125101 0.99645665
0.21999597 0.28733343 1.02182407
0.74435689 0.00930355 1.02509950
0.93298334 0.00879109 0.99824240
0.92704737 0.00879109 0.99706700
0.92704737 0.00879109 0.99706700
0.01596945 0.48196666 0.99754691
0.01587163 0.48028188 0.99745749
0.01570909 0.47743291 0.99731306
0.01482323 0.46705497 0.99705531
0.21664151 0.31312214 1.02399260
0.74129892 0.00933134 1.02719884
0.93597225 0.00879109 0.99862253
0.92704737 0.00879109 0.99706700
0.92704737 0.00879109 0.99706700
0.01713733 0.50178920 0.99871934
0.01705829 0.50034327 0.99863522
0.01692153 0.49789728 0.99849102
0.01641156 0.48938858 0.99817538
0.21160668 0.34918790 1.02729794
0.73742124 0.09019293 1.03095475
0.94117043 0.00879109 1.00124247
0.92704737 0.00879109 0.99706700
0.92704737 0.00879109 0.99706700
0.01888861 0.55116024 1.00748192
0.01882978 0.54998466 1.00716585
0.01876405 0.54796432 1.00658270
0.01874170 0.54145773 1.00494685
0.19815515 0.44202636 1.03477951
0.72645355 0.26077612 1.03561473
0.95112029 0.00878313 1.01777176
0.92704737 0.00879109 0.99706700
0.92704737 0.00879109 0.99706700
0.02535907 0.66679736 1.04175836
0.02530523 0.66584198 1.04152483
0.02520943 0.66413341 1.04111004
0.02491848 0.65892667 1.03984965
0.12073912 0.59920834 1.05420137
0.73044196 0.56374906 1.03499316
0.96033636 0.16532055 1.04198522
0.93073325 0.00879109 0.99745211
0.92704737 0.00879109 0.99706700
0.04239718 0.85955954 1.08021935
0.04236283 0.85906936 1.08013436
0.04230522 0.85825351 1.07999294
0.04213440 0.85578977 1.07956528
0.04021019 0.83508103 1.08408372
0.76341986 0.85135710 1.05536831
0.95758064 0.82871301 1.01640098
0.97577068 0.32281564 1.03782152
0.92710720 0.00879109 0.99707497
0.05099398 0.99199240 1.09018265
0.05098429 0.99176185 1.09018265
0.05096887 0.99137412 1.09018265
0.05092452 0.99021195 1.09018265
0.05076559 0.98487159 1.09018265
0.74308656 0.99446179 1.08239793
0.98404764 0.99224146 1.04161253
0.99276011 0.97888427 1.02491868
0.97919458 0.46689444 1.03966014
0.05159752 1.03913847 1.09018265
0.05160399 1.03900765 1.09018265
0.05161615 1.03882481 1.09018265
0.05162674 1.03793789 1.09018265
0.10891063 1.03605661 1.09018265
0.81162411 1.04544970 1.09018265
0.99115079 1.02438730 1.06743694
1.00319178 1.01648170 1.06272279
1.00250237 1.00688773 1.05625410
0.05100677 1.04524282 1.08667619
0.14799385 1.04670863 1.08790837
0.29108679 1.04876858 1.08956109
0.47122062 1.05169683 1.09018265
0.72499871 1.05821676 1.09018265
0.94817331 1.05754350 1.09018265
0.99339730 1.02819863 1.06679044
1.00105034 1.02177091 1.06307403
1.00631466 1.02092033 1.06275631
