public/luts/EV_PURPLE_HAZE_AFRICA_LUT.cube
TITLE "EV_MAGENTA_AFRICA_L"
LUT_3D_SIZE 9
# MLUTS-Log3/Sony S-Gamut3.cine -> LA - EV_MAGENTA_AFRICA_LUT/LA - EV_MAGENTA_AFRICA_LUT, CineEI Shift 0.00, Black Level 5.59% IRE, Input 109% -> Output 100% - Created with LUTCalc v4.09 by Ben Turley February 2025
0.14034129 0.00474800 0.11504329
0.15046677 0.01046510 0.12293233
0.18138175 0.02067562 0.13419714
0.34368456 0.02814106 0.14002693
0.68965269 0.05730860 0.16705439
0.86720295 0.12997916 0.23327372
0.91179896 0.19594409 0.29014996
0.91184287 0.19654324 0.29209137
0.91185066 0.19662343 0.29248458
0.14479768 0.01476139 0.12184573
0.14817041 0.01328641 0.12096077
0.17993116 0.02166212 0.13391464
0.34318080 0.02828136 0.13999306
0.68992601 0.05733397 0.16708788
0.86723879 0.13000879 0.23330517
0.91179896 0.19594409 0.29014996
0.91184287 0.19654324 0.29209137
0.91185066 0.19662343 0.29248458
0.15338803 0.04891312 0.13239379
0.15326864 0.04663800 0.13214112
0.17454072 0.04261612 0.13169784
0.33806408 0.05593422 0.13933203
0.68891715 0.05967697 0.16650104
0.86730023 0.13005655 0.23335578
0.91179896 0.19594409 0.29015049
0.91184287 0.19654324 0.29209137
0.91185066 0.19662343 0.29248458
0.16520066 0.21729683 0.13376453
0.16507204 0.21388989 0.13390933
0.16694763 0.20777955 0.13414754
0.30073450 0.20216448 0.13094071
0.68486319 0.23927585 0.12594716
0.86781221 0.14896897 0.22646547
0.91179896 0.19594446 0.29015259
0.91184287 0.19654324 0.29209137
0.91185066 0.19662343 0.29248458
0.00000000 0.64063338 0.00000000
0.00000000 0.63881213 0.00000000
0.00000000 0.63561027 0.00000000
0.15341988 0.62484812 0.00000000
0.61642689 0.60680237 0.00000000
0.86896432 0.49695020 0.00000000
0.91949343 0.27597170 0.27997114
0.91184287 0.19654324 0.29209269
0.91185066 0.19662343 0.29248458
0.00000000 0.93023055 0.00000000
0.00000000 0.92996773 0.00000000
0.00000000 0.92944251 0.00000000
0.00000000 0.92771186 0.00000000
0.42218740 0.91981443 0.00000000
0.81688279 0.85244707 0.00000000
0.92913431 0.76590112 0.22949436
0.92665100 0.40638077 0.27287751
0.91185066 0.19662343 0.29248458
0.00000000 1.03142214 0.00000000
0.00000000 1.03139230 0.00000000
0.00000000 1.03133952 0.00000000
0.00000000 1.03118250 0.00000000
0.09267746 1.02874498 0.00000000
0.70931696 1.01545427 0.00000000
0.88236066 0.96240215 0.23077927
0.92013247 0.94248316 0.22975898
0.93247713 0.54501552 0.27126331
0.00000000 1.03093444 0.36228478
0.00000000 1.03091207 0.36232714
0.00000000 1.03084283 0.36289658
0.00000000 1.03026487 0.37265905
0.43189052 1.02619559 0.43737774
0.71068927 1.01883887 0.30541617
0.85702886 0.97915033 0.45744064
0.91616081 0.97202254 0.23521189
0.91642837 0.97199079 0.23247684
0.60540702 1.02078008 0.72800723
0.61756753 1.02032758 0.73292175
0.63486785 1.01961306 0.73960165
0.66676086 1.01811000 0.74968977
0.71646106 1.01535692 0.74934110
0.79694861 1.00800690 0.72870074
0.85033825 0.99312534 0.77067818
0.90140093 0.98719020 0.73081189
0.91638165 0.97201986 0.23723442
0.14324286 0.00806432 0.12407894
0.14992512 0.01016280 0.12554442
0.18101925 0.02056479 0.13534961
0.34373160 0.02779200 0.14222159
0.68978538 0.05716742 0.16881572
0.86720528 0.12998134 0.23327601
0.91179896 0.19594409 0.29014996
0.91184287 0.19654324 0.29209137
0.91185066 0.19662343 0.29248458
0.14408059 0.01306370 0.12455909
0.14744184 0.01198332 0.12444835
0.17916641 0.02096628 0.13483385
0.34040640 0.02765099 0.14191354
0.69000988 0.05716742 0.16909682
0.86724165 0.13001084 0.23330717
0.91179896 0.19594409 0.29014996
0.91184287 0.19654324 0.29209137
0.91185066 0.19662343 0.29248458
0.15310378 0.04716989 0.13282786
0.15295463 0.04496907 0.13255184
0.17331448 0.04112155 0.13206679
0.32813943 0.05424443 0.13934332
0.68756411 0.05907666 0.16775427
0.86730283 0.13005873 0.23335763
0.91179896 0.19594409 0.29015049
0.91184287 0.19654324 0.29209137
0.91185066 0.19662343 0.29248458
0.16511670 0.21537452 0.13386109
0.16498859 0.21203831 0.13399799
0.16669651 0.20600900 0.13422631
0.29875713 0.20048676 0.13111505
0.68306518 0.23917246 0.12606555
0.86781455 0.14913251 0.22640747
0.91179896 0.19594446 0.29015259
0.91184287 0.19654324 0.29209189
0.91185066 0.19662343 0.29248458
0.00000000 0.63846044 0.00000000
0.00000000 0.63674985 0.00000000
0.00000000 0.63356929 0.00000000
0.15271042 0.62296998 0.00000000
0.61589995 0.60581206 0.00000000
0.86894035 0.49718158 0.00000000
0.91951387 0.27617150 0.27995064
0.91184287 0.19654324 0.29209269
0.91185066 0.19662343 0.29248458
0.00000000 0.92924003 0.00000000
0.00000000 0.92894006 0.00000000
0.00000000 0.92837232 0.00000000
0.00000000 0.92693633 0.00000000
0.42127312 0.91895629 0.00000000
0.81683637 0.85202011 0.00000000
0.92912511 0.76598218 0.22949062
0.92665751 0.40646956 0.27287676
0.91185066 0.19662343 0.29248458
0.00000000 1.03106392 0.00000000
0.00000000 1.03103389 0.00000000
0.00000000 1.03097843 0.00000000
0.00000000 1.03081242 0.00000000
0.08915247 1.02839327 0.00000000
0.70875717 1.01498589 0.00000000
0.88220713 0.96217858 0.23075701
0.92013103 0.94249581 0.22976065
0.93247884 0.54504357 0.27126331
0.00000000 1.03088166 0.37415174
0.00000000 1.03085985 0.37419596
0.00000000 1.03079253 0.37474295
0.00000000 1.03021763 0.38400036
0.43337011 1.02608581 0.45094122
0.71149030 1.01866865 0.34156920
0.85657058 0.97959767 0.47584907
0.91613622 0.97202789 0.23582871
0.91642837 0.97199079 0.23247698
0.60492214 1.02078008 0.72908987
0.61707639 1.02032203 0.73393150
0.63441900 1.01960770 0.74053012
0.66693279 1.01807864 0.75111256
0.71701200 1.01529400 0.75136215
0.79700907 1.00798605 0.73127546
0.85017110 0.99325387 0.77260600
0.90107089 0.98739580 0.73379712
0.91637946 0.97202273 0.23741255
0.15075004 0.01652950 0.14380336
0.15281134 0.01645662 0.14372790
0.17990015 0.02027502 0.14746981
0.34234087 0.02768435 0.16916099
0.68979490 0.05657372 0.19375340
0.86726983 0.13007494 0.23729052
0.91179896 0.19594409 0.29014996
0.91184287 0.19654324 0.29209137
0.91185066 0.19662343 0.29248458
0.15082264 0.01703864 0.14386656
0.15166598 0.01677357 0.14367408
0.17807091 0.01999389 0.14692288
0.34165781 0.02767676 0.16941842
0.69004066 0.05658834 0.19463776
0.86730776 0.13010820 0.23750149
0.91179896 0.19594409 0.29014996
0.91184287 0.19654324 0.29209137
0.91185066 0.19662343 0.29248458
0.15229342 0.04115843 0.14545159
0.15202862 0.03903772 0.14491756
0.17103151 0.03599334 0.14487507
0.33562072 0.03555357 0.15732598
0.68696396 0.05657349 0.19194026
0.86699548 0.12977846 0.23715355
0.91179896 0.19594409 0.29015049
0.91184287 0.19654324 0.29209137
0.91185066 0.19662343 0.29248458
0.15810654 0.20802008 0.14100781
0.15816284 0.20480534 0.14083971
0.15919319 0.19868595 0.14018292
0.29309639 0.19270336 0.13620414
0.67178972 0.23909348 0.13026051
0.86473067 0.15199154 0.22621280
0.91179896 0.19594446 0.29015259
0.91184287 0.19654324 0.29209189
0.91185066 0.19662343 0.29248458
0.00000000 0.63314988 0.00000000
0.00000000 0.63138300 0.00000000
0.00000000 0.62824297 0.00000000
0.15020574 0.61772272 0.00000000
0.61301622 0.60222028 0.00000000
0.86625316 0.50168150 0.00000000
0.91954942 0.27651257 0.27991563
0.91184287 0.19654324 0.29209269
0.91185066 0.19662343 0.29248458
0.00000000 0.92729219 0.00000000
0.00000000 0.92708402 0.00000000
0.00000000 0.92670462 0.00000000
0.00000000 0.92533837 0.00000000
0.41941581 0.91700651 0.00000000
0.81660468 0.85067245 0.00000000
0.92909910 0.76605622 0.22948494
0.92666701 0.40661727 0.27287477
0.91185066 0.19662343 0.29248458
0.00000000 1.03050106 0.00000000
0.00000000 1.03046893 0.00000000
0.00000000 1.03041079 0.00000000
0.00000000 1.03024039 0.00000000
0.08574056 1.02774359 0.00000000
0.70756831 1.01423829 0.00000000
0.88183970 0.96142103 0.23072187
0.92012855 0.94251526 0.22976398
0.93248226 0.54509025 0.27126380
0.00000000 1.03079751 0.39187656
0.00000000 1.03077685 0.39193612
0.00000000 1.03071029 0.39249768
0.00000000 1.03014380 0.40139641
0.43496293 1.02591253 0.47125073
0.71288803 1.01838235 0.38436273
0.85582401 0.98034068 0.50380158
0.91602938 0.97207169 0.24154236
0.91642837 0.97199079 0.23247684
0.60412227 1.02078008 0.73088123
0.61626918 1.02031400 0.73559684
0.63367859 1.01959852 0.74206444
0.66728101 1.01802432 0.75353788
0.71788755 1.01519283 0.75469922
0.79709782 1.00795640 0.73535020
0.84989480 0.99346195 0.77574056
0.90052742 0.98772954 0.73846806
0.91637201 0.97202636 0.23797832
0.15801419 0.02415360 0.23599735
0.15817132 0.02410701 0.23542140
0.18264491 0.02350241 0.23629455
0.33491440 0.02711309 0.26968534
0.68755786 0.05505333 0.32737240
0.86737194 0.12927481 0.30984250
0.91194262 0.19627842 0.30007982
0.91184287 0.19654324 0.29209137
0.91185066 0.19662343 0.29248458
0.15801137 0.02415201 0.23596891
0.15802415 0.02411054 0.23541761
0.18046118 0.02356841 0.23621812
0.33391307 0.02708539 0.26968720
0.68779831 0.05506604 0.32826406
0.86740936 0.12929063 0.31061663
0.91194616 0.19629024 0.30031900
0.91184287 0.19654324 0.29209137
0.91185066 0.19662343 0.29248458
0.15766202 0.02893732 0.23644183
0.15764351 0.02810718 0.23585314
0.17137023 0.02626637 0.23583107
0.32649621 0.02777170 0.26667762
0.68638921 0.05495806 0.32860818
0.86746653 0.12930995 0.31181363
0.91195264 0.19630956 0.30074268
0.91184287 0.19654324 0.29209137
0.91185066 0.19662343 0.29248458
0.15805834 0.17773140 0.24456986
0.15806264 0.17492699 0.24357074
0.15867599 0.16823439 0.24169611
0.27637548 0.14725285 0.23119583
0.67870731 0.13271243 0.26583673
0.86632153 0.13699225 0.30366177
0.91193780 0.19628938 0.29969250
0.91184287 0.19654324 0.29209189
0.91185066 0.19662343 0.29248458
0.00000000 0.60914687 0.23028735
0.00000000 0.60740390 0.22961585
0.00000000 0.60440571 0.22876203
0.00000000 0.59165205 0.19260945
0.60272816 0.57112860 0.00000000
0.86053787 0.49645408 0.10083103
0.92069666 0.29116690 0.28702238
0.91184287 0.19654324 0.29209269
0.91185066 0.19662343 0.29248458
0.00000000 0.92179957 0.00000000
0.00000000 0.92152726 0.00000000
0.00000000 0.92102515 0.00000000
0.00000000 0.91928889 0.00000000
0.39074055 0.91129454 0.00000000
0.81539752 0.84228793 0.00000000
0.92586136 0.76919760 0.23621369
0.92669547 0.40706867 0.27286967
0.91185066 0.19662343 0.29248458
0.00000000 1.02883219 0.06364965
0.00000000 1.02879911 0.06204443
0.00000000 1.02873313 0.05943696
0.00000000 1.02854780 0.04967496
0.08399255 1.02578745 0.00000000
0.70196264 1.01265204 0.00000000
0.87954604 0.95839235 0.27832496
0.92012163 0.94256926 0.22977273
0.93249140 0.54523138 0.27126480
0.00000000 1.03056877 0.43521344
0.00000000 1.03055175 0.43525533
0.00000000 1.03049093 0.43571956
0.00000000 1.02994796 0.44315445
0.43989440 1.02530837 0.52100683
0.71708863 1.01794227 0.47511364
0.85369330 0.98257585 0.57112133
0.91506510 0.97269173 0.30849783
0.91642837 0.97199079 0.23247684
0.60174859 1.02077912 0.73609648
0.61387526 1.02028741 0.74050455
0.63146818 1.01957002 0.74666874
0.66850472 1.01785124 0.76105680
0.71987642 1.01493158 0.76429131
0.79732349 1.00787302 0.74647483
0.84907524 0.99405598 0.78456057
0.89890883 0.98867222 0.75111703
0.91450704 0.97359578 0.37391927
0.17757195 0.04298178 0.47728984
0.17754559 0.04295001 0.47695302
0.18468425 0.04282048 0.47692191
0.35612190 0.03929608 0.48310355
0.67935125 0.05105659 0.53750991
0.86681486 0.12449171 0.49748306
0.91466262 0.19725297 0.46567013
0.91244445 0.19667455 0.33233402
0.91185066 0.19662343 0.29248458
0.17754279 0.04294683 0.47694482
0.17752261 0.04292177 0.47667976
0.18298756 0.04281959 0.47662141
0.35452164 0.03933297 0.48298167
0.67956808 0.05107336 0.53783770
0.86685261 0.12451346 0.49778807
0.91466919 0.19725519 0.46602183
0.91244794 0.19667492 0.33253305
0.91185066 0.19662343 0.29248458
0.17742265 0.04280495 0.47550364
0.17740552 0.04278148 0.47526364
0.17933044 0.04273083 0.47508476
0.34711079 0.03941150 0.48161386
0.67758394 0.05088964 0.53749058
0.86691683 0.12454768 0.49828566
0.91467915 0.19725939 0.46659688
0.91245414 0.19667603 0.33290344
0.91185066 0.19662343 0.29248458
0.16965868 0.17151708 0.48300774
0.16987858 0.16716426 0.48249097
0.17035724 0.15963263 0.48173904
0.29070777 0.09605404 0.47854070
0.66053188 0.06977455 0.52970989
0.86522481 0.12494308 0.49835700
0.91470771 0.19727037 0.46815588
0.91247565 0.19668367 0.33417909
0.91185066 0.19662343 0.29248458
0.00000000 0.54985819 0.49730061
0.00000000 0.54794785 0.49678300
0.00000000 0.54449376 0.49596486
0.00000000 0.53006383 0.48949993
0.57899489 0.49459440 0.46840686
0.85873716 0.52300299 0.54814301
0.91876283 0.28559083 0.48098550
0.91240479 0.19666753 0.32995057
0.91185066 0.19662343 0.29248458
0.00000000 0.90473934 0.43487547
0.00000000 0.90439545 0.43475671
0.00000000 0.90375795 0.43466952
0.00000000 0.90153416 0.43465263
0.31062271 0.88838471 0.39856430
0.81184484 0.81762805 0.37331373
0.91809508 0.78619402 0.52007890
0.92742578 0.42737121 0.33216416
0.91185066 0.19662343 0.29248458
0.00000000 1.02452939 0.40261762
0.00000000 1.02445098 0.40229232
0.00000000 1.02433049 0.40179289
0.00000000 1.02396080 0.40033874
0.09611622 1.01967808 0.44923284
0.70049092 1.00540299 0.40267923
0.87000187 0.95839770 0.56670087
0.91866209 0.94203625 0.32883899
0.93251927 0.54565264 0.27126728
0.00000000 1.02999157 0.52451251
0.00000000 1.02998468 0.52449274
0.00000000 1.02994433 0.52469051
0.00000000 1.02945606 0.52977928
0.44585332 1.02407594 0.60746479
0.72838207 1.01592284 0.62308799
0.84868080 0.98792863 0.68184666
0.91048129 0.97870108 0.56038918
0.91641465 0.97199882 0.23394193
0.59568927 1.02073571 0.74808446
0.60782278 1.02023042 0.75213789
0.62576709 1.01950634 0.75805180
0.66476511 1.01774987 0.77304023
0.72400007 1.01435935 0.78647893
0.79777546 1.00766474 0.77252950
0.84691555 0.99546780 0.80372102
0.89449496 0.99082764 0.78211478
0.91001152 0.98014350 0.60053760
0.20591447 0.07194621 0.73763343
0.20590973 0.07194181 0.73759234
0.20597254 0.07193943 0.73756962
0.35625994 0.06904360 0.74236907
0.67401116 0.05467566 0.74879741
0.86391440 0.11965278 0.68246988
0.92042967 0.19973204 0.66527215
0.91909124 0.19903065 0.61983519
0.91354841 0.19719695 0.39029157
0.20584754 0.07187159 0.73723021
0.20584766 0.07187221 0.73722763
0.20585441 0.07187446 0.73722200
0.35203790 0.06910019 0.74196333
0.67364614 0.05469785 0.74878591
0.86395817 0.11966512 0.68253679
0.92043278 0.19973366 0.66535930
0.91909580 0.19903251 0.61996946
0.91355012 0.19719806 0.39037590
0.20568745 0.07169492 0.73627836
0.20568908 0.07169689 0.73628060
0.20569482 0.07170443 0.73630549
0.34075287 0.06924652 0.74080882
0.67053435 0.05482053 0.74866438
0.86402948 0.11968362 0.68264778
0.92043706 0.19973626 0.66550346
0.91910171 0.19903523 0.62019093
0.91355325 0.19719954 0.39052811
0.19901367 0.09962857 0.73625241
0.19944894 0.09746843 0.73605089
0.20023538 0.09371057 0.73574569
0.28380454 0.07693337 0.73803301
0.64795930 0.05653559 0.74650011
0.86098665 0.11871627 0.68284452
0.92045040 0.19974409 0.66593531
0.91912050 0.19904428 0.62085359
0.91356348 0.19720472 0.39103151
0.00000000 0.51433310 0.75558012
0.00000000 0.51265892 0.75553036
0.00000000 0.50967493 0.75549226
0.00000000 0.49665064 0.75609252
0.57202131 0.42593521 0.74977915
0.85553658 0.37500585 0.70401771
0.92284963 0.24997248 0.67050190
0.91917212 0.19906982 0.62264706
0.91359672 0.19722101 0.39266489
0.00000000 0.86625471 0.70895790
0.00000000 0.86580607 0.70908191
0.00000000 0.86499496 0.70936292
0.00000000 0.86232485 0.71039053
0.13366059 0.84960742 0.70399974
0.79951911 0.82213157 0.73507425
0.90316700 0.84517592 0.78299554
0.92344608 0.43570253 0.65451985
0.91370224 0.19727580 0.39783597
0.00000000 1.00984063 0.62468723
0.00000000 1.00971650 0.62475220
0.00000000 1.00950899 0.62484665
0.00000000 1.00888608 0.62512308
0.03890201 1.00514327 0.64027465
0.72827558 0.98364668 0.72326700
0.85696880 0.96078721 0.77560988
0.90965284 0.94390300 0.72757712
0.92980588 0.55908270 0.43894001
0.00000000 1.02886222 0.65233801
0.00000000 1.02886031 0.65234180
0.00000000 1.02883545 0.65242808
0.00000000 1.02846633 0.65462459
0.37298472 1.02390935 0.69334819
0.74778081 1.01237472 0.77002521
0.84353221 0.99337493 0.76099737
0.89814537 0.98973922 0.76857869
0.91155087 0.97824456 0.47197049
0.58340168 1.02061273 0.77441105
0.59625218 1.02009463 0.77832111
0.61404094 1.01936519 0.78374211
0.65593124 1.01757947 0.79597163
0.72736629 1.01358172 0.81558774
0.79850116 1.00715429 0.81231728
0.84279745 0.99758287 0.83106461
0.88840192 0.99393319 0.82162558
0.90142552 0.98999320 0.77501005
0.23010922 0.10063531 0.85215652
0.23011869 0.10064357 0.85217617
0.23013318 0.10065683 0.85220996
0.31935492 0.09882172 0.85456111
0.64214061 0.07983002 0.86390096
0.85977953 0.11471490 0.80818106
0.92406391 0.20243927 0.78722074
0.92396920 0.20229923 0.78129888
0.92316596 0.20164323 0.75296214
0.22999923 0.10053529 0.85190430
0.23001356 0.10054804 0.85193802
0.23003277 0.10056523 0.85198038
0.31295500 0.09894417 0.85420106
0.63878433 0.08003209 0.86361371
0.85979536 0.11471622 0.80818010
0.92406451 0.20243927 0.78723548
0.92396932 0.20229998 0.78131485
0.92316730 0.20164398 0.75298878
0.22980538 0.10035925 0.85145402
0.22981928 0.10037191 0.85148705
0.22983957 0.10039045 0.85153351
0.29916585 0.09921041 0.85344473
0.63133521 0.08048822 0.86298405
0.85933997 0.11456018 0.80839776
0.92406510 0.20244026 0.78726004
0.92397051 0.20230048 0.78134146
0.92316889 0.20164548 0.75303209
0.22585082 0.10382704 0.85090858
0.22625907 0.10339432 0.85088944
0.22698116 0.10263704 0.85084933
0.25706452 0.10047220 0.85132698
0.60362227 0.08223186 0.86068583
0.85334726 0.11305430 0.80988436
0.92406772 0.20244176 0.78733143
0.92397230 0.20230248 0.78142197
0.92317303 0.20164834 0.75316256
0.08922819 0.44211061 0.87493416
0.09126075 0.44036560 0.87484929
0.09553897 0.43724753 0.87472121
0.11018344 0.42582570 0.87448818
0.54656944 0.40122503 0.87773200
0.84649835 0.28094805 0.83424310
0.92452253 0.23024495 0.78671034
0.92397898 0.20230822 0.78166107
0.92318475 0.20165744 0.75355138
0.00000000 0.81301316 0.86054092
0.00000000 0.81245589 0.86064324
0.00000000 0.81147942 0.86081267
0.00000000 0.80822875 0.86143913
0.13219290 0.79899074 0.86166914
0.79513340 0.81219917 0.85167739
0.89903622 0.81526613 0.84357893
0.92447304 0.38981662 0.79713583
0.92322059 0.20168499 0.75469331
0.00000000 0.98905205 0.77819013
0.00000000 0.98887323 0.77836820
0.00000000 0.98856741 0.77869336
0.00000000 0.98767120 0.77960652
0.00000000 0.98384424 0.78321802
0.73549574 0.95879628 0.82810011
0.84865559 0.96009718 0.85408250
0.90134841 0.94541858 0.85148610
0.92651749 0.59520503 0.79236336
0.00000000 1.02718149 0.75097475
0.00000000 1.02716026 0.75102326
0.00000000 1.02710691 0.75114066
0.00000000 1.02669552 0.75235579
0.18009720 1.02279741 0.77301955
0.75255110 1.00810501 0.83671463
0.84069217 0.99229435 0.83695577
0.88626701 0.99176286 0.84861926
0.89638315 0.98850334 0.83692542
0.56957746 1.02036353 0.80718212
0.58345565 1.01983281 0.80971738
0.60105863 1.01911924 0.81304082
0.64517818 1.01731975 0.82089587
0.72327249 1.01306610 0.84075793
0.79931377 1.00640707 0.84629891
0.84031994 0.99850566 0.84950972
0.88140996 0.99623721 0.85357926
0.89306324 0.99493957 0.84799744
0.23464673 0.11956635 0.86648554
0.23468331 0.11899764 0.86643073
0.23474696 0.11795601 0.86632995
0.27442032 0.11235751 0.86744808
0.59699994 0.09114959 0.87753900
0.85381532 0.11202188 0.83689764
0.92444768 0.20299773 0.80813742
0.92474292 0.20301197 0.80815535
0.92474292 0.20301197 0.80815535
0.23436719 0.12320283 0.86682991
0.23440094 0.12281464 0.86679358
0.23446198 0.12207907 0.86672445
0.26845755 0.11735428 0.86769102
0.59209234 0.09391903 0.87768560
0.85266679 0.11132219 0.83822540
0.92444885 0.20299760 0.80813742
0.92474292 0.20301197 0.80815535
0.92474292 0.20301197 0.80815535
0.23353766 0.13027132 0.86750006
0.23359783 0.12994095 0.86745964
0.23370821 0.12926261 0.86738233
0.25822155 0.12504634 0.86793017
0.58413765 0.10120701 0.87812985
0.85051808 0.11019524 0.84032280
0.92443875 0.20299723 0.80813694
0.92474292 0.20301197 0.80815535
0.92474292 0.20301197 0.80815535
0.22003676 0.21259744 0.87671338
0.22044544 0.21040003 0.87648326
0.22112114 0.20642224 0.87606465
0.23156996 0.19009075 0.87535723
0.56225552 0.14537483 0.88199105
0.84613733 0.11138135 0.84798363
0.92413129 0.20298236 0.80811805
0.92474292 0.20301197 0.80815535
0.92474292 0.20301197 0.80815535
0.03796475 0.50389079 0.90128542
0.03983133 0.50247479 0.90119978
0.04347855 0.49998026 0.90105711
0.05685277 0.49180887 0.90061310
0.52903505 0.52426041 0.90205562
0.84346514 0.41271653 0.88022141
0.92468880 0.27773608 0.81409841
0.92474292 0.20301197 0.80815535
0.92474292 0.20301197 0.80815535
0.00000000 0.80270158 0.89266334
0.00000000 0.80211702 0.89272080
0.00000000 0.80105743 0.89282875
0.00000000 0.79765083 0.89317048
0.13859431 0.79372681 0.89327431
0.78756447 0.83215632 0.87833940
0.89183564 0.82681277 0.86198498
0.92667181 0.42609933 0.82679412
0.92474292 0.20301197 0.80815535
0.00000000 0.97980307 0.83555325
0.00000000 0.97959250 0.83577501
0.00000000 0.97926202 0.83612452
0.00000000 0.97828281 0.83713558
0.00000000 0.97409418 0.83994611
0.72920896 0.95057831 0.85591001
0.84454033 0.96042077 0.87177207
0.89945452 0.94580960 0.87151853
0.92677082 0.59392774 0.84288419
0.00000000 1.02363491 0.79791911
0.00000000 1.02354253 0.79805240
0.00000000 1.02336658 0.79831849
0.00000000 1.02266640 0.79979860
0.13151511 1.01803503 0.81206572
0.74574267 1.00108700 0.85411289
0.83999307 0.98795502 0.85942293
0.88230597 0.98811663 0.86614106
0.89385488 0.98401445 0.86571704
0.57021479 1.01985289 0.82616967
0.58307475 1.01936060 0.82865493
0.59890251 1.01873349 0.83172038
0.64314122 1.01694011 0.83962279
0.72165602 1.01264840 0.85308206
0.79913900 1.00566673 0.85886700
0.83988969 0.99775978 0.85970175
0.87811658 0.99597501 0.86525253
0.88937034 0.99473416 0.86441758
0.13691072 0.50131412 0.90362255
0.13800176 0.49962490 0.90354740
0.13981934 0.49675946 0.90341654
0.15245082 0.48685158 0.90324361
0.54598297 0.50091311 0.90734836
0.84844158 0.40996002 0.87872654
0.92412666 0.23847746 0.81082440
0.92474292 0.20301197 0.80815535
0.92474292 0.20301197 0.80815535
0.12738187 0.51391513 0.90415076
0.12896944 0.51248092 0.90409394
0.13095300 0.51004773 0.90399508
0.14281496 0.50094431 0.90399669
0.54208446 0.51696902 0.90749031
0.84762124 0.43348740 0.88023999
0.92434812 0.25076687 0.81190827
0.92474292 0.20301197 0.80815535
0.92474292 0.20301197 0.80815535
0.10740286 0.53241088 0.90475564
0.10887793 0.53103259 0.90471489
0.11139341 0.52870914 0.90464616
0.12733145 0.52061161 0.90470410
0.53551947 0.54381420 0.90743848
0.84531820 0.47184150 0.88169939
0.92492186 0.27883178 0.81418201
0.92474292 0.20301197 0.80815535
0.92474292 0.20301197 0.80815535
0.00000000 0.57996454 0.90559974
0.00000000 0.57880144 0.90559075
0.00000000 0.57681145 0.90557367
0.00000000 0.57044241 0.90560372
0.51546227 0.60133231 0.90614879
0.83608994 0.56951166 0.88371376
0.92504114 0.38725853 0.82196180
0.92474292 0.20301197 0.80815535
0.92474292 0.20301197 0.80815535
0.00000000 0.69080496 0.90334889
0.00000000 0.69004626 0.90338614
0.00000000 0.68867753 0.90345468
0.00000000 0.68442712 0.90366684
0.45532781 0.70201285 0.90182225
0.81321053 0.72861095 0.88279681
0.91336413 0.67315650 0.84813549
0.92559528 0.21566219 0.80921418
0.92474292 0.20301197 0.80815535
0.00000000 0.86641272 0.88841986
0.00000000 0.86587381 0.88847730
0.00000000 0.86497964 0.88857257
0.00000000 0.86232599 0.88885096
0.09624321 0.85772126 0.88816445
0.77710590 0.88300975 0.87381729
0.87552129 0.88836494 0.86982260
0.92370629 0.71451218 0.85197704
0.92476140 0.20325153 0.80817616
0.00000000 0.98520443 0.84188329
0.00000000 0.98502159 0.84206406
0.00000000 0.98472553 0.84235326
0.00000000 0.98387962 0.84316875
0.00530884 0.97952690 0.84582049
0.73329569 0.95654294 0.85952484
0.84386567 0.96426916 0.87376861
0.89720716 0.95147856 0.87333809
0.91967199 0.75977291 0.85538418
0.00000000 1.02240802 0.80870367
0.00000000 1.02231010 0.80885991
0.00000000 1.02211330 0.80918390
0.00000000 1.02138731 0.81068230
0.18964864 1.01644821 0.82203465
0.75017063 0.99939804 0.85844305
0.83987240 0.98768077 0.86379262
0.88119798 0.98787546 0.86994207
0.89331403 0.98413035 0.87003145
0.59368397 1.01878799 0.83714589
0.60271324 1.01842060 0.83860236
0.61777690 1.01781414 0.84093253
0.65820164 1.01603989 0.84713167
0.72871635 1.01182793 0.85730119
0.80078978 1.00452342 0.86241456
0.83983363 0.99694427 0.86390557
0.87752917 0.99504609 0.86872324
0.88860130 0.99378593 0.86830753
