public/luts/EV_PURPLE_HAZE_AFRICA_LUT.cube
TITLE "EV_MAGENTA_AFRICA_L"
LUT_3D_SIZE 33
# MLUTS-Log3/Sony S-Gamut3.cine -> LA - EV_MAGENTA_AFRICA_LUT/LA - EV_MAGENTA_AFRICA_LUT, CineEI Shift 0.00, Black Level 5.59% IRE, Input 109% -> Output 100% - Created with LUTCalc v4.09 by Ben Turley February 2025
0.14034129 0.00474800 0.11504329
0.14235934 0.00589222 0.11662163
0.14442425 0.00703644 0.11824328
0.14732576 0.00871005 0.12051045
0.15046677 0.01046510 0.12293233
0.15518137 0.01270351 0.12593555
0.16065382 0.01511770 0.12918319
0.17057402 0.01780547 0.13169929
0.18138175 0.02067562 0.13419714
0.20006924 0.02196795 0.13527536
0.22983623 0.02145705 0.13470431
0.27094737 0.02287261 0.13572744
0.34368456 0.02814106 0.14002693
0.41936120 0.03394848 0.14486248
0.51703584 0.04191172 0.15149120
0.61302380 0.04999377 0.15863845
0.68965269 0.05730860 0.16705439
0.76496107 0.06423055 0.17545180
0.80794874 0.07582010 0.18553390
0.84728048 0.08764580 0.19642444
0.86720295 0.12997916 0.23327372
0.88583377 0.17865624 0.27295472
0.89831562 0.19467100 0.28795303
0.90819296 0.19546146 0.28920062
0.91179896 0.19594409 0.29014996
0.91181451 0.19615624 0.29083665
0.91182724 0.19633012 0.29139935
0.91183575 0.19644645 0.29177496
0.91184287 0.19654324 0.29209137
0.91184620 0.19658620 0.29224428
0.91184918 0.19662343 0.29238357
0.91184992 0.19662343 0.29243408
0.91185066 0.19662343 0.29248458
0.14115488 0.00670687 0.11634229
0.14187880 0.00643356 0.11617196
0.14393206 0.00757778 0.11778189
0.14681522 0.00877362 0.12013747
0.14993594 0.01045517 0.12256642
0.15469622 0.01268048 0.12569239
0.16017231 0.01508990 0.12898502
0.17012675 0.01779911 0.13162515
0.18107075 0.02068356 0.13416401
0.19984252 0.02197404 0.13525739
0.22972214 0.02146102 0.13470391
0.27094132 0.02288011 0.13573079
0.34387227 0.02815562 0.14003821
0.41952939 0.03396238 0.14487369
0.51716875 0.04192297 0.15150027
0.61314872 0.05000480 0.15864789
0.68968677 0.05731392 0.16706142
0.76500124 0.06423618 0.17545718
0.80795787 0.07583117 0.18554377
0.84728747 0.08765522 0.19643506
0.86721347 0.12998197 0.23327705
0.88584457 0.17865666 0.27295565
0.89832010 0.19467116 0.28795336
0.90819296 0.19546146 0.28920062
0.91179896 0.19594409 0.29014996
0.91181451 0.19615624 0.29083665
0.91182724 0.19633012 0.29139935
0.91183575 0.19644645 0.29177496
0.91184287 0.19654324 0.29209137
0.91184620 0.19658620 0.29224428
0.91184918 0.19662343 0.29238357
0.91184992 0.19662343 0.29243408
0.91185066 0.19662343 0.29248458
0.14197555 0.00866575 0.11767135
0.14270608 0.00839244 0.11749727
0.14344275 0.00811912 0.11732366
0.14630806 0.00931496 0.11966440
0.14940767 0.01051875 0.12218561
0.15414534 0.01267056 0.12531929
0.15966685 0.01506687 0.12873889
0.16960975 0.01777132 0.13148899
0.18072340 0.02067721 0.13408908
0.19950689 0.02198198 0.13522405
0.22946893 0.02146711 0.13468601
0.27083941 0.02288408 0.13573039
0.34386615 0.02816312 0.14004169
0.41970977 0.03397693 0.14488560
0.51735534 0.04193686 0.15151240
0.61327973 0.05001605 0.15865752
0.68979305 0.05732135 0.16707149
0.76504142 0.06424182 0.17546256
0.80799422 0.07583628 0.18554952
0.84729635 0.08766429 0.19644537
0.86722126 0.12999421 0.23328937
0.88585472 0.17865929 0.27295855
0.89833352 0.19467162 0.28795434
0.90819627 0.19546162 0.28920095
0.91179896 0.19594409 0.29014996
0.91181451 0.19615624 0.29083665
0.91182724 0.19633012 0.29139935
0.91183575 0.19644645 0.29177496
0.91184287 0.19654324 0.29209137
0.91184620 0.19658620 0.29224428
0.91184918 0.19662343 0.29238357
0.91184992 0.19662343 0.29243408
0.91185066 0.19662343 0.29248458
0.14333400 0.01163579 0.11968154
0.14342506 0.01129881 0.11946724
0.14416803 0.01102550 0.11928876
0.14571835 0.01063862 0.11907597
0.14879331 0.01184240 0.12158068
0.15364221 0.01333834 0.12494906
0.15916656 0.01562877 0.12840611
0.16909770 0.01824665 0.13137558
0.18032856 0.02111513 0.13401888
0.19906759 0.02231071 0.13519308
0.22895515 0.02169816 0.13467707
0.27046779 0.02302019 0.13571653
0.34358413 0.02814817 0.14001194
0.41955739 0.03396895 0.14486448
0.51748708 0.04194741 0.15152074
0.61339565 0.05002606 0.15866578
0.68983778 0.05732741 0.16707943
0.76508813 0.06424802 0.17546846
0.80800529 0.07584656 0.18555949
0.84730712 0.08767271 0.19645578
0.86723100 0.12999700 0.23329230
0.88586427 0.17866118 0.27296038
0.89833776 0.19467177 0.28795457
0.90819759 0.19546168 0.28920108
0.91179896 0.19594409 0.29014996
0.91181451 0.19615624 0.29083665
0.91182724 0.19633012 0.29139935
0.91183575 0.19644645 0.29177496
0.91184287 0.19654324 0.29209137
0.91184620 0.19658620 0.29224428
0.91184918 0.19662343 0.29238357
0.91184992 0.19662343 0.29243408
0.91185066 0.19662343 0.29248458
0.14479768 0.01476139 0.12184573
0.14478887 0.01441462 0.12162072
0.14488154 0.01407764 0.12140176
0.14644595 0.01369076 0.12118375
0.14817041 0.01328641 0.12096077
0.15298887 0.01478235 0.12431158
0.15865326 0.01638453 0.12803755
0.16857246 0.01889653 0.13115160
0.17993116 0.02166212 0.13391464
0.19864152 0.02282028 0.13513286
0.22844571 0.02206122 0.13464993
0.26998814 0.02328556 0.13571129
0.34318080 0.02828136 0.13999306
0.41926008 0.03395108 0.14482831
0.51730769 0.04193881 0.15149719
0.61351534 0.05003599 0.15867389
0.68992601 0.05733397 0.16708788
0.76512883 0.06425414 0.17547425
0.80804011 0.07585247 0.18556598
0.84731410 0.08768179 0.19646686
0.86723879 0.13000879 0.23330517
0.88587397 0.17866231 0.27296157
0.89835001 0.19467223 0.28795506
0.90819940 0.19546177 0.28920118
0.91179896 0.19594409 0.29014996
0.91181451 0.19615624 0.29083665
0.91182724 0.19633012 0.29139935
0.91183575 0.19644645 0.29177496
0.91184287 0.19654324 0.29209137
0.91184620 0.19658620 0.29224428
0.91184918 0.19662343 0.29238357
0.91184992 0.19662343 0.29243408
0.91185066 0.19662343 0.29248458
0.14663731 0.01966031 0.12453886
0.14654958 0.01925433 0.12434635
0.14654056 0.01890756 0.12411664
0.14703462 0.01848322 0.12390710
0.14877279 0.01807887 0.12367868
0.15201593 0.01749496 0.12348750
0.15763281 0.01909713 0.12719654
0.16775238 0.02099473 0.13083582
0.17932885 0.02367085 0.13364140
0.19795867 0.02484040 0.13500381
0.22766804 0.02410922 0.13457906
0.26928661 0.02469931 0.13564633
0.34248822 0.02901215 0.13991537
0.41872905 0.03442276 0.14474542
0.51698029 0.04192094 0.15142831
0.61333597 0.05002743 0.15862016
0.68998452 0.05734109 0.16709693
0.76518213 0.06426136 0.17548100
0.80805651 0.07586428 0.18557736
0.84732813 0.08769175 0.19647905
0.86725087 0.13001259 0.23330899
0.88588561 0.17866587 0.27296490
0.89835436 0.19467241 0.28795522
0.90820182 0.19546189 0.28920131
0.91179896 0.19594409 0.29014996
0.91181451 0.19615624 0.29083665
0.91182724 0.19633012 0.29139935
0.91183575 0.19644645 0.29177496
0.91184287 0.19654324 0.29209137
0.91184620 0.19658620 0.29224428
0.91184918 0.19662343 0.29238357
0.91184992 0.19662343 0.29243408
0.91185066 0.19662343 0.29248458
0.14865255 0.02520407 0.12745981
0.14853306 0.02477656 0.12727815
0.14844309 0.02437058 0.12708277
0.14876502 0.02394121 0.12687322
0.14932548 0.02350417 0.12666394
0.15258611 0.02292026 0.12646924
0.15649877 0.02227105 0.12628837
0.16652580 0.02416864 0.13020838
0.17862024 0.02626319 0.13330564
0.19722872 0.02734326 0.13471171
0.22680525 0.02668876 0.13444649
0.26848515 0.02730673 0.13557105
0.34170249 0.03059513 0.13982184
0.41799332 0.03532278 0.14463580
0.51639189 0.04239261 0.15132782
0.61301415 0.05000956 0.15853551
0.68981648 0.05733536 0.16703974
0.76523279 0.06426889 0.17548804
0.80809490 0.07587256 0.18558603
0.84733685 0.08770327 0.19649290
0.86726087 0.13002662 0.23332403
0.88589876 0.17866672 0.27296537
0.89837069 0.19467333 0.28795571
0.90820263 0.19546195 0.28920134
0.91179896 0.19594409 0.29014996
0.91181451 0.19615624 0.29083665
0.91182724 0.19633012 0.29139935
0.91183575 0.19644645 0.29177496
0.91184287 0.19654324 0.29209137
0.91184620 0.19658620 0.29224428
0.91184918 0.19662343 0.29238357
0.91184992 0.19662343 0.29243408
0.91185066 0.19662343 0.29248458
0.15092594 0.03548090 0.13023534
0.15084276 0.03495651 0.13015957
0.15072039 0.03452899 0.13002429
0.15078254 0.03398404 0.12992768
0.15116502 0.03354197 0.12976401
0.15262968 0.03284595 0.12963996
0.15654383 0.03219674 0.12949585
0.16426299 0.03109447 0.12935395
0.17683809 0.03318902 0.13254363
0.19552126 0.03556892 0.13434201
0.22497034 0.03536249 0.13415151
0.26688806 0.03738291 0.13537014
0.34016685 0.04175981 0.13962123
0.41668050 0.04358422 0.14438041
0.51528963 0.04621348 0.15097975
0.61214735 0.05294415 0.15820582
0.68961156 0.05732323 0.16689133
0.76511549 0.06426293 0.17539993
0.80812370 0.07589145 0.18560390
0.84735769 0.08771989 0.19651276
0.86727996 0.13003342 0.23333143
0.88591741 0.17867220 0.27297091
0.89837721 0.19467370 0.28795620
0.90820746 0.19546232 0.28920183
0.91179896 0.19594409 0.29015000
0.91181451 0.19615624 0.29083665
0.91182724 0.19633012 0.29139935
0.91183575 0.19644645 0.29177496
0.91184287 0.19654324 0.29209137
0.91184620 0.19658620 0.29224428
0.91184918 0.19662343 0.29238357
0.91184992 0.19662343 0.29243408
0.91185066 0.19662343 0.29248458
0.15338803 0.04891312 0.13239379
0.15332981 0.04832413 0.13235065
0.15324485 0.04779973 0.13227444
0.15319374 0.04720819 0.13221516
0.15326864 0.04663800 0.13214112
0.15443239 0.04591930 0.13203783
0.15622520 0.04512269 0.13194400
0.16392420 0.04402042 0.13182027
0.17454072 0.04261612 0.13169784
0.19297820 0.04499602 0.13348948
0.22244389 0.04770206 0.13378041
0.26459069 0.05017055 0.13507095
0.33806408 0.05593422 0.13933203
0.41476034 0.05788922 0.14408359
0.51375819 0.05515169 0.15055150
0.61078972 0.05670041 0.15767480
0.68891715 0.05967697 0.16650104
0.76492798 0.06425022 0.17525699
0.80801648 0.07589273 0.18551014
0.84737469 0.08774190 0.19653862
0.86730023 0.13005655 0.23335578
0.88594182 0.17867348 0.27297231
0.89840549 0.19467499 0.28795761
0.90820746 0.19546232 0.28920232
0.91179896 0.19594409 0.29015049
0.91181451 0.19615624 0.29083669
0.91182724 0.19633012 0.29139935
0.91183575 0.19644645 0.29177496
0.91184287 0.19654324 0.29209137
0.91184620 0.19658620 0.29224428
0.91184918 0.19662343 0.29238357
0.91184992 0.19662343 0.29243408
0.91185066 0.19662343 0.29248458
0.15529353 0.06883930 0.13346355
0.15524815 0.06829588 0.13344563
0.15518899 0.06787380 0.13340230
0.15515183 0.06726674 0.13338274
0.15511144 0.06680534 0.13333346
0.15551780 0.06602954 0.13330556
0.15699184 0.06544159 0.13321618
0.16156821 0.06415229 0.13317718
0.17220905 0.06321171 0.13305411
0.18844434 0.06176513 0.13293203
0.21755638 0.06374785 0.13322219
0.26064971 0.07106799 0.13446248
0.33422594 0.07803702 0.13856159
0.41188757 0.08316822 0.14285397
0.51180426 0.08187709 0.14859361
0.60920102 0.07740777 0.15557917
0.68809148 0.06939430 0.16481694
0.76451294 0.07197177 0.17408346
0.80787884 0.07581494 0.18523212
0.84730159 0.08768868 0.19630996
0.86733173 0.13007306 0.23337304
0.88597338 0.17868382 0.27298240
0.89842164 0.19467572 0.28795862
0.90821793 0.19546297 0.28920327
0.91179896 0.19594409 0.29015075
0.91181451 0.19615624 0.29083695
0.91182724 0.19633012 0.29139935
0.91183575 0.19644645 0.29177496
0.91184287 0.19654324 0.29209137
0.91184620 0.19658620 0.29224428
0.91184918 0.19662343 0.29238357
0.91184992 0.19662343 0.29243408
0.91185066 0.19662343 0.29248458
0.15652529 0.09863612 0.13327476
0.15649539 0.09760272 0.13328588
0.15644955 0.09682873 0.13326797
0.15641698 0.09592302 0.13327322
0.15638362 0.09516219 0.13326114
0.15641581 0.09417155 0.13326228
0.15685331 0.09319058 0.13325272
0.16082933 0.09176342 0.13323389
0.16729511 0.09003459 0.13324191
0.18448855 0.08891021 0.13311973
0.21036672 0.08758593 0.13299868
0.25385946 0.09465597 0.13423756
0.32849434 0.11246161 0.13741465
0.40612236 0.11970037 0.14151132
0.50890820 0.12375966 0.14549350
0.60719452 0.12063976 0.15160452
0.68710585 0.09628442 0.16135509
0.76400730 0.08803323 0.17102851
0.80758590 0.08483402 0.18373874
0.84720321 0.08756311 0.19587039
0.86727392 0.12996513 0.23303368
0.88601748 0.17868636 0.27298473
0.89846539 0.19467792 0.28796068
0.90821793 0.19546297 0.28920376
0.91179896 0.19594409 0.29015121
0.91181451 0.19615624 0.29083695
0.91182724 0.19633012 0.29139935
0.91183575 0.19644645 0.29177496
0.91184287 0.19654324 0.29209137
0.91184620 0.19658620 0.29224428
0.91184918 0.19662343 0.29238357
0.91184992 0.19662343 0.29243408
0.91185066 0.19662343 0.29248458
0.15927007 0.14192240 0.13330270
0.15923966 0.14120759 0.13332628
0.15920908 0.14053078 0.13333740
0.15917882 0.13981762 0.13336170
0.15914979 0.13915014 0.13337442
0.15915098 0.13827575 0.13340534
0.15921109 0.13739088 0.13342483
0.16082348 0.13594927 0.13347315
0.16666672 0.13431756 0.13350139
0.18068565 0.13206864 0.13339663
0.20626441 0.13060605 0.13327542
0.24443575 0.13013935 0.13251601
0.31833539 0.14682300 0.13565941
0.39845800 0.16921662 0.13576876
0.50243617 0.17651644 0.13736218
0.60378176 0.17826347 0.14135316
0.68620794 0.15307990 0.14960706
0.76392675 0.13021797 0.15918768
0.80789950 0.10734356 0.17914747
0.84766899 0.10350832 0.19197893
0.86700710 0.12979708 0.23250271
0.88581016 0.17858097 0.27266925
0.89850182 0.19467991 0.28796263
0.90823684 0.19546441 0.28920534
0.91179896 0.19594409 0.29015170
0.91181451 0.19615624 0.29083741
0.91182724 0.19633012 0.29139935
0.91183575 0.19644645 0.29177496
0.91184287 0.19654324 0.29209137
0.91184620 0.19658620 0.29224428
0.91184918 0.19662343 0.29238357
0.91184992 0.19662343 0.29243408
0.91185066 0.19662343 0.29248458
0.16520066 0.21729683 0.13376453
0.16516917 0.21641335 0.13381312
0.16513733 0.21560738 0.13383676
0.16510393 0.21471919 0.13388003
0.16507204 0.21388989 0.13390933
0.16502913 0.21282492 0.13395628
0.16502583 0.21171343 0.13399974
0.16519023 0.20994566 0.13406714
0.16694763 0.20777955 0.13414754
0.18039690 0.20479729 0.13401707
0.20231920 0.20091585 0.13373081
0.24089525 0.20036261 0.13296985
0.30073450 0.20216448 0.13094071
0.38226330 0.22340210 0.13104765
0.49289520 0.25188380 0.11510713
0.59566347 0.25696522 0.11733869
0.68486319 0.23927585 0.12594716
0.76501519 0.21480783 0.13441518
0.80940429 0.16675439 0.16193022
0.84941592 0.14309652 0.18269368
0.86781221 0.14896897 0.22646547
0.88524820 0.17841499 0.27216580
0.89803666 0.19456007 0.28761080
0.90823684 0.19546487 0.28920632
0.91179896 0.19594446 0.29015259
0.91181451 0.19615624 0.29083790
0.91182724 0.19633012 0.29139981
0.91183575 0.19644645 0.29177496
0.91184287 0.19654324 0.29209137
0.91184620 0.19658620 0.29224428
0.91184918 0.19662343 0.29238357
0.91184992 0.19662343 0.29243408
0.91185066 0.19662343 0.29248458
0.16636718 0.29991691 0.11021359
0.16640240 0.29905285 0.11036769
0.16637062 0.29813194 0.11042297
0.16640646 0.29724285 0.11058457
0.16637253 0.29629367 0.11063962
0.16641913 0.29520899 0.11084738
0.16637120 0.29397609 0.11091551
0.16659787 0.29219756 0.11129948
0.16683271 0.28982114 0.11141434
0.17499807 0.28674737 0.11187463
0.19580205 0.28238378 0.11151171
0.23653229 0.27863179 0.10890328
0.29541191 0.28047086 0.10669983
0.36451420 0.28254492 0.10148148
0.47451434 0.31339455 0.08753432
0.58554755 0.34093916 0.07380078
0.67714815 0.32460878 0.07781181
0.76359774 0.30433090 0.08556073
0.81054117 0.25630213 0.11346776
0.85092686 0.20659400 0.14323652
0.87015899 0.19581751 0.21706173
0.88633570 0.20455334 0.26759257
0.89756548 0.19494384 0.28696711
0.90806417 0.19591010 0.28873670
0.91179896 0.19594492 0.29015348
0.91181451 0.19615661 0.29083869
0.91182724 0.19633012 0.29140031
0.91183575 0.19644645 0.29177542
0.91184287 0.19654324 0.29209137
0.91184620 0.19658620 0.29224428
0.91184918 0.19662343 0.29238357
0.91184992 0.19662343 0.29243408
0.91185066 0.19662343 0.29248458
0.14899846 0.41449241 0.00000000
0.14926111 0.41393176 0.00000000
0.14929168 0.41316475 0.00000000
0.14952421 0.41253787 0.00000000
0.14959552 0.41169735 0.00000000
0.14984739 0.41082505 0.00000000
0.14999065 0.40978378 0.00000000
0.15037326 0.40832534 0.00000000
0.15085662 0.40642355 0.00000000
0.15379228 0.40373239 0.00000000
0.16492898 0.40031899 0.00000000
0.20694478 0.39564365 0.00000000
0.28580062 0.39111437 0.00000000
0.35534180 0.39312545 0.00000000
0.45003761 0.39600876 0.00000000
0.56165131 0.42314666 0.00000000
0.66749011 0.42494683 0.00000000
0.75578126 0.40887534 0.00000000
0.80989724 0.36526781 0.00000000
0.85250728 0.31614959 0.00000000
0.87312352 0.27970040 0.15853916
0.88975871 0.27277946 0.26208091
0.90006963 0.23433302 0.28334317
0.90840507 0.19856834 0.28762567
0.91199365 0.19771532 0.28940991
0.91181451 0.19615707 0.29083919
0.91182724 0.19633049 0.29140080
0.91183575 0.19644645 0.29177591
0.91184287 0.19654324 0.29209183
0.91184620 0.19658620 0.29224428
0.91184918 0.19662343 0.29238357
0.91184992 0.19662343 0.29243408
0.91185066 0.19662343 0.29248458
0.12495068 0.52833356 0.00000000
0.12526172 0.52774252 0.00000000
0.12558032 0.52712857 0.00000000
0.12590218 0.52650815 0.00000000
0.12623270 0.52585952 0.00000000
0.12662522 0.52509538 0.00000000
0.12705500 0.52424348 0.00000000
0.12769662 0.52297144 0.00000000
0.12850482 0.52131758 0.00000000
0.13118259 0.51903355 0.00000000
0.13619756 0.51579304 0.00000000
0.17268109 0.51218342 0.00000000
0.25342566 0.50672370 0.00000000
0.34492340 0.50227134 0.00000000
0.43964279 0.50517432 0.00000000
0.53719746 0.50728420 0.00000000
0.64296747 0.50911509 0.00000000
0.74635754 0.51093507 0.00000000
0.80228699 0.46827847 0.00000000
0.85183301 0.42293005 0.00000000
0.87466635 0.38996779 0.02390777
0.89206066 0.35981741 0.21294656
0.90461452 0.30637110 0.27707921
0.91065021 0.24121478 0.28345811
0.91238975 0.20137934 0.28824395
0.91211610 0.19891669 0.29004116
0.91182724 0.19633092 0.29140130
0.91183575 0.19644679 0.29177641
0.91184287 0.19654324 0.29209229
0.91184620 0.19658620 0.29224471
0.91184918 0.19662343 0.29238357
0.91184992 0.19662343 0.29243408
0.91185066 0.19662343 0.29248458
0.00000000 0.64063338 0.00000000
0.00000000 0.64034693 0.00000000
0.00000000 0.63974843 0.00000000
0.00000000 0.63939801 0.00000000
0.00000000 0.63881213 0.00000000
0.00000000 0.63836945 0.00000000
0.00000000 0.63767505 0.00000000
0.00000000 0.63686173 0.00000000
0.00000000 0.63561027 0.00000000
0.00000000 0.63400833 0.00000000
0.00000000 0.63178897 0.00000000
0.01802469 0.62862091 0.00000000
0.15341988 0.62484812 0.00000000
0.25319293 0.61883700 0.00000000
0.41275139 0.61366001 0.00000000
0.50894959 0.61589724 0.00000000
0.61642689 0.60680237 0.00000000
0.72238071 0.60863919 0.00000000
0.79057473 0.57175888 0.00000000
0.84287346 0.52661829 0.00000000
0.86896432 0.49695020 0.00000000
0.88829189 0.46729494 0.19969495
0.90990887 0.42562584 0.26384059
0.92180032 0.36790023 0.26992995
0.91949343 0.27597170 0.27997114
0.91396853 0.21664048 0.28813123
0.91307798 0.20805421 0.29012291
0.91183575 0.19644679 0.29177690
0.91184287 0.19654324 0.29209269
0.91184620 0.19658620 0.29224471
0.91184918 0.19662343 0.29238357
0.91184992 0.19662343 0.29243408
0.91185066 0.19662343 0.29248458
0.00000000 0.75022937 0.00000000
0.00000000 0.74997424 0.00000000
0.00000000 0.74971943 0.00000000
0.00000000 0.74942851 0.00000000
0.00000000 0.74915512 0.00000000
0.00000000 0.74882557 0.00000000
0.00000000 0.74850367 0.00000000
0.00000000 0.74793422 0.00000000
0.00000000 0.74724896 0.00000000
0.00000000 0.74621130 0.00000000
0.00000000 0.74488132 0.00000000
0.00000000 0.74303395 0.00000000
0.00000000 0.74044011 0.00000000
0.15316489 0.73704298 0.00000000
0.32269742 0.73121396 0.00000000
0.48097196 0.72557773 0.00000000
0.58898139 0.71679527 0.00000000
0.69575389 0.70770341 0.00000000
0.76357608 0.67071090 0.00000000
0.82999440 0.62924532 0.00000000
0.85938173 0.59969346 0.00000000
0.88279298 0.57524825 0.17270073
0.90622535 0.53492933 0.25115188
0.92696651 0.48658289 0.25690579
0.93124568 0.40404654 0.26657020
0.92163122 0.29162323 0.27986135
0.91490501 0.22626066 0.28821258
0.91308622 0.20817191 0.29049739
0.91184287 0.19654324 0.29209318
0.91184620 0.19658620 0.29224510
0.91184918 0.19662343 0.29238357
0.91184992 0.19662343 0.29243408
0.91185066 0.19662343 0.29248458
0.00000000 0.82099361 0.00000000
0.00000000 0.82092225 0.00000000
0.00000000 0.82069301 0.00000000
0.00000000 0.82059289 0.00000000
0.00000000 0.82035622 0.00000000
0.00000000 0.82021687 0.00000000
0.00000000 0.81996148 0.00000000
0.00000000 0.81972036 0.00000000
0.00000000 0.81922881 0.00000000
0.00000000 0.81870180 0.00000000
0.00000000 0.81784356 0.00000000
0.00000000 0.81672967 0.00000000
0.00000000 0.81523794 0.00000000
0.00000000 0.81271976 0.00000000
0.24964658 0.80945569 0.00000000
0.41626885 0.80365011 0.00000000
0.54906205 0.79810260 0.00000000
0.65750393 0.78925604 0.00000000
0.74437872 0.76193139 0.00000000
0.81050000 0.72291582 0.00000000
0.84813827 0.68576276 0.00000000
0.87000240 0.66015872 0.00316682
0.90101137 0.64065142 0.19837687
0.92531657 0.59993933 0.24438832
0.93710792 0.55372684 0.24905243
0.93283630 0.46701213 0.25819845
0.92374745 0.33865473 0.27504389
0.91795116 0.24623932 0.28858389
0.91456294 0.22299429 0.29081162
0.91184620 0.19658620 0.29224514
0.91184918 0.19662343 0.29238357
0.91184992 0.19662343 0.29243408
0.91185066 0.19662343 0.29248458
0.00000000 0.88856724 0.00000000
0.00000000 0.88849735 0.00000000
0.00000000 0.88841431 0.00000000
0.00000000 0.88829822 0.00000000
0.00000000 0.88820514 0.00000000
0.00000000 0.88805691 0.00000000
0.00000000 0.88794146 0.00000000
0.00000000 0.88770834 0.00000000
0.00000000 0.88747125 0.00000000
0.00000000 0.88703182 0.00000000
0.00000000 0.88657197 0.00000000
0.00000000 0.88576662 0.00000000
0.00000000 0.88485752 0.00000000
0.00000000 0.88322638 0.00000000
0.10146373 0.88064953 0.00000000
0.34685356 0.87720584 0.00000000
0.48208988 0.87193248 0.00000000
0.61424039 0.86609114 0.00000000
0.70314600 0.84328379 0.00000000
0.79131031 0.81554528 0.00000000
0.82700875 0.77868972 0.00000000
0.85690913 0.74254302 0.00000000
0.88747566 0.72266828 0.03266140
0.92077147 0.70599477 0.19117137
0.93536027 0.66823890 0.23699733
0.93869720 0.62000822 0.24069588
0.93472971 0.51628937 0.25307042
0.92642670 0.36045715 0.27539862
0.92025786 0.26128922 0.28889653
0.91456611 0.22304048 0.29096310
0.91184918 0.19662343 0.29238357
0.91184992 0.19662343 0.29243408
0.91185066 0.19662343 0.29248458
0.00000000 0.93023055 0.00000000
0.00000000 0.93019213 0.00000000
0.00000000 0.93011469 0.00000000
0.00000000 0.93007143 0.00000000
0.00000000 0.92996773 0.00000000
0.00000000 0.92990638 0.00000000
0.00000000 0.92978214 0.00000000
0.00000000 0.92967717 0.00000000
0.00000000 0.92944251 0.00000000
0.00000000 0.92921104 0.00000000
0.00000000 0.92878522 0.00000000
0.00000000 0.92829762 0.00000000
0.00000000 0.92771186 0.00000000
0.00000000 0.92693628 0.00000000
0.00000000 0.92561489 0.00000000
0.16067434 0.92321858 0.00000000
0.42218740 0.91981443 0.00000000
0.55895605 0.91439679 0.00000000
0.66594512 0.90877501 0.00000000
0.75100773 0.88114050 0.00000000
0.81688279 0.85244707 0.00000000
0.84808990 0.81616984 0.00000000
0.87512724 0.79916979 0.00000000
0.90895431 0.78352297 0.15569283
0.92913431 0.76590112 0.22949436
0.93453160 0.72871341 0.23320251
0.93749752 0.68417328 0.23658305
0.93371525 0.57398499 0.24947011
0.92665100 0.40638077 0.27287751
0.92280246 0.28139297 0.28897108
0.91671939 0.24045303 0.29103730
0.91184992 0.19662343 0.29243408
0.91185066 0.19662343 0.29248458
0.00000000 0.97240122 0.00000000
0.00000000 0.97236034 0.00000000
0.00000000 0.97230569 0.00000000
0.00000000 0.97225127 0.00000000
0.00000000 0.97219873 0.00000000
0.00000000 0.97211309 0.00000000
0.00000000 0.97204926 0.00000000
0.00000000 0.97191271 0.00000000
0.00000000 0.97179222 0.00000000
0.00000000 0.97153336 0.00000000
0.00000000 0.97129310 0.00000000
0.00000000 0.97084127 0.00000000
0.00000000 0.97043390 0.00000000
0.00000000 0.96952645 0.00000000
0.00000000 0.96824554 0.00000000
0.00000000 0.96590408 0.00000000
0.23989841 0.96174290 0.00000000
0.50080734 0.95659754 0.00000000
0.60914100 0.95103069 0.00000000
0.71458739 0.94432397 0.00000000
0.77928781 0.91433093 0.00000000
0.83988285 0.88374892 0.00000000
0.86655766 0.86545665 0.00000000
0.89529807 0.85723646 0.13780237
0.91619178 0.84395624 0.22620897
0.92745433 0.82573211 0.22701436
