public/luts/EV_PURPLE_HAZE_AFRICA_LUT.cube
TITLE "EV_MAGENTA_AFRICA_L"
LUT_3D_SIZE 5
# MLUTS-Log3/Sony S-Gamut3.cine -> LA - EV_MAGENTA_AFRICA_LUT/LA - EV_MAGENTA_AFRICA_LUT, CineEI Shift 0.00, Black Level 5.59% IRE, Input 109% -> Output 100% - Created with LUTCalc v4.09 by Ben Turley February 2025
0.14034129 0.00474800 0.11504329
0.18138175 0.02067562 0.13419714
0.68965269 0.05730860 0.16705439
0.91179896 0.19594409 0.29014996
0.91185066 0.19662343 0.29248458
0.15338803 0.04891312 0.13239379
0.17454072 0.04261612 0.13169784
0.68891715 0.05967697 0.16650104
0.91179896 0.19594409 0.29015049
0.91185066 0.19662343 0.29248458
0.00000000 0.64063338 0.00000000
0.00000000 0.63561027 0.00000000
0.61642689 0.60680237 0.00000000
0.91949343 0.27597170 0.27997114
0.91185066 0.19662343 0.29248458
0.00000000 1.03142214 0.00000000
0.00000000 1.03133952 0.00000000
0.09267746 1.02874498 0.00000000
0.88236066 0.96240215 0.23077927
0.93247713 0.54501552 0.27126331
0.60540702 1.02078008 0.72800723
0.63486785 1.01961306 0.73960165
0.71646106 1.01535692 0.74934110
0.85033825 0.99312534 0.77067818
0.91638165 0.97201986 0.23723442
0.15075004 0.01652950 0.14380336
0.17990015 0.02027502 0.14746981
0.68979490 0.05657372 0.19375340
0.91179896 0.19594409 0.29014996
0.91185066 0.19662343 0.29248458
0.15229342 0.04115843 0.14545159
0.17103151 0.03599334 0.14487507
0.68696396 0.05657349 0.19194026
0.91179896 0.19594409 0.29015049
0.91185066 0.19662343 0.29248458
0.00000000 0.63314988 0.00000000
0.00000000 0.62824297 0.00000000
0.61301622 0.60222028 0.00000000
0.91954942 0.27651257 0.27991563
0.91185066 0.19662343 0.29248458
0.00000000 1.03050106 0.00000000
0.00000000 1.03041079 0.00000000
0.08574056 1.02774359 0.00000000
0.88183970 0.96142103 0.23072187
0.93248226 0.54509025 0.27126380
0.60412227 1.02078008 0.73088123
0.63367859 1.01959852 0.74206444
0.71788755 1.01519283 0.75469922
0.84989480 0.99346195 0.77574056
0.91637201 0.97202636 0.23797832
0.17757195 0.04298178 0.47728984
0.18468425 0.04282048 0.47692191
0.67935125 0.05105659 0.53750991
0.91466262 0.19725297 0.46567013
0.91185066 0.19662343 0.29248458
0.17742265 0.04280495 0.47550364
0.17933044 0.04273083 0.47508476
0.67758394 0.05088964 0.53749058
0.91467915 0.19725939 0.46659688
0.91185066 0.19662343 0.29248458
0.00000000 0.54985819 0.49730061
0.00000000 0.54449376 0.49596486
0.57899489 0.49459440 0.46840686
0.91876283 0.28559083 0.48098550
0.91185066 0.19662343 0.29248458
0.00000000 1.02452939 0.40261762
0.00000000 1.02433049 0.40179289
0.09611622 1.01967808 0.44923284
0.87000187 0.95839770 0.56670087
0.93251927 0.54565264 0.27126728
0.59568927 1.02073571 0.74808446
0.62576709 1.01950634 0.75805180
0.72400007 1.01435935 0.78647893
0.84691555 0.99546780 0.80372102
0.91001152 0.98014350 0.60053760
0.23010922 0.10063531 0.85215652
0.23013318 0.10065683 0.85220996
0.64214061 0.07983002 0.86390096
0.92406391 0.20243927 0.78722074
0.92316596 0.20164323 0.75296214
0.22980538 0.10035925 0.85145402
0.22983957 0.10039045 0.85153351
0.63133521 0.08048822 0.86298405
0.92406510 0.20244026 0.78726004
0.92316889 0.20164548 0.75303209
0.08922819 0.44211061 0.87493416
0.09553897 0.43724753 0.87472121
0.54656944 0.40122503 0.87773200
0.92452253 0.23024495 0.78671034
0.92318475 0.20165744 0.75355138
0.00000000 0.98905205 0.77819013
0.00000000 0.98856741 0.77869336
0.00000000 0.98384424 0.78321802
0.84865559 0.96009718 0.85408250
0.92651749 0.59520503 0.79236336
0.56957746 1.02036353 0.80718212
0.60105863 1.01911924 0.81304082
0.72327249 1.01306610 0.84075793
0.84031994 0.99850566 0.84950972
0.89306324 0.99493957 0.84799744
0.13691072 0.50131412 0.90362255
0.13981934 0.49675946 0.90341654
0.54598297 0.50091311 0.90734836
0.92412666 0.23847746 0.81082440
0.92474292 0.20301197 0.80815535
0.10740286 0.53241088 0.90475564
0.11139341 0.52870914 0.90464616
0.53551947 0.54381420 0.90743848
0.92492186 0.27883178 0.81418201
0.92474292 0.20301197 0.80815535
0.00000000 0.69080496 0.90334889
0.00000000 0.68867753 0.90345468
0.45532781 0.70201285 0.90182225
0.91336413 0.67315650 0.84813549
0.92474292 0.20301197 0.80815535
0.00000000 0.98520443 0.84188329
0.00000000 0.98472553 0.84235326
0.00530884 0.97952690 0.84582049
0.84386567 0.96426916 0.87376861
0.91967199 0.75977291 0.85538418
0.59368397 1.01878799 0.83714589
0.61777690 1.01781414 0.84093253
0.72871635 1.01182793 0.85730119
0.83983363 0.99694427 0.86390557
0.88860130 0.99378593 0.86830753
