public/luts/FOREST_SLOG3_27.RAS-FX6-2111.cube
TITLE "Generated by Resolve"
LUT_3D_SIZE 9
0.00677501 0.00643931 0.00648508
0.0129244 0.00654612 0.00588998
0.0452277 0.00830091 0.00575265
0.158953 0.00581369 0.00270085
0.379736 0 0
0.57673 0 0
0.582727 0 0
0.582727 0 0
0.582727 0 0
0.00668345 0.0155489 0.0109712
0.00894179 0.0124819 0.00891127
0.0365759 0.0100862 0.00631724
0.150591 0.00630198 0.00303655
0.372839 0 0
0.57351 0 0
0.582727 0 0
0.582727 0 0
0.582727 0 0
0.0011902 0.0520027 0.0266728
0.00148013 0.0490578 0.025452
0.0284276 0.04448 0.0169528
0.1393 0.040177 0.00802625
0.362249 0 0
0.568536 0 0
0.582727 0 0
0.582727 0 0
0.582727 0 0
0 0.134737 0.0846723
0 0.132357 0.0826886
0 0.12874 0.0796674
0.110719 0.129885 0.0413977
0.349935 0.118105 0.00122072
0.58201 0 0
0.584497 0 0
0.581918 0 0
0.582818 0 0
0 0.273167 0.197192
0 0.271321 0.195773
0 0.268788 0.19382
0 0.257771 0.169253
0.279561 0.285863 0.0884871
0.626184 0.241352 0
0.695109 0.142763 0
0.687846 0.125338 0
0.685008 0.117281 0
0 0.452842 0.345708
0 0.451484 0.344656
0 0.449302 0.343023
0 0.443366 0.337819
0 0.475334 0.280446
0.533181 0.536675 0.143709
0.818616 0.458351 0
0.8112 0.436667 0
0.808576 0.428946 0
0 0.502647 0.392065
0 0.502647 0.392065
0 0.502647 0.392065
0 0.502647 0.392065
0 0.506081 0.381506
0.0447852 0.648325 0.339605
0.775525 0.743542 0.147311
0.881727 0.744976 0.00259403
0.881727 0.744976 0.00259403
0 0.502647 0.392065
0 0.502647 0.392065
0 0.502647 0.392065
0 0.502647 0.392065
0 0.502647 0.392065
0.00430304 0.628031 0.349966
0.686717 0.735744 0.211322
0.881727 0.744976 0.00259403
0.881727 0.744976 0.00259403
0 0.502647 0.392065
0 0.502647 0.392065
0 0.502647 0.392065
0 0.502647 0.392065
0 0.502647 0.392065
0 0.620066 0.353292
0.650416 0.731594 0.228702
0.881727 0.744976 0.00259403
0.881727 0.744976 0.00259403
0.00611887 0.00704967 0.0117342
0.0118257 0.00700389 0.00936904
0.04448 0.00842298 0.00808728
0.158938 0.00581369 0.0039826
0.378607 0 0
0.576272 0 0
0.582727 0 0
0.582727 0 0
0.582727 0 0
0.00628672 0.0119936 0.0115053
0.00773632 0.00907912 0.00914015
0.0344244 0.00779736 0.00666819
0.14931 0.00637827 0.00309758
0.371908 0 0
0.573037 0 0
0.582727 0 0
0.582727 0 0
0.582727 0 0
0.00158694 0.0479744 0.0250248
0.00192264 0.0446937 0.0236362
0.0271305 0.0406348 0.0160678
0.137423 0.0355535 0.00749218
0.361318 0 0
0.567987 0 0
0.582727 0 0
0.582727 0 0
0.582727 0 0
0 0.131594 0.082063
0 0.129046 0.079942
0 0.125612 0.0770886
0.109636 0.127001 0.0400549
0.347494 0.114061 0.00111391
0.578744 0 0
0.582208 0 0
0.5823 0 0
0.582727 0 0
0 0.271015 0.19556
0 0.26894 0.193912
0 0.266377 0.191928
0 0.255344 0.168276
0.278157 0.282673 0.0869612
0.623774 0.237751 0
0.693446 0.138796 0
0.686183 0.120684 0
0.683375 0.112581 0
0 0.450965 0.344274
0 0.449607 0.343252
0 0.447639 0.341741
0 0.441444 0.336034
0 0.472755 0.27837
0.531884 0.532616 0.141833
0.816953 0.453635 0
0.809796 0.432425 0
0.806836 0.423697 0
0 0.502647 0.392065
0 0.502647 0.392065
0 0.502647 0.392065
0 0.502647 0.392065
0 0.505653 0.381826
0.0436713 0.647761 0.339895
0.772595 0.743404 0.150088
0.881727 0.744976 0.00259403
0.881636 0.744549 0.00259403
0 0.502647 0.392065
0 0.502647 0.392065
0 0.502647 0.392065
0 0.502647 0.392065
0 0.502647 0.392065
0.00318914 0.627466 0.350271
0.684031 0.735576 0.213092
0.881727 0.744976 0.00259403
0.881727 0.744976 0.00259403
0 0.502647 0.392065
0 0.502647 0.392065
0 0.502647 0.392065
0 0.502647 0.392065
0 0.502647 0.392065
0 0.619593 0.353491
0.647776 0.731273 0.229892
0.881727 0.744976 0.00259403
0.881727 0.744976 0.00259403
0.00349432 0.00880446 0.0475319
0.00875868 0.0083772 0.0387274
0.0427863 0.00910964 0.0297704
0.158099 0.00646983 0.0208896
0.380774 0 0.00282292
0.577127 0 0
0.583597 0 0
0.583246 0 0
0.583093 0 0
0.00357061 0.00943008 0.0432136
0.00448615 0.00833143 0.0403143
0.0332647 0.00885023 0.0271763
0.150088 0.0069276 0.0191653
0.372656 0 0.0019379
0.573663 0 0
0.583352 0 0
0.58294 0 0
0.582742 0 0
3.0518e-05 0.0500343 0.0594949
7.62951e-05 0.0467689 0.0568093
0.0209354 0.0381781 0.0390478
0.137118 0.0285954 0.0220035
0.360464 0 0.000213626
0.568154 0 0
0.582864 0 0
0.582727 0 0
0.582727 0 0
0 0.130877 0.0881208
0 0.128252 0.085832
0 0.124743 0.0828107
0.106355 0.12108 0.0424811
0.345815 0.105867 0.000747692
0.573938 0 0
0.581338 0 0
0.582727 0 0
0.582727 0 0
0 0.267475 0.192767
0 0.265385 0.191104
0 0.262669 0.189014
0 0.251301 0.166461
0.276158 0.278645 0.0850996
0.620768 0.233524 0
0.690837 0.132631 0
0.683635 0.113054 0
0.68072 0.104387 0
0 0.448264 0.342199
0 0.44686 0.341054
0 0.444602 0.338964
0 0.438621 0.333394
0 0.46894 0.275334
0.530068 0.526528 0.138888
0.814343 0.445899 0
0.807172 0.424964 0
0.804471 0.416983 0
0 0.502647 0.392065
0 0.502647 0.392065
0 0.502647 0.392065
0 0.502647 0.392065
0 0.505058 0.3823
0.0418097 0.64683 0.340398
0.769436 0.74316 0.152941
0.881727 0.744976 0.00259403
0.881315 0.739178 0.00131228
0 0.502647 0.392065
0 0.502647 0.392065
0 0.502647 0.392065
0 0.502647 0.392065
0 0.502647 0.392065
0.00148013 0.626581 0.350637
0.680461 0.735286 0.215244
0.881727 0.744976 0.00259403
0.881727 0.744976 0.00259403
0 0.502647 0.392065
0 0.502647 0.392065
0 0.502647 0.392065
0 0.502647 0.392065
0 0.502647 0.392065
0 0.618662 0.353887
0.643992 0.730724 0.231495
0.881727 0.744976 0.00259403
0.881727 0.744976 0.00259403
0.000762951 0.0149844 0.128038
0.000991836 0.0149691 0.130922
0.0335699 0.0141451 0.117662
0.153872 0.0124819 0.102144
0.384024 0 0.0735027
0.586572 0 0.00981155
0.593927 0 0.00128176
0.593484 0 0.00108339
0.593301 0 0.0010071
0.000854505 0.0146792 0.125551
0.000885023 0.0146181 0.124987
0.0245975 0.0138705 0.116945
0.144945 0.0127413 0.100114
0.376486 0 0.071809
0.583413 0 0.00993362
0.593606 0 0.00112917
0.59321 0 0.0009308
0.592981 0 0.000854505
0 0.0385748 0.136843
0 0.0345922 0.134142
0.00929274 0.0243534 0.118044
0.130724 0.0132296 0.0967422
0.363638 0 0.0687114
0.577905 0 0.00959792
0.593088 0 0.000915541
0.592676 0 0.000686656
0.592493 0 0.000610361
0 0.135042 0.168978
0 0.132815 0.167376
0 0.129351 0.164706
0.0908675 0.122621 0.130144
0.344564 0.0959793 0.0877241
0.568505 0 0.00665293
0.591592 0 0.000228885
0.591058 0 0
0.590845 0 0
0 0.265599 0.213718
0 0.263691 0.212207
0 0.26096 0.209766
0 0.246769 0.191562
0.276661 0.276921 0.140078
0.621012 0.223011 0.0209964
0.686778 0.106645 0
0.678569 0.0821546 0
0.675364 0.0724193 0
0 0.44126 0.336431
0 0.439796 0.334997
0 0.437659 0.333028
0 0.431693 0.327413
0 0.461295 0.267918
0.530846 0.513008 0.12987
0.807523 0.425681 0
0.800519 0.405524 0
0.797955 0.398367 0
0 0.502647 0.392065
0 0.502647 0.392065
0 0.502647 0.392065
0 0.502647 0.392065
0 0.503914 0.383886
0.0369879 0.644358 0.341604
0.758724 0.742306 0.16257
0.880369 0.729015 0.000183108
0.879164 0.72018 0
0 0.502647 0.392065
0 0.502647 0.392065
0 0.502647 0.392065
0 0.502647 0.392065
0 0.502647 0.392065
0 0.624262 0.351705
0.670527 0.734005 0.219608
0.881727 0.744976 0.00259403
0.881727 0.744976 0.00259403
0 0.502647 0.392065
0 0.502647 0.392065
0 0.502647 0.392065
0 0.502647 0.392065
0 0.502647 0.392065
0 0.616236 0.354726
0.633188 0.72961 0.236591
0.881697 0.744869 0.00259403
0.881727 0.744976 0.00259403
0 0.0294804 0.244129
0 0.0294347 0.243809
0.0161135 0.0274357 0.246494
0.145571 0.0255741 0.237552
0.370718 0 0.20705
0.593866 0 0.121279
0.606348 0 0.101198
0.606134 0 0.0991531
0.606027 0 0.0982834
0 0.0292515 0.242649
0 0.0292058 0.242283
0.00547799 0.0272831 0.245838
0.13698 0.0259098 0.236301
0.362341 0 0.206195
0.59028 0 0.122759
0.60618 0 0.0996872
0.605951 0 0.0975204
0.605875 0 0.0968795
0 0.0288853 0.240314
0 0.0288853 0.240116
0 0.0270542 0.243
0.12398 0.0260929 0.234638
0.349325 0 0.204654
0.585046 0 0.124834
0.605859 0 0.097322
0.605692 0 0.09514
0.605676 0 0.094377
0 0.1187 0.278691
0 0.115755 0.277195
0 0.111635 0.27512
0.0597543 0.0973373 0.25243
0.326238 0.0445106 0.207874
0.56997 0 0.128679
0.605203 0 0.0907149
0.60502 0 0.0885328
0.604929 0 0.0876631
0 0.262303 0.317906
0 0.260456 0.316793
0 0.258091 0.31548
0 0.248539 0.308446
0.258457 0.27126 0.271595
0.612879 0.210636 0.194888
0.687449 0.0683604 0.11989
0.678889 0.0422522 0.112718
0.675959 0.0350805 0.110185
0 0.434989 0.369345
0 0.433692 0.36878
0 0.431952 0.368277
0 0.426596 0.365896
0 0.459892 0.351736
0.537499 0.513726 0.283391
0.810987 0.418189 0.156924
0.804288 0.397757 0.149966
0.801465 0.389334 0.146975
0 0.504189 0.393973
0 0.504173 0.393957
0 0.504173 0.393957
0 0.504204 0.393988
0 0.504799 0.386526
0.0768139 0.657603 0.353368
0.771481 0.730709 0.241749
0.884916 0.712093 0.159518
0.883818 0.704967 0.154253
0 0.504219 0.393973
0 0.504189 0.393957
0 0.504219 0.393973
0 0.504234 0.393973
0 0.504219 0.393973
0.0113832 0.633082 0.354116
0.684627 0.742596 0.249149
0.890043 0.761837 0.15378
0.889982 0.761486 0.149142
0 0.504234 0.393988
0 0.504234 0.393973
0 0.504189 0.393942
0 0.504219 0.393957
0 0.504219 0.393973
0 0.624323 0.356573
0.649424 0.73698 0.25388
0.876295 0.760067 0.147234
0.890074 0.759686 0.127886
0 0.051957 0.337713
0 0.0517891 0.337499
4.57771e-05 0.0450141 0.334966
0.143206 0.0345617 0.335531
0.34818 0 0.319188
0.594583 0 0.265553
0.616785 0 0.242527
0.616754 0 0.241032
0.616815 0 0.240391
0 0.0512856 0.336843
0 0.0512093 0.336751
0 0.0477302 0.335042
0.13463 0.0345769 0.334966
0.342 0.000335698 0.319387
0.590829 0 0.267201
0.616831 0 0.241352
0.616815 0 0.239857
0.6168 0 0.239322
0 0.0503853 0.335714
0 0.0502174 0.3355
0 0.0500038 0.33521
0.121416 0.0348821 0.334081
0.332769 0.0009308 0.319738
0.585122 0 0.269566
0.6168 0 0.239673
0.6168 0 0.238056
0.616663 0 0.237263
0 0.0767529 0.358648
0 0.0737926 0.356161
0 0.0688334 0.352026
0.0708934 0.0382391 0.334691
0.306508 0.00267033 0.320729
0.569665 0 0.274525
0.616373 0 0.233219
0.616251 0 0.231083
0.616175 0 0.230274
0 0.241108 0.430564
0 0.239597 0.429847
0 0.236728 0.428595
0 0.229297 0.42533
0.229923 0.24152 0.425284
0.587808 0.17023 0.363394
0.674159 0.00122072 0.266575
0.665644 0.000564584 0.256184
0.662272 0.00030518 0.252262
0 0.426062 0.469001
0 0.424445 0.468269
0 0.422156 0.467277
0 0.415839 0.464485
0 0.444739 0.464775
0.520638 0.489662 0.440421
0.790021 0.394934 0.349187
0.790753 0.364096 0.331319
0.78822 0.356451 0.327794
0 0.520226 0.473365
0 0.520088 0.472892
0 0.520043 0.472435
0 0.519844 0.471412
0 0.517754 0.477958
0.122087 0.672312 0.494728
0.755673 0.716182 0.433143
0.874296 0.689891 0.381643
0.872755 0.68159 0.378576
0 0.518639 0.46511
0 0.518593 0.464912
0 0.518441 0.464271
0 0.518273 0.463081
0 0.517678 0.460166
0.000274662 0.66096 0.497169
0.657008 0.776471 0.465599
0.873442 0.796643 0.411536
0.886366 0.796216 0.404349
0 0.517968 0.461784
0 0.517876 0.461265
0 0.517815 0.460899
0 0.517632 0.459785
0 0.517067 0.456977
0 0.650797 0.492424
0.622644 0.770748 0.466117
0.85359 0.795789 0.416785
0.886381 0.795804 0.400748
0 0.0950637 0.381018
0 0.0950637 0.381018
0 0.0950637 0.381018
0.116228 0.098497 0.393301
0.309819 0.0915999 0.392004
0.560281 0.00492866 0.356512
0.610117 0 0.344594
0.610742 0 0.342626
0.61088 0 0.341848
0 0.0950637 0.381018
0 0.0950637 0.381018
0 0.0950637 0.381018
0.107729 0.0984207 0.393133
0.303807 0.0923171 0.392447
0.553964 0.00663767 0.357671
0.610529 0 0.34316
0.611017 0 0.341192
0.611368 0 0.340307
0 0.0950637 0.381018
0 0.0950637 0.381018
0 0.0950637 0.381018
0.0919356 0.0982223 0.392447
0.2934 0.0931868 0.392889
0.544854 0.00918593 0.359243
0.61117 0 0.340856
0.611734 0 0.338857
0.611902 0 0.338079
0 0.0950637 0.381018
0 0.0950637 0.381018
0 0.0950637 0.381018
0.0345769 0.0977646 0.389944
0.266758 0.0938735 0.392798
0.524681 0.00923171 0.358999
0.612924 0 0.334569
0.613306 0 0.332616
0.613626 0 0.331807
0 0.214374 0.470054
0 0.21268 0.468849
0 0.210208 0.467063
0 0.202884 0.461799
0.214771 0.207553 0.476738
0.534783 0.151369 0.435798
0.653742 0.00610361 0.359213
0.646235 0.000915541 0.348867
0.643259 0.000381476 0.344717
0 0.400473 0.545007
0 0.398795 0.544305
0 0.396063 0.54313
0 0.387961 0.539757
0 0.420279 0.560433
0.497398 0.45716 0.572946
0.77261 0.368627 0.505531
0.781872 0.330159 0.479652
0.779385 0.322286 0.47599
0 0.531762 0.561822
0 0.530907 0.561746
0 0.529503 0.561471
0 0.525658 0.560357
0 0.51574 0.556603
0.175647 0.669322 0.608194
0.739055 0.69604 0.582208
0.86244 0.659922 0.536477
0.860487 0.649851 0.53286
0 0.534539 0.552361
0 0.534493 0.551965
0 0.534371 0.551446
0 0.534188 0.550027
0 0.533623 0.547051
0 0.684504 0.602945
0.634226 0.79527 0.606638
0.85481 0.808865 0.570993
0.883787 0.803571 0.557809
0 0.533989 0.549081
0 0.533898 0.548592
0 0.533822 0.548165
0 0.533578 0.546746
0 0.533089 0.543893
0 0.674113 0.596628
0.601328 0.789715 0.604593
0.832807 0.817945 0.575952
0.882933 0.818494 0.556527
0 0.0950637 0.381018
0 0.0950637 0.381018
0 0.0950637 0.381018
0.108125 0.0984512 0.393164
0.304311 0.0922713 0.392416
0.55436 0.00656138 0.357626
0.609873 0 0.345098
0.609873 0 0.345098
0.609873 0 0.345098
0 0.0950637 0.381018
0 0.0950637 0.381018
0 0.0950637 0.381018
0.0981308 0.0982834 0.392706
0.297353 0.0928817 0.392737
0.548104 0.00851453 0.358831
0.609873 0 0.345098
0.609873 0 0.345098
0.609873 0 0.345098
0 0.0950637 0.381018
0 0.0950637 0.381018
0 0.0950637 0.381018
0.081117 0.098146 0.392035
0.286961 0.0936751 0.393133
0.538964 0.0115816 0.360586
0.609873 0 0.345098
0.609873 0 0.345098
0.609873 0 0.345098
0 0.0950637 0.381018
0 0.0950637 0.381018
0 0.0950637 0.381018
0.0200961 0.0973831 0.389013
0.258549 0.0958724 0.394232
0.516197 0.0230564 0.365011
0.609873 0 0.345098
0.609873 0 0.345098
0.609873 0 0.345098
0 0.201968 0.461646
0 0.200214 0.46041
0 0.197726 0.45864
0 0.191546 0.454276
0.193591 0.196033 0.468833
0.498238 0.151797 0.437232
0.633494 0.0153506 0.371618
0.625483 0.00209049 0.362814
0.622553 0.000137331 0.359457
0 0.383429 0.564508
0 0.381765 0.563928
0 0.378851 0.562707
0 0.371664 0.55996
0 0.399939 0.58555
0.489143 0.429007 0.597406
0.754696 0.344839 0.534005
0.765026 0.307515 0.510552
0.761837 0.30016 0.507042
0 0.531228 0.606668
0 0.529915 0.606332
0 0.528099 0.60592
0 0.523186 0.604669
0 0.510445 0.60119
0.21059 0.661692 0.669718
0.732692 0.682857 0.651591
0.856168 0.634897 0.617151
0.85449 0.625742 0.614084
0 0.542779 0.60827
0 0.542718 0.60798
0 0.542596 0.607553
0 0.542397 0.606485
0 0.541924 0.604089
0 0.70045 0.66981
0.639933 0.794247 0.672618
0.846128 0.799069 0.646967
0.879026 0.789364 0.635706
0 0.542214 0.6056
0 0.542199 0.605386
0 0.542107 0.60499
0 0.541909 0.603922
0 0.541482 0.600977
0 0.690364 0.662409
0.599069 0.799649 0.672206
0.822705 0.827115 0.652903
0.880522 0.828565 0.639536
0 0.0950637 0.381018
0 0.0950637 0.381018
0 0.0950637 0.381018
0.104433 0.0983597 0.392981
0.301656 0.0925612 0.392584
0.552041 0.00730907 0.358129
0.609873 0 0.345098
0.609873 0 0.345098
0.609873 0 0.345098
0 0.0950637 0.381018
0 0.0950637 0.381018
0 0.0950637 0.381018
0.0942397 0.0982071 0.392523
0.295018 0.09308 0.392844
0.545998 0.00917067 0.359228
0.609873 0 0.345098
0.609873 0 0.345098
0.609873 0 0.345098
0 0.0950637 0.381018
0 0.0950637 0.381018
0 0.0950637 0.381018
0.0767681 0.098146 0.391897
0.284794 0.0938582 0.393225
0.536782 0.012314 0.360983
0.609873 0 0.345098
0.609873 0 0.345098
0.609873 0 0.345098
0 0.0950637 0.381018
0 0.0950637 0.381018
0 0.0950637 0.381018
0.0139773 0.0973678 0.388739
0.255909 0.0959793 0.394247
0.514183 0.0242161 0.365423
0.609873 0 0.345098
0.609873 0 0.345098
0.609873 0 0.345098
0 0.196887 0.458045
0 0.195377 0.456977
0 0.19321 0.455451
0 0.187152 0.451148
0.190249 0.190127 0.464866
0.492592 0.144594 0.432441
0.629358 0.00721752 0.367102
0.621439 0.000106813 0.358206
0.618341 0 0.354513
0 0.3776 0.562219
0 0.375906 0.561593
0 0.373739 0.5608
0 0.366354 0.557931
0 0.39237 0.582193
0.484871 0.419409 0.592706
0.749554 0.337057 0.530694
0.760876 0.298177 0.506111
0.757855 0.291234 0.5028
0 0.527413 0.605722
0 0.526177 0.605402
0 0.524376 0.604959
0 0.519615 0.603784
0 0.505333 0.599725
0.212451 0.654643 0.671672
0.728405 0.672602 0.658473
0.854368 0.622522 0.62536
0.852598 0.613306 0.623285
0 0.542962 0.60943
0 0.542962 0.60943
0 0.542962 0.60943
0 0.542962 0.60943
0 0.542962 0.60943
0 0.702663 0.683497
0.641077 0.792416 0.694667
0.842847 0.792996 0.672938
0.878065 0.783536 0.662501
0 0.542962 0.60943
0 0.542962 0.60943
0 0.542962 0.60943
0 0.542962 0.60943
0 0.542962 0.60943
0 0.693431 0.680171
0.595132 0.80293 0.700435
0.819135 0.830671 0.686427
0.880476 0.833021 0.673976
