public/luts/FOREST_SLOG3_27.RAS-FX6-2111.cube
TITLE "Generated by Resolve"
LUT_3D_SIZE 5
0.00677501 0.00643931 0.00648508
0.0452277 0.00830091 0.00575265
0.379736 0 0
0.582727 0 0
0.582727 0 0
0.0011902 0.0520027 0.0266728
0.0284276 0.04448 0.0169528
0.362249 0 0
0.582727 0 0
0.582727 0 0
0 0.273167 0.197192
0 0.268788 0.19382
0.279561 0.285863 0.0884871
0.695109 0.142763 0
0.685008 0.117281 0
0 0.502647 0.392065
0 0.502647 0.392065
0 0.506081 0.381506
0.775525 0.743542 0.147311
0.881727 0.744976 0.00259403
0 0.502647 0.392065
0 0.502647 0.392065
0 0.502647 0.392065
0.650416 0.731594 0.228702
0.881727 0.744976 0.00259403
0.00349432 0.00880446 0.0475319
0.0427863 0.00910964 0.0297704
0.380774 0 0.00282292
0.583597 0 0
0.583093 0 0
3.0518e-05 0.0500343 0.0594949
0.0209354 0.0381781 0.0390478
0.360464 0 0.000213626
0.582864 0 0
0.582727 0 0
0 0.267475 0.192767
0 0.262669 0.189014
0.276158 0.278645 0.0850996
0.690837 0.132631 0
0.68072 0.104387 0
0 0.502647 0.392065
0 0.502647 0.392065
0 0.505058 0.3823
0.769436 0.74316 0.152941
0.881315 0.739178 0.00131228
0 0.502647 0.392065
0 0.502647 0.392065
0 0.502647 0.392065
0.643992 0.730724 0.231495
0.881727 0.744976 0.00259403
0 0.0294804 0.244129
0.0161135 0.0274357 0.246494
0.370718 0 0.20705
0.606348 0 0.101198
0.606027 0 0.0982834
0 0.0288853 0.240314
0 0.0270542 0.243
0.349325 0 0.204654
0.605859 0 0.097322
0.605676 0 0.094377
0 0.262303 0.317906
0 0.258091 0.31548
0.258457 0.27126 0.271595
0.687449 0.0683604 0.11989
0.675959 0.0350805 0.110185
0 0.504189 0.393973
0 0.504173 0.393957
0 0.504799 0.386526
0.771481 0.730709 0.241749
0.883818 0.704967 0.154253
0 0.504234 0.393988
0 0.504189 0.393942
0 0.504219 0.393973
0.649424 0.73698 0.25388
0.890074 0.759686 0.127886
0 0.0950637 0.381018
0 0.0950637 0.381018
0.309819 0.0915999 0.392004
0.610117 0 0.344594
0.61088 0 0.341848
0 0.0950637 0.381018
0 0.0950637 0.381018
0.2934 0.0931868 0.392889
0.61117 0 0.340856
0.611902 0 0.338079
0 0.214374 0.470054
0 0.210208 0.467063
0.214771 0.207553 0.476738
0.653742 0.00610361 0.359213
0.643259 0.000381476 0.344717
0 0.531762 0.561822
0 0.529503 0.561471
0 0.51574 0.556603
0.739055 0.69604 0.582208
0.860487 0.649851 0.53286
0 0.533989 0.549081
0 0.533822 0.548165
0 0.533089 0.543893
0.601328 0.789715 0.604593
0.882933 0.818494 0.556527
0 0.0950637 0.381018
0 0.0950637 0.381018
0.301656 0.0925612 0.392584
0.609873 0 0.345098
0.609873 0 0.345098
0 0.0950637 0.381018
0 0.0950637 0.381018
0.284794 0.0938582 0.393225
0.609873 0 0.345098
0.609873 0 0.345098
0 0.196887 0.458045
0 0.19321 0.455451
0.190249 0.190127 0.464866
0.629358 0.00721752 0.367102
0.618341 0 0.354513
0 0.527413 0.605722
0 0.524376 0.604959
0 0.505333 0.599725
0.728405 0.672602 0.658473
0.852598 0.613306 0.623285
0 0.542962 0.60943
0 0.542962 0.60943
0 0.542962 0.60943
0.595132 0.80293 0.700435
0.880476 0.833021 0.673976
