public/luts/FOREST_SLOG3_27.RAS-FX6-2111.cube
TITLE "Generated by Resolve"
LUT_3D_SIZE 33
0.00677501 0.00643931 0.00648508
0.00677501 0.00643931 0.00648508
0.00703441 0.00634775 0.00634775
0.00967422 0.00621042 0.0059205
0.0129244 0.00654612 0.00588998
0.0165103 0.00688182 0.00588998
0.0211948 0.00715648 0.00581369
0.0307469 0.00758373 0.00572213
0.0452277 0.00830091 0.00575265
0.0649577 0.00898756 0.00567636
0.0901961 0.00914015 0.00527962
0.120867 0.00801099 0.00422675
0.158953 0.00581369 0.00270085
0.205921 0.0016022 0.000595102
0.255482 4.57771e-05 1.5259e-05
0.31107 0 0
0.379736 0 0
0.437858 0 0
0.493568 0 0
0.540352 0 0
0.57673 0 0
0.582727 0 0
0.582727 0 0
0.582727 0 0
0.582727 0 0
0.582727 0 0
0.582727 0 0
0.582727 0 0
0.582727 0 0
0.582727 0 0
0.582727 0 0
0.582727 0 0
0.582727 0 0
0.00677501 0.00643931 0.00648508
0.00677501 0.00643931 0.00648508
0.00677501 0.00643931 0.00648508
0.00856031 0.00616464 0.00598154
0.0118715 0.00640879 0.00587472
0.0150759 0.00680552 0.0059205
0.0200504 0.00709545 0.00582895
0.0290379 0.00749218 0.00573739
0.0430915 0.00819409 0.00573739
0.0624857 0.00894179 0.00570687
0.0879072 0.00923171 0.00537118
0.11841 0.00810254 0.0043183
0.156832 0.00596628 0.0027924
0.203845 0.00180056 0.000686656
0.25359 9.15541e-05 3.0518e-05
0.308919 0 0
0.377874 0 0
0.43679 0 0
0.492515 0 0
0.5393 0 0
0.575952 0 0
0.582727 0 0
0.582727 0 0
0.582727 0 0
0.582727 0 0
0.582727 0 0
0.582727 0 0
0.582727 0 0
0.582727 0 0
0.582727 0 0
0.582727 0 0
0.582727 0 0
0.582727 0 0
0.00677501 0.00643931 0.00648508
0.00677501 0.00643931 0.00648508
0.00677501 0.00643931 0.00648508
0.00769055 0.00619516 0.00610361
0.0107118 0.0062562 0.00585946
0.0139467 0.00668345 0.0059205
0.0188449 0.00701915 0.00585946
0.0272984 0.00743114 0.00575265
0.0406806 0.00807202 0.00572213
0.06009 0.00889601 0.00572213
0.0853437 0.00932326 0.00544747
0.116533 0.00819409 0.00437934
0.154711 0.00607309 0.0028687
0.201556 0.00199893 0.00077821
0.251896 0.000122072 4.57771e-05
0.307179 0 0
0.376013 0 0
0.435584 0 0
0.491188 0 0
0.538262 0 0
0.575158 0 0
0.582727 0 0
0.582727 0 0
0.582727 0 0
0.582727 0 0
0.582727 0 0
0.582727 0 0
0.582727 0 0
0.582727 0 0
0.582727 0 0
0.582727 0 0
0.582727 0 0
0.582727 0 0
0.00698863 0.0102388 0.00831617
0.00695811 0.00975052 0.00807202
0.0069276 0.00920119 0.00779736
0.007187 0.00849927 0.00733959
0.0099031 0.00767529 0.00650034
0.0131991 0.00723278 0.00610361
0.0177157 0.00721752 0.00593576
0.0254063 0.00733959 0.00576791
0.0382544 0.00793469 0.00570687
0.0576333 0.00885023 0.00575265
0.0829938 0.00935378 0.00550851
0.114488 0.00827039 0.00445563
0.152743 0.00619516 0.00296025
0.199649 0.00216678 0.000869764
0.250019 0.000167849 6.10361e-05
0.305013 0 0
0.374701 0 0
0.434073 0 0
0.490013 0 0
0.537316 0 0
0.574289 0 0
0.582727 0 0
0.582727 0 0
0.582727 0 0
0.582727 0 0
0.582727 0 0
0.582727 0 0
0.582727 0 0
0.582727 0 0
0.582727 0 0
0.582727 0 0
0.582727 0 0
0.582727 0 0
0.00668345 0.0155489 0.0109712
0.00672923 0.0149691 0.0106813
0.00675975 0.0143435 0.0103761
0.00680552 0.0137179 0.0100557
0.00894179 0.0124819 0.00891127
0.0126955 0.0116579 0.00802625
0.0169528 0.0104677 0.00717174
0.0239872 0.0103609 0.00677501
0.0365759 0.0100862 0.00631724
0.0558633 0.00962844 0.00584421
0.0809796 0.00932326 0.00553903
0.112276 0.00834669 0.00453193
0.150591 0.00630198 0.00303655
0.197559 0.00236515 0.000961318
0.248127 0.000213626 7.62951e-05
0.303075 0 0
0.372839 0 0
0.432883 0 0
0.48896 0 0
0.53637 0 0
0.57351 0 0
0.582727 0 0
0.582727 0 0
0.582727 0 0
0.582727 0 0
0.582727 0 0
0.582727 0 0
0.582727 0 0
0.582727 0 0
0.582727 0 0
0.582727 0 0
0.582727 0 0
0.582727 0 0
0.00598154 0.0212711 0.0137026
0.00607309 0.0205386 0.0133669
0.0061799 0.0198215 0.0130312
0.00628672 0.0190585 0.012665
0.00775158 0.0178531 0.0117037
0.0117494 0.0168612 0.0105745
0.0165713 0.0163272 0.00970474
0.0238041 0.0155032 0.00875868
0.0363775 0.014786 0.00790417
0.0556039 0.0136568 0.00700389
0.080827 0.0126192 0.00602731
0.110674 0.00950637 0.00469978
0.148455 0.00642405 0.00311284
0.195422 0.00251774 0.00105287
0.24625 0.000259403 7.62951e-05
0.301411 0 0
0.371176 0 0
0.431373 0 0
0.48777 0 0
0.535317 0 0
0.572717 0 0
0.582727 0 0
0.582727 0 0
0.582727 0 0
0.582727 0 0
0.582727 0 0
0.582727 0 0
0.582727 0 0
0.582727 0 0
0.582727 0 0
0.582727 0 0
0.582727 0 0
0.582727 0 0
0.00495918 0.027985 0.0167544
0.00512703 0.0271458 0.0164034
0.00527962 0.026276 0.0160372
0.00535592 0.0257115 0.0157778
0.0056611 0.024979 0.0153048
0.00935378 0.0240024 0.0136873
0.0148928 0.0233005 0.0123903
0.0228885 0.0225834 0.0112459
0.0355993 0.0216831 0.0101015
0.0546578 0.0205386 0.00892653
0.0792706 0.0196231 0.00772107
0.108949 0.0162509 0.00590524
0.144915 0.0112154 0.00370794
0.192782 0.00277714 0.00117494
0.243809 0.00030518 0.000106813
0.299229 0 0
0.368948 0 0
0.429709 0 0
0.486183 0 0
0.534066 0 0
0.571694 0 0
0.582727 0 0
0.582727 0 0
0.582727 0 0
0.582727 0 0
0.582727 0 0
0.582727 0 0
0.582727 0 0
0.582727 0 0
0.582727 0 0
0.582727 0 0
0.582727 0 0
0.582727 0 0
0.0028687 0.0385748 0.0211032
0.00299077 0.0379034 0.0208286
0.00315862 0.0371099 0.0205081
0.00331121 0.0363317 0.0201877
0.00344854 0.0356603 0.0198978
0.0055848 0.0344396 0.0185855
0.011429 0.0332189 0.016495
0.0197147 0.0322881 0.0145724
0.032578 0.0314031 0.0130465
0.0519265 0.0309758 0.0116579
0.0775158 0.0305791 0.00999466
0.106966 0.0283207 0.00807202
0.14197 0.0234379 0.00553903
0.185168 0.0139315 0.00224308
0.240192 0.00154116 0.000106813
0.296452 0 0
0.365972 0 0
0.427436 0 0
0.483848 0 0
0.532387 0 0
0.570352 0 0
0.582727 0 0
0.582727 0 0
0.582727 0 0
0.582727 0 0
0.582727 0 0
0.582727 0 0
0.582727 0 0
0.582727 0 0
0.582727 0 0
0.582727 0 0
0.582727 0 0
0.582727 0 0
0.0011902 0.0520027 0.0266728
0.00125124 0.0513313 0.0263981
0.00134279 0.0504921 0.0260471
0.00141909 0.0497292 0.0257267
0.00148013 0.0490578 0.025452
0.00157168 0.0481422 0.0250706
0.0056611 0.046128 0.022446
0.0153353 0.0450294 0.0195163
0.0284276 0.04448 0.0169528
0.0484779 0.0443885 0.0150149
0.0746471 0.0447547 0.013138
0.10518 0.0435187 0.0106661
0.1393 0.040177 0.00802625
0.182086 0.0331731 0.00440986
0.235859 0.0187381 0.000595102
0.29131 0.00109865 0
0.362249 0 0
0.42443 0 0
0.480919 0 0
0.53019 0 0
0.568536 0 0
0.582727 0 0
0.582727 0 0
0.582727 0 0
0.582727 0 0
0.582727 0 0
0.582727 0 0
0.582727 0 0
0.582727 0 0
0.582727 0 0
0.582727 0 0
0.582727 0 0
0.582727 0 0
0 0.0679332 0.0342412
0 0.067216 0.0337835
0 0.0664836 0.0332952
0 0.0655528 0.0327153
0 0.0648203 0.0322576
0 0.0640879 0.0317693
3.0518e-05 0.0630961 0.0310063
0.00689708 0.0613718 0.026566
0.0208133 0.0606394 0.0229191
0.0418708 0.0606699 0.0197147
0.06981 0.0612345 0.0171054
0.101961 0.060914 0.0142367
0.137728 0.0590829 0.0108949
0.18024 0.0554208 0.00721752
0.234409 0.0452583 0.00231937
0.291463 0.0250095 0
0.353079 0.00140383 0
0.416129 0 0
0.477073 0 0
0.527352 0 0
0.566094 0 0
0.582727 0 0
0.582727 0 0
0.582727 0 0
0.582727 0 0
0.582727 0 0
0.582727 0 0
0.582727 0 0
0.582727 0 0
0.582727 0 0
0.582727 0 0
0.582727 0 0
0.582727 0 0
0 0.0866865 0.0463569
0 0.0862593 0.0460822
0 0.0857252 0.0457313
0 0.0850996 0.0453346
0 0.0845655 0.0449683
0 0.0838483 0.0445258
0 0.0829938 0.0439612
0.000213626 0.0814069 0.0411536
0.00779736 0.0800946 0.0347601
0.0284123 0.0791638 0.0293278
0.0599527 0.0803998 0.0246586
0.0959487 0.080766 0.0200504
0.133883 0.0801709 0.015259
0.176806 0.0782025 0.0109865
0.231098 0.0729686 0.00552377
0.29044 0.0602274 0.000457771
0.351568 0.033402 0
0.419944 0.00198367 0
0.470817 0 0
0.521553 0 0
0.562936 0 0
0.582727 0 0
0.582727 0 0
0.582727 0 0
0.582727 0 0
0.582727 0 0
0.582727 0 0
0.582727 0 0
0.582727 0 0
0.582727 0 0
0.582727 0 0
0.582727 0 0
0.582727 0 0
0 0.10901 0.0636759
0 0.108522 0.0632792
0 0.107912 0.0627909
0 0.107286 0.0622873
0 0.10692 0.0619974
0 0.106172 0.0614023
0 0.10544 0.0608225
0 0.104448 0.060029
1.5259e-05 0.10219 0.0538643
0.00970474 0.101183 0.0455787
0.0423438 0.101518 0.0384375
0.0832532 0.103105 0.0317388
0.125994 0.103914 0.0252079
0.171923 0.10399 0.0187076
0.226368 0.101228 0.0111086
0.288808 0.0940108 0.00329595
0.350698 0.0781415 7.62951e-05
0.421988 0.0444953 0
0.480201 0.00582895 0
0.529717 0 0
0.563226 0 0
0.581353 0 0
0.582055 0 0
0.582727 0 0
0.582727 0 0
0.582727 0 0
0.582727 0 0
0.582727 0 0
0.582727 0 0
0.582727 0 0
0.582727 0 0
0.582727 0 0
0.582727 0 0
0 0.134737 0.0846723
0 0.133989 0.084062
0 0.133394 0.0835584
0 0.132799 0.0830549
0 0.132357 0.0826886
0 0.131441 0.0819104
0 0.130999 0.0815595
0 0.130114 0.080827
0 0.12874 0.0796674
0 0.125933 0.0693828
0.0112001 0.12491 0.0590372
0.0603799 0.127306 0.0503853
0.110719 0.129885 0.0413977
0.161196 0.131044 0.0319371
0.21709 0.130938 0.0216526
0.284092 0.127825 0.00965896
0.349935 0.118105 0.00122072
0.422965 0.097673 0
0.489052 0.0606088 0
0.542275 0.00714122 0
0.58201 0 0
0.598947 0 0
0.593423 0 0
0.588129 0 0
0.584497 0 0
0.581369 0 0
0.581399 0 0
0.581506 0 0
0.581918 0 0
0.582086 0 0
0.582391 0 0
0.582528 0 0
0.582818 0 0
0 0.163836 0.108919
0 0.163226 0.108431
0 0.16289 0.108125
0 0.162417 0.107729
0 0.161929 0.107317
0 0.161288 0.106783
0 0.160662 0.106264
0 0.159731 0.10547
0 0.158694 0.104616
0 0.157488 0.103593
0 0.153933 0.0871138
0.0175326 0.154894 0.0751507
0.0820325 0.158846 0.0639658
0.142824 0.161181 0.0517281
0.203113 0.161822 0.0382391
0.274311 0.161639 0.0225681
0.346075 0.156954 0.00729381
0.417609 0.144656 0.000167849
0.49575 0.121111 0
0.55285 0.0805676 0
0.599542 0.015671 0
0.622889 0 0
0.618875 0 0
0.614374 0 0
0.610239 0 0
0.606867 0 0
0.603983 0 0
0.601221 0 0
0.599222 0 0
0.597391 0 0
0.59646 0 0
0.595575 0 0
0.594888 0 0
0 0.196094 0.136248
0 0.195819 0.136065
0 0.195178 0.1355
0 0.194522 0.13492
0 0.194217 0.134691
0 0.193744 0.134279
0 0.193256 0.133883
0 0.192462 0.133181
0 0.191806 0.132601
0 0.190555 0.131563
0 0.186816 0.12549
0 0.185412 0.106416
0.0243534 0.18909 0.0925307
0.107851 0.194644 0.0785992
0.180346 0.196353 0.0626993
0.252811 0.197436 0.0440223
0.333333 0.195575 0.0222324
0.40885 0.188556 0.0030518
0.492515 0.173495 0
0.55903 0.146899 0
0.614878 0.102617 0
0.643565 0.03093 0
0.644251 0.00343328 0
0.640513 0.00140383 0
0.637217 0.00108339 0
0.634363 0.000793469 0
0.631861 0.000549325 0
0.629862 0.000366217 0
0.628199 0.000213626 0
0.626703 7.62951e-05 0
0.625849 0 0
0.625116 0 0
0.624659 0 0
0 0.232151 0.165103
0 0.231876 0.164935
0 0.231373 0.164538
0 0.230945 0.164157
0 0.230655 0.163958
0 0.230137 0.163531
0 0.229435 0.162966
0 0.228779 0.162463
0 0.228046 0.161852
0 0.226841 0.160891
0 0.224964 0.159426
0 0.219074 0.146502
0 0.221241 0.127642
0.0305333 0.22829 0.112047
0.141756 0.235935 0.0951705
0.225162 0.238483 0.0754406
0.311345 0.23946 0.0507362
0.396582 0.235431 0.0225528
0.482918 0.224826 0.000656138
0.559853 0.20415 0
0.622995 0.17464 0
0.663691 0.12665 0
0.672557 0.0802777 0
0.668635 0.0686961 0
0.665629 0.0594492 0
0.663035 0.052491 0
0.660853 0.0467231 0
0.659098 0.0419776 0
0.657588 0.0381628 0
0.65658 0.0353552 0
0.655573 0.0327916 0
0.654994 0.0313268 0
0.65449 0.030045 0
0 0.273167 0.197192
0 0.272801 0.196918
0 0.272267 0.196521
0 0.271916 0.196262
0 0.271321 0.195773
0 0.270939 0.195468
0 0.27042 0.195056
0 0.269566 0.194446
0 0.268788 0.19382
0 0.267674 0.192935
0 0.26598 0.191592
0 0.263676 0.189868
0 0.257771 0.169253
9.15541e-05 0.263371 0.150317
0.0582589 0.274037 0.13344
0.182406 0.281682 0.113024
0.279561 0.285863 0.0884871
0.375982 0.286381 0.056672
0.465644 0.279149 0.0185397
0.557458 0.265293 0
0.626184 0.241352 0
0.68043 0.20499 0
0.701015 0.157366 0
0.697841 0.149645 0
0.695109 0.142763 0
0.692607 0.136828 0
0.690654 0.132204 0
0.689158 0.128405 0
0.687846 0.125338 0
0.686824 0.122499 0
0.686091 0.120409 0
0.685466 0.118578 0
0.685008 0.117281 0
0 0.317174 0.232105
0 0.316808 0.231891
0 0.316197 0.231327
0 0.316167 0.231388
0 0.315526 0.230808
0 0.315175 0.230503
0 0.3149 0.230335
0 0.31368 0.229358
0 0.312871 0.228717
0 0.311711 0.227817
0 0.310216 0.226551
0 0.308141 0.224857
0 0.305882 0.223041
0 0.302754 0.192279
0 0.314656 0.174502
0.082826 0.327047 0.156115
0.225422 0.335073 0.133028
0.338537 0.339483 0.102754
0.438956 0.337774 0.0627451
0.540856 0.327337 0.0140383
0.621912 0.308446 0
0.690837 0.281987 0
0.725704 0.23653 0
0.727169 0.219226 0
0.724498 0.212757 0
0.722316 0.207828 0
0.720699 0.203937 0
0.719081 0.20029 0
0.717952 0.197726 0
0.716991 0.195346 0
0.716228 0.193637 0
0.715663 0.192355 0
0.715099 0.191058 0
0 0.367605 0.271717
0 0.367361 0.271504
0 0.366476 0.270741
0 0.366186 0.270573
0 0.36582 0.270298
0 0.365286 0.269886
0 0.364981 0.269581
0 0.363897 0.268788
0 0.36289 0.268055
0 0.361166 0.266697
0 0.359304 0.265263
0 0.357351 0.263798
0 0.354391 0.261509
0 0.345159 0.244053
0 0.354437 0.218708
0 0.372656 0.201541
0.120562 0.38706 0.180255
0.279377 0.397543 0.153124
0.403464 0.401694 0.116762
0.51043 0.396201 0.0666667
0.611185 0.381506 0.00894179
0.685985 0.357794 0
0.742306 0.325399 0
0.757748 0.292149 0
0.755322 0.286259 0
0.753017 0.280827 0
0.75108 0.276066 0
0.749737 0.272908 0
0.748486 0.269978 0
0.74789 0.26836 0
0.747021 0.266072 0
0.746456 0.264973 0
0.745983 0.263859 0
0 0.413809 0.310521
0 0.413672 0.310399
0 0.41326 0.310048
0 0.412848 0.309667
0 0.412436 0.3093
0 0.411902 0.308858
0 0.411627 0.308614
0 0.410941 0.308003
0 0.410101 0.307225
0 0.409155 0.306401
0 0.407523 0.304997
0 0.405753 0.303456
0 0.403525 0.301457
0 0.400931 0.299168
0 0.397482 0.271046
0 0.415457 0.248966
0.00793469 0.43621 0.229465
0.167147 0.451789 0.205035
0.338949 0.464057 0.173404
0.466728 0.466758 0.131151
0.587045 0.462165 0.0656901
0.675883 0.444389 0.00471504
0.749203 0.417426 0
0.786633 0.375662 0
0.785931 0.36495 0
0.783719 0.35874 0
0.78204 0.354192 0
0.780713 0.350408 0
0.779446 0.347494 0
0.778622 0.345235 0
0.77789 0.343435 0
0.777264 0.341863 0
0.776883 0.340948 0
0 0.452842 0.345708
0 0.452522 0.345464
0 0.452201 0.34519
0 0.451789 0.344915
0 0.451484 0.344656
0 0.451179 0.344442
0 0.450645 0.34403
0 0.450126 0.343633
0 0.449302 0.343023
0 0.448478 0.342382
0 0.447211 0.341375
0 0.445518 0.339818
0 0.443366 0.337819
0 0.440879 0.335485
0 0.437415 0.329686
0 0.44979 0.300237
0 0.475334 0.280446
0.0113222 0.500343 0.258473
0.210819 0.521004 0.229374
0.398703 0.535027 0.192172
0.533181 0.536675 0.143709
0.652781 0.530739 0.0721752
0.737789 0.513115 0.00468452
0.801648 0.484535 0
0.818616 0.458351 0
0.816083 0.451148 0
0.814084 0.445151 0
0.812421 0.440436 0
0.8112 0.436667 0
0.810315 0.434195 0
0.809445 0.431418 0
0.809018 0.430182 0
0.808576 0.428946 0
0 0.487083 0.375051
0 0.486778 0.374731
0 0.486458 0.374411
0 0.486198 0.374151
0 0.485878 0.373831
0 0.485634 0.373571
0 0.485313 0.373251
0 0.484794 0.372732
0 0.48423 0.372152
0 0.483406 0.371328
0 0.482444 0.370352
0 0.481178 0.36907
0 0.479652 0.367529
0 0.477791 0.365652
0 0.475639 0.36347
0 0.47628 0.347799
0 0.50016 0.329976
0 0.531243 0.313207
0.0059968 0.558251 0.287404
0.273182 0.583673 0.254627
0.457984 0.60087 0.2112
0.60293 0.607279 0.152026
0.711681 0.602319 0.0647898
0.795636 0.585061 0
0.844236 0.553429 0
0.844114 0.544366 0
0.842588 0.538872 0
0.841337 0.534096 0
0.840223 0.530144 0
0.839475 0.527367 0
0.838697 0.524834 0
0.838132 0.523003 0
0.837842 0.522087 0
0 0.502647 0.392065
0 0.502647 0.392065
0 0.502647 0.392065
0 0.502647 0.392065
0 0.502647 0.392065
0 0.502647 0.392065
0 0.502647 0.392065
0 0.502647 0.392065
0 0.502647 0.392065
0 0.502647 0.392065
0 0.502647 0.392065
0 0.502647 0.392065
0 0.502647 0.392065
0 0.502647 0.392065
0 0.502342 0.39173
0 0.50045 0.387396
0 0.514717 0.368444
0 0.546395 0.356359
0 0.584131 0.341131
0.0656901 0.616129 0.315221
0.343709 0.644877 0.279011
0.517082 0.66009 0.229786
0.661051 0.667048 0.164797
0.764141 0.662196 0.069337
0.842145 0.651576 0
0.8663 0.636484 0
0.864881 0.629953 0
0.863844 0.62533 0
0.862959 0.621332 0
0.862486 0.619013 0
0.861906 0.616266 0
0.861524 0.614359 0
0.861219 0.61355 0
0 0.502647 0.392065
0 0.502647 0.392065
0 0.502647 0.392065
0 0.502647 0.392065
0 0.502647 0.392065
0 0.502647 0.392065
0 0.502647 0.392065
0 0.502647 0.392065
0 0.502647 0.392065
0 0.502647 0.392065
0 0.502647 0.392065
0 0.502647 0.392065
0 0.502647 0.392065
0 0.502647 0.392065
0 0.502647 0.392065
0 0.502647 0.392065
0 0.511757 0.377768
0 0.540688 0.370962
0 0.58088 0.365515
0 0.619928 0.353445
0.112947 0.657053 0.334295
0.400031 0.69218 0.302235
0.579736 0.714382 0.24744
0.713848 0.722835 0.176165
0.815259 0.720043 0.0708019
0.875944 0.708629 0.000213626
0.876997 0.702998 0
0.876341 0.697932 0
0.875761 0.694499 0
0.875456 0.691722 0
0.875181 0.689784 0
0.874983 0.688167 0
0.874647 0.687068 0
0 0.502647 0.392065
0 0.502647 0.392065
0 0.502647 0.392065
0 0.502647 0.392065
0 0.502647 0.392065
0 0.502647 0.392065
0 0.502647 0.392065
0 0.502647 0.392065
0 0.502647 0.392065
0 0.502647 0.392065
0 0.502647 0.392065
0 0.502647 0.392065
0 0.502647 0.392065
0 0.502647 0.392065
0 0.502647 0.392065
0 0.502647 0.392065
0 0.506081 0.381506
0 0.532296 0.372137
0 0.571923 0.367193
0 0.611917 0.356466
0.0447852 0.648325 0.339605
0.344457 0.685298 0.31284
0.524514 0.714183 0.274571
0.668498 0.733944 0.220752
0.775525 0.743542 0.147311
0.857649 0.746563 0.0345769
0.881727 0.744976 0.00259403
0.881727 0.744976 0.00259403
0.881727 0.744976 0.00259403
0.881727 0.744976 0.00259403
0.881727 0.744976 0.00259403
0.881727 0.744976 0.00259403
0.881727 0.744976 0.00259403
0 0.502647 0.392065
0 0.502647 0.392065
0 0.502647 0.392065
0 0.502647 0.392065
0 0.502647 0.392065
0 0.502647 0.392065
0 0.502647 0.392065
0 0.502647 0.392065
0 0.502647 0.392065
0 0.502647 0.392065
0 0.502647 0.392065
0 0.502647 0.392065
0 0.502647 0.392065
0 0.502647 0.392065
0 0.502647 0.392065
0 0.502647 0.392065
0 0.503594 0.386465
0 0.527123 0.373419
0 0.563806 0.368048
0 0.605219 0.359304
0.0311894 0.641428 0.343053
0.30251 0.678737 0.319356
0.486351 0.708171 0.284733
0.637278 0.730098 0.234745
0.744854 0.741299 0.175174
0.832975 0.746456 0.0747234
0.881727 0.744976 0.00259403
0.881727 0.744976 0.00259403
0.881727 0.744976 0.00259403
0.881727 0.744976 0.00259403
0.881727 0.744976 0.00259403
0.881727 0.744976 0.00259403
0.881727 0.744976 0.00259403
0 0.502647 0.392065
0 0.502647 0.392065
0 0.502647 0.392065
0 0.502647 0.392065
0 0.502647 0.392065
0 0.502647 0.392065
0 0.502647 0.392065
0 0.502647 0.392065
0 0.502647 0.392065
0 0.502647 0.392065
0 0.502647 0.392065
0 0.502647 0.392065
0 0.502647 0.392065
0 0.502647 0.392065
0 0.502647 0.392065
0 0.502647 0.392065
0 0.50338 0.3906
0 0.522499 0.374517
0 0.557015 0.368841
0 0.599527 0.361196
0.0201267 0.635889 0.345892
0.258396 0.672908 0.324132
0.456535 0.703273 0.291859
0.611307 0.726986 0.246479
0.720317 0.738979 0.190585
0.812131 0.745892 0.10959
0.870024 0.745663 0.0178073
0.881727 0.744976 0.00259403
0.881727 0.744976 0.00259403
0.881727 0.744976 0.00259403
0.881727 0.744976 0.00259403
0.881727 0.744976 0.00259403
0.881727 0.744976 0.00259403
0 0.502647 0.392065
0 0.502647 0.392065
0 0.502647 0.392065
0 0.502647 0.392065
0 0.502647 0.392065
0 0.502647 0.392065
0 0.502647 0.392065
0 0.502647 0.392065
0 0.502647 0.392065
