public/luts/GLACIERS_SLOG3_6.RAS-FX6-3517.cube
TITLE "Generated by Resolve"
LUT_3D_SIZE 9
0.00657664 0.00683604 0.00756847
0.0138399 0.007187 0.00697337
0.0760967 0.0103914 0.00727855
0.251865 0.000946059 0.00169375
0.451392 0 0
0.559762 0 0
0.605829 0 0
0.606165 0 0
0.606165 0 0
0.00549325 0.0196536 0.0146944
0.00782788 0.0141604 0.0111849
0.0604105 0.0123293 0.00807202
0.239048 0.00187686 0.00225834
0.446677 0 0
0.557855 0 0
0.604669 0 0
0.606165 0 0
0.606165 0 0
0 0.0974289 0.057435
0 0.0905013 0.0522469
0.0441749 0.0841688 0.0330205
0.258213 0.0776837 0.0100862
0.440543 0 0
0.555245 0 0
0.602838 0 0
0.606165 0 0
0.606165 0 0
0 0.259632 0.188647
0 0.255039 0.185092
0 0.248676 0.180179
0.218692 0.261952 0.0909743
0.54728 0.237766 4.57771e-05
0.648249 0.115618 0
0.646342 0 0
0.606165 0 0
0.606165 0 0
0 0.433616 0.329717
0 0.432258 0.328481
0 0.43035 0.326696
0 0.42501 0.291814
0.519341 0.523888 0.140505
0.764248 0.492119 0
0.823224 0.445869 0
0.837095 0.402045 0
0.826108 0.373938 0
0 0.501701 0.391409
0 0.501289 0.390967
0 0.500816 0.390433
0 0.499321 0.388769
0.0940414 0.627375 0.314824
0.733623 0.691341 0.132357
0.855711 0.681697 0.000656138
0.914672 0.6654 0
0.917861 0.654841 0
0 0.512566 0.392615
0 0.5122 0.392782
0 0.512078 0.393164
0 0.511833 0.393927
0 0.570565 0.380346
0.659098 0.747662 0.242695
0.835004 0.759045 0.0954147
0.908537 0.754177 0.000518807
0.940642 0.748348 0
0 0.540444 0.38378
0 0.540444 0.38378
0 0.540444 0.38378
0 0.540444 0.38378
0 0.540444 0.38378
0.564492 0.759213 0.307225
0.788602 0.78822 0.202777
0.88687 0.790967 0.0814069
0.939254 0.789197 0.0114748
0 0.540444 0.38378
0 0.540444 0.38378
0 0.540444 0.38378
0 0.540444 0.38378
0 0.540444 0.38378
0.488563 0.745205 0.3252
0.750546 0.788952 0.236591
0.866514 0.80177 0.149706
0.921279 0.804868 0.0624704
0.00579843 0.00764477 0.014023
0.0123445 0.00781262 0.0117037
0.0741283 0.0105898 0.0107271
0.250721 0.00114443 0.00335698
0.450614 0 0
0.559518 0 0
0.605661 0 0
0.606165 0 0
0.606165 0 0
0.00683604 0.0115969 0.0132753
0.00708019 0.00915541 0.0102846
0.0548562 0.00978103 0.0081178
0.237003 0.00202945 0.00234989
0.445914 0 0
0.557595 0 0
0.604486 0 0
0.606165 0 0
0.606165 0 0
0 0.0882734 0.0509346
0 0.0815747 0.0469825
0.0414893 0.0744182 0.0297856
0.249958 0.0643473 0.00918593
0.439246 0 0
0.554986 0 0
0.602594 0 0
0.606165 0 0
0.606165 0 0
0 0.253437 0.183841
0 0.248676 0.180179
0 0.242741 0.175631
0.215183 0.254673 0.0875257
0.542748 0.228595 6.10361e-05
0.641535 0.0979324 0
0.637369 0 0
0.606165 0 0
0.606165 0 0
0 0.431815 0.328069
0 0.430472 0.326802
0 0.428779 0.325231
0 0.421881 0.291463
0.517311 0.519692 0.138781
0.76257 0.487572 0
0.821012 0.440391 0
0.834653 0.395422 0
0.82359 0.367712 0
0 0.501183 0.390845
0 0.500832 0.390433
0 0.500267 0.389822
0 0.498863 0.388281
0.0917678 0.625528 0.314382
0.732662 0.689662 0.131579
0.855039 0.680079 0.00062562
0.91371 0.663233 0
0.917281 0.652583 0
0 0.512154 0.392935
0 0.512078 0.393149
0 0.511986 0.393439
0 0.511772 0.39411
0 0.567788 0.380346
0.658152 0.746822 0.242298
0.83415 0.757992 0.0950332
0.907744 0.753048 0.000518807
0.94052 0.747158 0
0 0.540444 0.38378
0 0.540444 0.38378
0 0.540444 0.38378
0 0.540444 0.38378
0 0.540444 0.38378
0.56083 0.758434 0.308003
0.788022 0.787503 0.202136
0.886351 0.790143 0.0794995
0.938949 0.788449 0.010956
0 0.540444 0.38378
0 0.540444 0.38378
0 0.540444 0.38378
0 0.540444 0.38378
0 0.540444 0.38378
0.486046 0.744717 0.325719
0.749615 0.788861 0.237201
0.866117 0.801755 0.150347
0.920913 0.804837 0.0627756
0.00205997 0.0106508 0.0745098
0.00726329 0.0102388 0.0717021
0.0724956 0.0121767 0.0658274
0.255711 0.00180056 0.0581674
0.461646 0 0.0334325
0.569268 0 0.00624094
0.610895 0 0
0.607843 0 0
0.606165 0 0
0.00231937 0.0103609 0.0683146
0.00244144 0.0102235 0.0668345
0.0528573 0.0115206 0.0583963
0.241215 0.00299077 0.0505531
0.455436 0 0.0247196
0.565805 0 0.000961318
0.607706 0 0
0.606195 0 0
0.606165 0 0
0.0109102 0.0608072 0.0802014
0.0109255 0.0545663 0.0726024
0.0246433 0.07187 0.0930037
0.245701 0.052079 0.0620127
0.446586 0 0.0150149
0.560433 0 0
0.602899 0 0
0.606165 0 0
0.606165 0 0
0 0.231495 0.203555
0 0.227832 0.198169
0 0.222599 0.190646
0.206958 0.250645 0.125261
0.539895 0.217288 0.0155642
0.631724 0.0716564 0
0.62324 0 0
0.606165 0 0
0.606165 0 0
0 0.429343 0.325765
0 0.427878 0.324407
0 0.426184 0.32285
0 0.417441 0.290715
0.513741 0.513603 0.136599
0.760174 0.480659 0
0.81767 0.432471 0
0.831373 0.387152 0
0.819944 0.358557 0
0 0.500465 0.390066
0 0.499992 0.389517
0 0.499535 0.389013
0 0.498146 0.387442
0.0881971 0.623011 0.313954
0.73135 0.68716 0.130114
0.853941 0.677501 0.000579843
0.912261 0.660746 0
0.916365 0.649424 0
0 0.512016 0.393347
0 0.51194 0.393576
0 0.511894 0.393759
0 0.511635 0.394553
0 0.564233 0.380301
0.656672 0.745647 0.24181
0.83328 0.756512 0.0939498
0.906905 0.751568 0.000503548
0.940246 0.74551 0
0 0.540444 0.38378
0 0.540444 0.38378
0 0.540444 0.38378
0 0.540444 0.38378
0 0.540444 0.38378
0.555764 0.757382 0.309117
0.787091 0.786374 0.201266
0.88571 0.78912 0.0769665
0.938262 0.787182 0.00972
0 0.540444 0.38378
0 0.540444 0.38378
0 0.540444 0.38378
0 0.540444 0.38378
0 0.540444 0.38378
0.482872 0.744106 0.326375
0.748165 0.788663 0.23798
0.865568 0.801724 0.151125
0.920073 0.804776 0.0646067
0 0.0220035 0.181964
0 0.0212863 0.187839
0.0643473 0.0229953 0.196094
0.258396 0.0103914 0.19733
0.478492 0 0.177249
0.585611 0 0.150698
0.62797 0 0.129244
0.628656 0 0.121492
0.628168 0 0.115969
0 0.0215915 0.178698
0 0.0215 0.17792
0.0414893 0.0220493 0.191135
0.243412 0.0128328 0.193225
0.473228 0 0.173205
0.583459 0 0.146807
0.626535 0 0.125948
0.62829 0 0.117403
0.627726 0 0.111574
0 0.0563821 0.169833
0 0.0501106 0.176272
0.00553903 0.0380407 0.206165
0.221317 0.0154269 0.187427
0.465599 0 0.167346
0.580285 0 0.141299
0.62417 0 0.120806
0.627695 0 0.111391
0.627085 0 0.105058
0.0483558 0.181415 0.224994
0.0465553 0.176959 0.220188
0.04448 0.170794 0.213382
0.176852 0.2486 0.291127
0.535225 0.202518 0.235569
0.626184 0.00999466 0.164385
0.618082 0 0.105791
0.625986 0 0.0939345
0.625238 0 0.0865949
0 0.389319 0.391073
0 0.38674 0.388876
0 0.383703 0.385977
0 0.413947 0.388495
0.500725 0.528161 0.325704
0.758953 0.490654 0.235615
0.816678 0.435004 0.181994
0.830747 0.383948 0.142077
0.819242 0.351568 0.119783
0 0.497856 0.404562
0 0.497169 0.401648
0 0.496162 0.397772
0 0.493324 0.386954
0.0746777 0.615183 0.317021
0.728344 0.680476 0.133211
0.851347 0.670848 0.000457771
0.90866 0.652781 0
0.914122 0.641413 0
0 0.511727 0.394278
0 0.511666 0.394461
0 0.511543 0.394827
0 0.51133 0.395514
0 0.553918 0.380392
0.652491 0.742489 0.240711
0.830732 0.752789 0.0919051
0.904662 0.747616 0.000442512
0.939681 0.741131 0
0 0.540444 0.38378
0 0.540444 0.38378
0 0.540444 0.38378
0 0.540444 0.38378
0 0.539025 0.383978
0.543053 0.754742 0.311864
0.784817 0.783795 0.199283
0.884169 0.786313 0.069688
0.936629 0.784207 0.00720226
0 0.540444 0.38378
0 0.540444 0.38378
0 0.540444 0.38378
0 0.540444 0.38378
0 0.540444 0.38378
0.47393 0.742412 0.328206
0.744869 0.78822 0.239963
0.863539 0.801663 0.153948
0.918166 0.8047 0.0679637
0 0.0367742 0.285649
0 0.0367742 0.285512
0.0433356 0.0305638 0.301015
0.256229 0.014374 0.312245
0.478599 0 0.29546
0.595102 0 0.27097
0.637888 0 0.252033
0.640269 0 0.248585
0.639689 0 0.246754
0 0.0365911 0.28452
0 0.0365911 0.284382
0.0156558 0.030808 0.296727
0.239994 0.0169223 0.310964
0.474128 0 0.295476
0.593271 0 0.270741
0.636225 0 0.251347
0.639811 0 0.247227
0.639307 0 0.245487
0 0.0363775 0.282933
0 0.0363165 0.282689
0 0.0315404 0.288579
0.215473 0.0205844 0.30898
0.46775 0 0.295476
0.5906 0 0.270512
0.634058 0 0.250584
0.639292 0 0.245396
0.638926 0 0.243534
0 0.160143 0.271916
0 0.156161 0.271931
0 0.151064 0.272694
0.138445 0.184527 0.410971
0.502205 0.0873121 0.363516
0.583398 0 0.269718
0.629389 0 0.248447
0.638437 0 0.24004
0.638193 0 0.237949
0.216419 0.377096 0.411521
0.214343 0.374334 0.409552
0.210681 0.370413 0.406546
0.206928 0.363424 0.401038
0.481041 0.515923 0.50956
0.741115 0.469368 0.460578
0.799527 0.40676 0.423346
0.815839 0.351705 0.395727
0.803174 0.313298 0.382147
0.166583 0.565469 0.548623
0.165118 0.563973 0.547768
0.16231 0.561929 0.54641
0.153735 0.555596 0.542443
0.0581826 0.658732 0.567956
0.70811 0.721477 0.521065
0.83917 0.715023 0.485451
0.895796 0.695354 0.454139
0.904067 0.679362 0.441459
0 0.628122 0.586633
0 0.626871 0.585794
0 0.625132 0.584527
0 0.620508 0.581369
0 0.632212 0.577539
0.629328 0.783154 0.545281
0.816037 0.797726 0.503349
0.888319 0.792676 0.468894
0.925612 0.785809 0.444251
0 0.612863 0.588052
0 0.612085 0.587411
0 0.610574 0.586145
0 0.606119 0.58233
0 0.597559 0.574472
0.506188 0.791592 0.559228
0.769329 0.825467 0.514641
0.869001 0.829816 0.477028
0.920241 0.827466 0.445808
0 0.594141 0.570504
0 0.593576 0.569848
0 0.592676 0.568963
0 0.590372 0.566339
0 0.584558 0.560357
0.410193 0.776333 0.551156
0.724147 0.829755 0.516472
0.847059 0.844388 0.481544
0.902861 0.847868 0.453193
0 0.0620584 0.348928
0 0.0619821 0.348837
0.00288396 0.0601816 0.352895
0.238346 0.0612192 0.365011
0.463355 0.0158083 0.354589
0.588708 0 0.338964
0.649119 0 0.328679
0.65922 0 0.325902
0.659113 0 0.324956
0 0.0615854 0.348394
0 0.0615244 0.348287
0 0.0597086 0.348516
0.221897 0.0616617 0.364492
0.458457 0.0166018 0.354299
0.586297 0 0.338537
0.646937 0 0.328389
0.659113 0 0.325093
0.659068 0 0.324285
0 0.0609903 0.347677
0 0.0608835 0.347555
0 0.0607309 0.347356
0.19852 0.0612955 0.363165
0.451392 0.0173342 0.353719
0.582589 0 0.338186
0.643915 0 0.32784
0.659098 0 0.324178
0.659052 0 0.323293
0 0.101381 0.379812
0 0.0949569 0.375937
0 0.0888533 0.371695
0.130571 0.0749065 0.373205
0.425803 0.0198215 0.351949
0.572778 0 0.336751
0.63679 0 0.326253
0.659052 0 0.321843
0.658915 0 0.320867
0.0978256 0.350378 0.41442
0.092668 0.347616 0.412711
0.087068 0.342824 0.409796
0.0697948 0.331212 0.402869
0.459266 0.461967 0.586801
0.723186 0.398764 0.551934
0.774456 0.323766 0.509712
0.782025 0.250095 0.464836
0.76408 0.198886 0.439841
0.396826 0.550973 0.545602
0.396048 0.549462 0.544671
0.394903 0.54815 0.54374
0.389609 0.541695 0.539757
0.593164 0.658549 0.60412
0.699123 0.714427 0.63389
0.825071 0.701015 0.615213
0.882292 0.678416 0.596231
0.892805 0.659602 0.585275
0.465476 0.658579 0.60827
0.464942 0.657465 0.60763
0.463844 0.655543 0.606455
0.460304 0.651728 0.603845
0.518105 0.679316 0.618936
0.629343 0.789624 0.659281
0.805341 0.804593 0.640787
0.876692 0.797742 0.624857
0.915511 0.78883 0.610178
0.469368 0.73373 0.656199
0.468711 0.732372 0.655314
0.46772 0.730648 0.654169
0.464378 0.725093 0.650538
0.458045 0.714321 0.643412
0.53106 0.808164 0.675669
0.761639 0.837491 0.655726
0.856031 0.842588 0.639933
0.906645 0.841932 0.626291
0.437995 0.748272 0.668315
0.437537 0.748318 0.66836
0.435523 0.747646 0.667994
0.431739 0.747631 0.668025
0.42179 0.746044 0.66714
0.418585 0.802655 0.682612
0.712596 0.850004 0.667338
0.835843 0.863264 0.650339
0.889418 0.865553 0.637064
0 0.0945754 0.380621
0 0.0944991 0.38056
0 0.0942855 0.380392
0.213184 0.103212 0.399008
0.441382 0.0807965 0.389395
0.569589 0.0284886 0.372427
0.638453 0.00108339 0.360479
0.652583 0 0.357046
0.652888 0 0.356588
0 0.0940871 0.380209
0 0.0939956 0.380118
0 0.093843 0.37998
0.197192 0.102632 0.398138
0.435462 0.0814527 0.38938
0.567178 0.0288853 0.372381
0.636301 0.00117494 0.360265
0.652827 0 0.356741
0.652949 0 0.356008
0 0.0933852 0.379583
0 0.0932631 0.379477
0 0.0930648 0.379294
0.173114 0.101732 0.396811
0.426795 0.0820935 0.389349
0.563622 0.0290684 0.372152
0.633661 0.00132753 0.360128
0.652995 0 0.356054
0.653208 0 0.355505
0 0.0914473 0.377859
0 0.0913863 0.377798
0 0.0911879 0.37763
0.101244 0.0975662 0.392172
0.402319 0.0843824 0.389517
0.553994 0.0301823 0.371878
0.626398 0.00224308 0.359777
0.653483 0 0.354513
0.653758 0 0.353902
0 0.322637 0.437705
0 0.319341 0.436728
0 0.314275 0.434867
0 0.302312 0.431235
0.449989 0.399084 0.583978
0.684947 0.323674 0.532357
0.721431 0.248737 0.483192
0.731991 0.181567 0.438636
0.707454 0.123049 0.410864
0.379385 0.540322 0.545419
0.37705 0.53843 0.544259
0.374807 0.53608 0.54287
0.366918 0.530114 0.539422
0.540047 0.641169 0.605051
0.693645 0.698833 0.675349
0.82002 0.681636 0.655848
0.874876 0.652506 0.636683
0.885725 0.628382 0.625086
0.503456 0.650553 0.605447
0.502464 0.649516 0.604883
0.50016 0.647211 0.603723
0.494026 0.641413 0.600671
0.481071 0.629358 0.594049
0.761044 0.77792 0.6766
0.800626 0.797055 0.688243
0.871519 0.790005 0.673121
0.911452 0.779919 0.659297
0.57113 0.725902 0.651194
0.57116 0.724941 0.650477
0.56939 0.72311 0.649287
0.564736 0.718395 0.646143
0.555779 0.708537 0.639399
0.751736 0.822416 0.709682
0.761364 0.83711 0.704433
0.851133 0.841779 0.68925
0.901396 0.840894 0.676677
0.593164 0.763104 0.676204
0.591546 0.762737 0.675929
0.590921 0.762539 0.675822
0.589303 0.762173 0.675563
0.587366 0.76228 0.675639
0.694102 0.841474 0.728008
0.718563 0.852827 0.714366
0.829953 0.863478 0.699931
0.884077 0.865095 0.688151
0 0.119234 0.402396
0 0.119127 0.402289
0 0.11899 0.402182
0.187106 0.130068 0.421073
0.418021 0.12137 0.415595
0.55256 0.0866712 0.39736
0.625605 0.0473945 0.383291
0.644556 0.0349126 0.378958
0.644816 0.0334936 0.37847
0 0.118746 0.401968
0 0.118624 0.401862
0 0.118532 0.401755
0.170916 0.129046 0.419959
0.412665 0.121386 0.415595
0.55021 0.0866102 0.397284
0.623529 0.0476844 0.383337
0.644755 0.0335851 0.3785
0.644938 0.0324254 0.378103
0 0.11812 0.401404
0 0.117968 0.401266
0 0.11783 0.40116
0.147616 0.127596 0.418341
0.404669 0.12137 0.415534
0.546944 0.0869306 0.39733
0.620584 0.0477607 0.383291
0.645014 0.0326696 0.37818
0.645319 0.0307164 0.377508
0 0.116381 0.399878
0 0.11632 0.399817
0 0.116167 0.39968
0.0618448 0.122194 0.411948
0.381979 0.121904 0.415671
0.538323 0.0881208 0.397498
0.612741 0.0484627 0.383322
0.645624 0.0279393 0.376547
0.645945 0.0266728 0.376104
0 0.29752 0.472068
0 0.293706 0.470588
0 0.288899 0.469703
0 0.277348 0.467613
0.401068 0.335698 0.551614
0.602625 0.266331 0.505516
0.655421 0.194507 0.45745
0.675685 0.110018 0.407553
0.649195 0.0245365 0.374594
0.323705 0.530877 0.550469
0.321126 0.529473 0.549767
0.316518 0.526467 0.548302
0.306905 0.520439 0.545312
0.437858 0.625238 0.61915
0.694804 0.682887 0.699001
0.815229 0.655253 0.674647
0.866545 0.622843 0.648768
0.877516 0.597314 0.632456
0.493538 0.64213 0.604425
0.491844 0.640543 0.603571
0.489464 0.638422 0.602518
0.483284 0.633234 0.599802
0.468971 0.621469 0.593729
0.725368 0.772854 0.68687
0.797986 0.78938 0.717998
0.868238 0.781445 0.704448
0.907713 0.770352 0.691035
0.588952 0.717815 0.64715
0.587228 0.716335 0.646143
0.585504 0.71487 0.645243
0.581277 0.711238 0.642817
0.568307 0.700008 0.636072
0.798962 0.816922 0.705898
0.831891 0.832258 0.717418
0.848188 0.839826 0.722545
0.897902 0.837598 0.711986
0.636362 0.766552 0.679042
0.634852 0.765988 0.678645
0.636362 0.766552 0.679042
0.635096 0.76614 0.678767
0.629511 0.7608 0.674601
0.805737 0.842329 0.728527
0.822553 0.85742 0.738354
0.829389 0.86273 0.731609
0.881193 0.864027 0.721355
0 0.130098 0.411673
0 0.130098 0.411673
0 0.130098 0.411673
0.166278 0.142855 0.431205
0.404395 0.138964 0.428855
0.541405 0.116289 0.413428
0.61471 0.0844282 0.398199
0.637003 0.0746929 0.393851
0.637003 0.0746929 0.393851
0 0.130098 0.411673
0 0.130098 0.411673
0 0.130098 0.411673
0.14902 0.142184 0.430335
0.398718 0.139437 0.429282
0.538796 0.116701 0.413703
0.61236 0.0857252 0.398779
0.637003 0.0746929 0.393851
0.637003 0.0746929 0.393851
0 0.130098 0.411673
0 0.130098 0.411673
0 0.130098 0.411673
0.122377 0.140978 0.428809
0.390631 0.139956 0.429786
0.535378 0.11812 0.414603
0.608835 0.0873579 0.399481
0.637003 0.0746929 0.393851
0.637003 0.0746929 0.393851
0 0.130098 0.411673
0 0.130098 0.411673
0 0.130098 0.411673
0.0184787 0.135302 0.421302
0.368048 0.141863 0.431617
0.526268 0.120882 0.416373
0.598581 0.0926528 0.401755
0.637003 0.0746929 0.393851
0.637003 0.0746929 0.393851
0 0.279973 0.49749
0 0.276707 0.497154
0 0.271733 0.496345
0 0.258518 0.493996
0.348653 0.29601 0.530678
0.551705 0.230289 0.485634
0.605264 0.154208 0.435279
0.639124 0.0655375 0.390112
0.63949 0.0633402 0.389227
0.243351 0.524132 0.560204
0.237751 0.521798 0.558999
0.228779 0.51899 0.557824
0.207614 0.511925 0.554742
0.328634 0.61236 0.642725
0.693965 0.661036 0.696132
0.808179 0.630793 0.66807
0.85214 0.600137 0.642893
0.865293 0.57908 0.628321
0.469978 0.636896 0.606516
0.468269 0.635767 0.605951
0.466224 0.634119 0.605097
0.459312 0.629068 0.602579
0.440146 0.615625 0.596033
0.675196 0.770794 0.71516
0.798306 0.783398 0.735195
0.865705 0.773175 0.721996
0.904173 0.760433 0.70573
0.585992 0.713024 0.646326
0.583719 0.711345 0.645289
0.581689 0.709941 0.644419
0.576898 0.705821 0.641978
0.562036 0.694881 0.63563
0.787274 0.813458 0.706935
0.815457 0.831159 0.726101
0.847684 0.836973 0.741863
0.895445 0.833814 0.732937
0.653223 0.768841 0.681773
0.65272 0.768505 0.68162
0.653956 0.768902 0.681727
0.648203 0.76408 0.678157
0.635447 0.753017 0.670649
0.817136 0.836881 0.724498
0.853025 0.852796 0.736904
0.869184 0.858839 0.740414
0.879622 0.862837 0.742596
