public/luts/GLACIERS_SLOG3_6.RAS-FX6-3517.cube
TITLE "Generated by Resolve"
LUT_3D_SIZE 33
0.00657664 0.00683604 0.00756847
0.00657664 0.00683604 0.00756847
0.00657664 0.00683604 0.00756847
0.00862135 0.00669871 0.00703441
0.0138399 0.007187 0.00697337
0.020798 0.00773632 0.00695811
0.0312657 0.00831617 0.00694286
0.0496223 0.0093843 0.00720226
0.0760967 0.0103914 0.00727855
0.109377 0.0103609 0.00680552
0.149966 0.00936904 0.00573739
0.200046 0.00529488 0.00389105
0.251865 0.000946059 0.00169375
0.302617 0 0.000228885
0.360937 0 0
0.411002 0 0
0.451392 0 0
0.491585 0 0
0.520653 0 0
0.541955 0 0
0.559762 0 0
0.57554 0 0
0.586954 0 0
0.596735 0 0
0.605829 0 0
0.606165 0 0
0.606165 0 0
0.606165 0 0
0.606165 0 0
0.606165 0 0
0.606165 0 0
0.606165 0 0
0.606165 0 0
0.00657664 0.00683604 0.00756847
0.00657664 0.00683604 0.00756847
0.00657664 0.00683604 0.00756847
0.0075227 0.00666819 0.00717174
0.0123293 0.00700389 0.00694286
0.0187381 0.00758373 0.00695811
0.0280766 0.00814832 0.00695811
0.0456092 0.00914015 0.00712596
0.0716411 0.0102541 0.00729381
0.105211 0.0104372 0.00688182
0.145998 0.00949111 0.00585946
0.196246 0.00570687 0.00404364
0.248875 0.00115969 0.00183108
0.300221 0 0.000289921
0.358602 0 0
0.409552 0 0
0.450309 0 0
0.490623 0 0
0.519875 0 0
0.541451 0 0
0.55935 0 0
0.575097 0 0
0.586603 0 0
0.596414 0 0
0.605585 0 0
0.606165 0 0
0.606165 0 0
0.606165 0 0
0.606165 0 0
0.606165 0 0
0.606165 0 0
0.606165 0 0
0.606165 0 0
0.00657664 0.00683604 0.00756847
0.00657664 0.00683604 0.00756847
0.00657664 0.00683604 0.00756847
0.00682078 0.00671397 0.00738537
0.0106813 0.00683604 0.00694286
0.0164492 0.00741588 0.00697337
0.0245975 0.00796521 0.00694286
0.0411688 0.00886549 0.00704967
0.067155 0.0101472 0.00732433
0.100938 0.0105135 0.00697337
0.141863 0.00961318 0.00598154
0.192233 0.00613413 0.00421149
0.245762 0.00140383 0.00196841
0.297688 0 0.000350958
0.356252 0 0
0.407919 0 0
0.449104 0 0
0.489509 0 0
0.519219 0 0
0.540963 0 0
0.558907 0 0
0.574731 0 0
0.586145 0 0
0.596063 0 0
0.605264 0 0
0.606165 0 0
0.606165 0 0
0.606165 0 0
0.606165 0 0
0.606165 0 0
0.606165 0 0
0.606165 0 0
0.606165 0 0
0.00662242 0.00962844 0.00915541
0.00660716 0.00894179 0.00875868
0.00660716 0.00819409 0.00831617
0.0065919 0.00740063 0.0078584
0.00924697 0.00672923 0.00700389
0.0143587 0.00724804 0.00697337
0.0214542 0.0077821 0.00695811
0.0365759 0.00859083 0.00695811
0.0622568 0.0100099 0.00733959
0.0963607 0.0105745 0.00706493
0.13756 0.00973526 0.00610361
0.187961 0.00656138 0.00437934
0.242756 0.0016022 0.00209049
0.295171 0 0.000411994
0.353735 0 0
0.406287 0 0
0.448035 0 0
0.488563 0 0
0.518456 0 0
0.540383 0 0
0.558389 0 0
0.57435 0 0
0.585702 0 0
0.595758 0 0
0.604974 0 0
0.606165 0 0
0.606165 0 0
0.606165 0 0
0.606165 0 0
0.606165 0 0
0.606165 0 0
0.606165 0 0
0.606165 0 0
0.00549325 0.0196536 0.0146944
0.00578317 0.0181277 0.0138705
0.00602731 0.0166934 0.0130922
0.00611887 0.0156863 0.0125277
0.00782788 0.0141604 0.0111849
0.0140841 0.0133211 0.00994888
0.0214237 0.0127565 0.00926223
0.0360876 0.0120241 0.00848402
0.0604105 0.0123293 0.00807202
0.0918593 0.011017 0.00723278
0.132784 0.0099031 0.00624094
0.183139 0.00708019 0.00457771
0.239048 0.00187686 0.00225834
0.292409 0 0.000488289
0.351171 0 0
0.404456 0 0
0.446677 0 0
0.487449 0 0
0.517555 0 0
0.539788 0 0
0.557855 0 0
0.573877 0 0
0.585199 0 0
0.595361 0 0
0.604669 0 0
0.606165 0 0
0.606165 0 0
0.606165 0 0
0.606165 0 0
0.606165 0 0
0.606165 0 0
0.606165 0 0
0.606165 0 0
0.00291447 0.0330663 0.021561
0.00325017 0.0313878 0.0207828
0.00363165 0.0294194 0.019852
0.00401312 0.0275578 0.0189975
0.00489815 0.0257572 0.017731
0.0112459 0.0243076 0.0153353
0.0199283 0.023743 0.0137942
0.0363928 0.0234073 0.0126192
0.0630655 0.0229343 0.011368
0.0956436 0.0217441 0.00993362
0.134081 0.0179904 0.00802625
0.180743 0.0104219 0.00521859
0.235676 0.00210575 0.00239567
0.289494 0 0.000564584
0.348424 0 0
0.402472 0 0
0.445457 0 0
0.486351 0 0
0.516777 0 0
0.539193 0 0
0.557427 0 0
0.573404 0 0
0.584772 0 0
0.594995 0 0
0.604364 0 0
0.606165 0 0
0.606165 0 0
0.606165 0 0
0.606165 0 0
0.606165 0 0
0.606165 0 0
0.606165 0 0
0.606165 0 0
0.000595102 0.0483253 0.0289311
0.000671397 0.0463722 0.027924
0.000762951 0.0442359 0.0268711
0.00102235 0.042649 0.0260929
0.00137331 0.0408331 0.0252384
0.00643931 0.0382086 0.0220798
0.0159762 0.0374914 0.0196231
0.0332494 0.0368505 0.017258
0.0628824 0.0372168 0.0154879
0.0985885 0.036408 0.0133516
0.13753 0.0338293 0.0110781
0.185733 0.025391 0.00769055
0.239445 0.00993362 0.0034638
0.286763 0 0.00062562
0.345678 0 0
0.400656 0 0
0.444251 0 0
0.485084 0 0
0.515999 0 0
0.538613 0 0
0.556909 0 0
0.573037 0 0
0.584329 0 0
0.594675 0 0
0.604074 0 0
0.606165 0 0
0.606165 0 0
0.606165 0 0
0.606165 0 0
0.606165 0 0
0.606165 0 0
0.606165 0 0
0.606165 0 0
0 0.0708019 0.040589
0 0.0690776 0.0395666
0 0.0670329 0.0383459
3.0518e-05 0.0653849 0.0374762
9.15541e-05 0.0635233 0.0365301
0.000457771 0.0600748 0.0334478
0.00679026 0.0581064 0.0294347
0.0250401 0.057557 0.0256504
0.0574502 0.0583047 0.0221408
0.0981308 0.0591287 0.0189975
0.141283 0.057969 0.0158083
0.19089 0.0526284 0.0115816
0.249409 0.0385901 0.00630198
0.300191 0.0138399 0.00166323
0.348455 0 1.5259e-05
0.397955 0 0
0.442435 0 0
0.483665 0 0
0.514839 0 0
0.537713 0 0
0.556207 0 0
0.572351 0 0
0.583612 0 0
0.594171 0 0
0.603555 0 0
0.606165 0 0
0.606165 0 0
0.606165 0 0
0.606165 0 0
0.606165 0 0
0.606165 0 0
0.606165 0 0
0.606165 0 0
0 0.0974289 0.057435
0 0.0957046 0.0560311
0 0.0941024 0.0546883
0 0.0921187 0.053193
0 0.0905013 0.0522469
0 0.088777 0.0512245
0.000106813 0.0848707 0.0449989
0.00915541 0.0831617 0.0384527
0.0441749 0.0841688 0.0330205
0.0915389 0.0864424 0.027863
0.141482 0.0869612 0.0224765
0.195819 0.0844892 0.0170138
0.258213 0.0776837 0.0100862
0.314488 0.0593729 0.00349432
0.367559 0.0247959 0.000167849
0.412451 0.000244144 0
0.440543 0 0
0.481605 0 0
0.513283 0 0
0.536736 0 0
0.555245 0 0
0.571542 0 0
0.582818 0 0
0.593561 0 0
0.602838 0 0
0.606165 0 0
0.606165 0 0
0.606165 0 0
0.606165 0 0
0.606165 0 0
0.606165 0 0
0.606165 0 0
0.606165 0 0
0 0.130495 0.0848402
0 0.128527 0.0831922
0 0.127138 0.0820172
0 0.125139 0.0803235
0 0.123217 0.0787366
0 0.121614 0.077409
0 0.119753 0.0756085
9.15541e-05 0.114946 0.0627451
0.0142824 0.114046 0.0522774
0.0733501 0.116991 0.0431983
0.133364 0.120089 0.0343023
0.195148 0.120851 0.0251316
0.263523 0.118044 0.0150759
0.327794 0.109133 0.00640879
0.38349 0.0864424 0.000595102
0.43682 0.0479896 0
0.469764 0.00480659 0
0.490364 0 0
0.511345 0 0
0.535363 0 0
0.554131 0 0
0.570336 0 0
0.581781 0 0
0.592767 0 0
0.601892 0 0
0.606165 0 0
0.606165 0 0
0.606165 0 0
0.606165 0 0
0.606165 0 0
0.606165 0 0
0.606165 0 0
0.606165 0 0
0 0.170779 0.118563
0 0.169329 0.117372
0 0.16791 0.116197
0 0.166293 0.114855
0 0.164706 0.113542
0 0.163104 0.112215
0 0.161425 0.110811
0 0.155596 0.102403
0.000137331 0.151278 0.0850385
0.0270237 0.152773 0.0706951
0.11162 0.158145 0.0569924
0.184756 0.160678 0.0420691
0.261067 0.161654 0.0271763
0.335698 0.157504 0.0116732
0.398047 0.145388 0.00123598
0.458839 0.121706 0.000198367
0.499702 0.0831464 0
0.526864 0.0277714 0
0.542336 0 0
0.545449 0 0
0.55259 0 0
0.568856 0 0
0.580453 0 0
0.591745 0 0
0.600748 0 0
0.606165 0 0
0.606165 0 0
0.606165 0 0
0.606165 0 0
0.606165 0 0
0.606165 0 0
0.606165 0 0
0.606165 0 0
0 0.213764 0.15349
0 0.212604 0.152636
0 0.211231 0.151553
0 0.209918 0.150561
0 0.20856 0.149523
0 0.20705 0.148363
0 0.205692 0.147311
0 0.203845 0.145892
0 0.194583 0.12961
0.000213626 0.193439 0.1093
0.0543221 0.200519 0.0919966
0.16022 0.206867 0.073579
0.247288 0.21004 0.052781
0.334661 0.209735 0.0298772
0.407782 0.201801 0.00852979
0.474693 0.188083 0.00108339
0.526589 0.16437 6.10361e-05
0.560128 0.130236 0
0.583169 0.0863355 0
0.596689 0.0229191 0
0.597879 0.000854505 0
0.594003 0 0
0.589181 0 0
0.590326 0 0
0.599313 0 0
0.606165 0 0
0.606165 0 0
0.606165 0 0
0.606165 0 0
0.606165 0 0
0.606165 0 0
0.606165 0 0
0.606165 0 0
0 0.259632 0.188647
0 0.258564 0.187823
0 0.257496 0.186999
0 0.256245 0.186007
0 0.255039 0.185092
0 0.253956 0.184253
0 0.252735 0.183307
0 0.25098 0.181964
0 0.248676 0.180179
0 0.238849 0.157488
0.000595102 0.242542 0.135683
0.101961 0.254582 0.114946
0.218692 0.261952 0.0909743
0.322271 0.267155 0.0629282
0.408606 0.263462 0.0328069
0.485451 0.253544 0.00502022
0.54728 0.237766 4.57771e-05
0.588083 0.213352 0
0.618555 0.185428 0
0.639597 0.153628 0
0.648249 0.115618 0
0.651026 0.0668956 0
0.651225 0.0289311 0
0.649714 0.00173953 0
0.646342 0 0
0.640314 0 0
0.624537 0 0
0.610498 0 0
0.606165 0 0
0.606165 0 0
0.606165 0 0
0.606165 0 0
0.606165 0 0
0 0.3075 0.22623
0 0.306615 0.225498
0 0.30573 0.224765
0 0.304524 0.223789
0 0.30367 0.223102
0 0.302785 0.222385
0 0.301747 0.221546
0 0.300343 0.220401
0 0.298772 0.21912
0 0.29633 0.217136
0 0.288594 0.184253
0.0043183 0.300267 0.161074
0.157656 0.314961 0.137255
0.289219 0.324392 0.108019
0.398749 0.327855 0.0722362
0.485115 0.321721 0.0318608
0.560754 0.309712 0.00282292
0.610498 0.292241 0
0.647135 0.272679 0
0.674754 0.248692 0
0.689647 0.224521 0
0.69865 0.199344 0
0.703563 0.177203 0
0.706477 0.150866 0
0.707988 0.122576 0
0.707195 0.0893873 0
0.698711 0.0533913 0
0.688563 0.0186618 0
0.678996 0.00807202 0
0.669154 0.00184634 0
0.660136 0 0
0.651164 0 0
0.642161 0 0
0 0.35639 0.264881
0 0.355673 0.264332
0 0.354955 0.263798
0 0.354223 0.263249
0 0.353323 0.262547
0 0.352407 0.26186
0 0.351507 0.261158
0 0.350256 0.260227
0 0.348806 0.259129
0 0.346807 0.257603
0 0.337392 0.245472
0 0.340139 0.209598
0.0144808 0.362387 0.185489
0.224857 0.381628 0.15787
0.368887 0.392523 0.122606
0.471626 0.391241 0.0802014
0.562158 0.383993 0.0305791
0.624826 0.369894 0.00239567
0.666377 0.35259 0
0.700191 0.336751 0
0.72224 0.318486 0
0.735927 0.298161 0
0.743465 0.28159 0
0.749783 0.263462 0
0.755611 0.244999 0
0.758724 0.225879 0
0.756893 0.208545 0
0.750607 0.193927 0
0.744228 0.179049 0
0.73814 0.164843 0
0.732403 0.150851 0
0.726757 0.136065 0
0.721462 0.122271 0
0 0.400687 0.300343
0 0.400275 0.299977
0 0.399725 0.299489
0 0.399313 0.299153
0 0.398764 0.29868
0 0.398215 0.298192
0 0.397665 0.297734
0 0.396994 0.297139
0 0.395743 0.296071
0 0.394797 0.295247
0 0.393149 0.293812
0 0.38027 0.269337
0 0.399893 0.236088
0.0610513 0.428351 0.207736
0.305837 0.450111 0.175113
0.44387 0.458366 0.13402
0.548806 0.457816 0.0832532
0.630014 0.449439 0.0267491
0.67921 0.436332 0.00248722
0.718334 0.421332 0
0.747723 0.406714 0
0.766217 0.391318 0
0.77557 0.376669 0
0.784634 0.362341 0
0.79324 0.347799 0
0.799512 0.332937 0
0.803647 0.318517 0
0.799451 0.308629 0
0.795193 0.298497 0
0.791226 0.289052 0
0.787503 0.280308 0
0.783764 0.271412 0
0.78024 0.263203 0
0 0.433616 0.329717
0 0.43328 0.329427
0 0.432944 0.329091
0 0.432715 0.328908
0 0.432258 0.328481
0 0.431922 0.328176
0 0.431708 0.327962
0 0.431022 0.327321
0 0.43035 0.326696
0 0.429679 0.326085
0 0.428672 0.325139
0 0.427314 0.323903
0 0.42501 0.291814
0 0.463218 0.258686
0.161898 0.49749 0.225788
0.389151 0.517998 0.186297
0.519341 0.523888 0.140505
0.62182 0.522667 0.0861982
0.682063 0.514366 0.0336767
0.726879 0.503731 0.00294499
0.764248 0.492119 0
0.788525 0.480751 0
0.802213 0.470787 0
0.812848 0.459144 0
0.823224 0.445869 0
0.83299 0.433539 0
0.840436 0.420508 0
0.840101 0.410163 0
0.837095 0.402045 0
0.833997 0.393668 0
0.831189 0.386679 0
0.828519 0.37995 0
0.826108 0.373938 0
0 0.460761 0.35259
0 0.460548 0.352438
0 0.460334 0.352285
0 0.460029 0.352026
0 0.459815 0.351873
0 0.45951 0.351659
0 0.459297 0.351476
0 0.458762 0.351095
0 0.458244 0.350698
0 0.457725 0.350301
0 0.45687 0.34966
0 0.455833 0.348867
0 0.454459 0.347814
0 0.467155 0.3093
0.00303655 0.520272 0.276921
0.281315 0.559762 0.236957
0.467475 0.578607 0.191836
0.593469 0.585199 0.140581
0.671702 0.582345 0.0890669
0.725353 0.575967 0.0326696
0.767315 0.568185 0.00605783
0.798047 0.55816 3.0518e-05
0.817426 0.548608 0
0.83003 0.538979 0
0.842588 0.529763 0
0.854994 0.520821 0
0.865125 0.511315 0
0.872724 0.502174 0
0.870649 0.495903 0
0.868757 0.490379 0
0.866972 0.4851 0
0.865248 0.479759 0
0.863737 0.475456 0
0 0.480064 0.368704
0 0.479988 0.368627
0 0.479667 0.368277
0 0.479591 0.368215
0 0.479469 0.368109
0 0.479332 0.367971
0 0.479133 0.367758
0 0.478874 0.367514
0 0.478676 0.3673
0 0.478355 0.36701
0 0.477897 0.366537
0 0.477302 0.365942
0 0.476585 0.36524
0 0.473732 0.358907
0 0.518898 0.320134
0.0742351 0.573159 0.283543
0.398199 0.60856 0.237507
0.549035 0.623346 0.188952
0.650111 0.628702 0.139055
0.7131 0.627039 0.0853895
0.76141 0.623407 0.0343481
0.799939 0.618616 0.0033875
0.822995 0.613245 0.000610361
0.839979 0.605814 0
0.853742 0.596368 0
0.866941 0.588663 0
0.879225 0.580591 0
0.88983 0.572396 0
0.892683 0.566598 0
0.891356 0.562097 0
0.890059 0.557839 0
0.88896 0.55404 0
0.8878 0.55024 0
0 0.49247 0.38114
0 0.492363 0.381048
0 0.492256 0.380926
0 0.492164 0.380819
0 0.492058 0.380697
0 0.491951 0.380575
0 0.491844 0.380468
0 0.491691 0.38027
0 0.491478 0.380056
0 0.491234 0.379797
0 0.490913 0.379416
0 0.49044 0.378927
0 0.489784 0.378302
0 0.489067 0.377569
0 0.50338 0.35053
0 0.575936 0.321935
0.284092 0.625513 0.27892
0.498451 0.649897 0.229557
0.619944 0.661234 0.183688
0.696406 0.66331 0.135378
0.748074 0.660838 0.0838026
0.793515 0.659602 0.0292668
0.819226 0.656291 0.00967422
0.841062 0.652583 7.62951e-05
0.85771 0.648081 0
0.872786 0.642374 0
0.886427 0.635264 0
0.898344 0.628641 0
0.908766 0.622477 0
0.907866 0.619287 0
0.906874 0.615641 0
0.905943 0.612451 0
0.905135 0.609491 0
0 0.501701 0.391409
0 0.501595 0.391287
0 0.501488 0.391165
0 0.501396 0.391073
0 0.501289 0.390967
0 0.501244 0.390906
0 0.501091 0.390753
0 0.500984 0.390616
0 0.500816 0.390433
0 0.500511 0.390066
0 0.500221 0.389792
0 0.49984 0.389349
0 0.499321 0.388769
0 0.498756 0.388144
0 0.497536 0.385412
0 0.560998 0.349844
0.0940414 0.627375 0.314824
0.436698 0.667796 0.26772
0.580362 0.68426 0.220203
0.672221 0.690822 0.176516
0.733623 0.691341 0.132357
0.779644 0.689708 0.0843671
0.810391 0.688045 0.0457008
0.836576 0.68542 0.010605
0.855711 0.681697 0.000656138
0.872343 0.677852 4.57771e-05
0.888014 0.674327 0
0.903059 0.67071 0
0.914672 0.6654 0
0.919799 0.66154 0
0.919158 0.659113 0
0.918395 0.656703 0
0.917861 0.654841 0
0 0.506828 0.396521
0 0.506844 0.396551
0 0.506767 0.396506
0 0.506722 0.396414
0 0.506691 0.396384
0 0.506645 0.396384
0 0.506584 0.396292
0 0.506508 0.396231
0 0.506462 0.396201
0 0.506325 0.396078
0 0.506188 0.395972
0 0.50602 0.395804
0 0.505806 0.39559
0 0.505547 0.395361
0 0.505226 0.395056
0 0.531762 0.369268
0 0.619089 0.343618
0.353323 0.675425 0.300786
0.535058 0.700877 0.254948
0.645472 0.711833 0.21004
0.714382 0.715526 0.168688
0.766995 0.716136 0.123461
0.803937 0.715328 0.0828717
0.830365 0.713603 0.0405585
0.853483 0.711345 0.00839246
0.870069 0.707805 0.00262455
0.886534 0.704997 0
0.903029 0.702632 0
0.916503 0.699199 0
0.928801 0.695033 0
0.928466 0.692943 0
0.927932 0.690944 0
0.927443 0.689082 0
0 0.509972 0.399344
0 0.509941 0.399344
0 0.509896 0.399313
0 0.50985 0.399222
0 0.509804 0.399207
0 0.509758 0.399191
0 0.509728 0.399176
0 0.509636 0.399084
0 0.509544 0.398962
0 0.509453 0.398871
0 0.5093 0.398749
0 0.509133 0.398581
0 0.508904 0.398428
0 0.50869 0.398215
0 0.508309 0.397879
0 0.514748 0.38233
0 0.607584 0.361166
0.258915 0.672419 0.32372
0.493782 0.706813 0.280034
0.621881 0.723186 0.236042
0.698726 0.729442 0.194965
0.754025 0.732662 0.154894
0.793713 0.733822 0.113741
0.825254 0.733898 0.0695201
0.850248 0.733135 0.024506
0.868025 0.730358 0.009308
0.884352 0.727291 0
0.900649 0.724407 0
0.916136 0.721599 0
0.928496 0.718608 0
0.934371 0.716167 0
0.933928 0.714305 0
0.933532 0.712596 0
0 0.511116 0.39617
0 0.511116 0.396201
0 0.511101 0.396246
0 0.51107 0.396323
0 0.511055 0.396353
0 0.511055 0.396368
0 0.51104 0.396399
0 0.511009 0.396506
0 0.510964 0.396658
0 0.510948 0.396719
0 0.510887 0.396902
0 0.510842 0.39704
0 0.51075 0.39733
0 0.510658 0.397635
0 0.510536 0.398016
0 0.510399 0.398398
0 0.58909 0.375311
0.111254 0.665461 0.343938
0.446723 0.710002 0.303685
0.59176 0.7308 0.261097
0.681987 0.739773 0.219776
0.739849 0.743725 0.182177
0.780468 0.745785 0.145769
0.816434 0.747051 0.10631
0.84303 0.746197 0.0600748
0.864286 0.744854 0.026627
0.880827 0.743297 0.00674449
0.896956 0.741405 0.000381476
0.913008 0.739635 6.10361e-05
0.926406 0.737713 0
0.938827 0.735683 0
0.938613 0.734386 0
0.938415 0.733211 0
0 0.512566 0.392615
0 0.512337 0.392737
0 0.512184 0.392813
0 0.512184 0.392798
0 0.5122 0.392782
0 0.512123 0.392981
0 0.512123 0.393011
0 0.512123 0.393011
0 0.512078 0.393164
0 0.512047 0.393256
0 0.511986 0.393439
0 0.51191 0.393668
0 0.511833 0.393927
0 0.511727 0.394232
0 0.511635 0.394553
0 0.511482 0.395026
0 0.570565 0.380346
0.0328832 0.658854 0.358801
0.388739 0.709728 0.324529
0.555825 0.735058 0.282887
0.659098 0.747662 0.242695
0.724956 0.753491 0.205768
0.766995 0.756405 0.174655
0.805356 0.759091 0.141009
0.835004 0.759045 0.0954147
0.860288 0.758221 0.0523995
0.876738 0.756802 0.0219425
0.892699 0.755566 0.00138857
0.908537 0.754177 0.000518807
0.923018 0.752758 0
0.935363 0.750805 0
0.940917 0.749401 0
0.940642 0.748348 0
0 0.522713 0.388449
0 0.522515 0.388525
0 0.522347 0.388602
0 0.522332 0.388586
0 0.522072 0.388724
0 0.521874 0.3888
0 0.521782 0.388815
0 0.521569 0.388907
0 0.521233 0.389044
0 0.520836 0.389227
0 0.520287 0.389456
0 0.519738 0.389685
0 0.51902 0.390005
0 0.518151 0.390311
0 0.517006 0.390799
0 0.515633 0.391348
0 0.553796 0.382498
0 0.650431 0.370474
0.318212 0.70808 0.343389
0.516548 0.737682 0.303426
0.633127 0.753582 0.264057
0.707851 0.760937 0.2271
0.752407 0.764279 0.199023
0.791821 0.766842 0.16762
0.82475 0.768093 0.130297
0.852461 0.768078 0.0875257
0.87155 0.767147 0.0490272
0.887785 0.76614 0.0137331
0.90338 0.765438 0.0047303
0.918929 0.764828 0.000396735
0.931121 0.763653 0
0.942702 0.762676 0.000228885
0.942596 0.761868 0.000122072
0 0.53344 0.384741
0 0.533272 0.384756
0 0.533181 0.384771
0 0.532921 0.384802
0 0.532937 0.384802
0 0.532601 0.384848
0 0.532372 0.384878
0 0.532021 0.384939
0 0.531807 0.384955
0 0.531212 0.385046
0 0.530755 0.385107
0 0.530022 0.385351
0 0.529259 0.385687
0 0.528252 0.38613
0 0.527123 0.386603
0 0.52546 0.387289
0 0.539803 0.383963
0 0.641855 0.373816
0.27509 0.705165 0.352178
0.479698 0.737484 0.319142
0.60885 0.757839 0.28278
0.689082 0.767285 0.247929
0.736553 0.771267 0.220005
0.778317 0.774441 0.191684
0.814511 0.776684 0.16199
0.84303 0.776989 0.121477
0.865919 0.776593 0.0810864
0.882231 0.77528 0.0407874
0.897978 0.774334 0.0155184
0.9131 0.773587 0.00628672
0.926482 0.773007 0.0016022
0.938231 0.772137 0.00141909
0.943542 0.771481 0.00123598
0 0.540444 0.38378
0 0.540444 0.38378
0 0.540444 0.38378
0 0.540444 0.38378
0 0.540444 0.38378
0 0.540444 0.38378
0 0.540444 0.38378
0 0.540444 0.38378
0 0.540444 0.38378
