public/luts/GLACIERS_SLOG3_6.RAS-FX6-3517.cube
TITLE "Generated by Resolve"
LUT_3D_SIZE 5
0.00657664 0.00683604 0.00756847
0.0760967 0.0103914 0.00727855
0.451392 0 0
0.605829 0 0
0.606165 0 0
0 0.0974289 0.057435
0.0441749 0.0841688 0.0330205
0.440543 0 0
0.602838 0 0
0.606165 0 0
0 0.433616 0.329717
0 0.43035 0.326696
0.519341 0.523888 0.140505
0.823224 0.445869 0
0.826108 0.373938 0
0 0.512566 0.392615
0 0.512078 0.393164
0 0.570565 0.380346
0.835004 0.759045 0.0954147
0.940642 0.748348 0
0 0.540444 0.38378
0 0.540444 0.38378
0 0.540444 0.38378
0.750546 0.788952 0.236591
0.921279 0.804868 0.0624704
0.00205997 0.0106508 0.0745098
0.0724956 0.0121767 0.0658274
0.461646 0 0.0334325
0.610895 0 0
0.606165 0 0
0.0109102 0.0608072 0.0802014
0.0246433 0.07187 0.0930037
0.446586 0 0.0150149
0.602899 0 0
0.606165 0 0
0 0.429343 0.325765
0 0.426184 0.32285
0.513741 0.513603 0.136599
0.81767 0.432471 0
0.819944 0.358557 0
0 0.512016 0.393347
0 0.511894 0.393759
0 0.564233 0.380301
0.83328 0.756512 0.0939498
0.940246 0.74551 0
0 0.540444 0.38378
0 0.540444 0.38378
0 0.540444 0.38378
0.748165 0.788663 0.23798
0.920073 0.804776 0.0646067
0 0.0367742 0.285649
0.0433356 0.0305638 0.301015
0.478599 0 0.29546
0.637888 0 0.252033
0.639689 0 0.246754
0 0.0363775 0.282933
0 0.0315404 0.288579
0.46775 0 0.295476
0.634058 0 0.250584
0.638926 0 0.243534
0.216419 0.377096 0.411521
0.210681 0.370413 0.406546
0.481041 0.515923 0.50956
0.799527 0.40676 0.423346
0.803174 0.313298 0.382147
0 0.628122 0.586633
0 0.625132 0.584527
0 0.632212 0.577539
0.816037 0.797726 0.503349
0.925612 0.785809 0.444251
0 0.594141 0.570504
0 0.592676 0.568963
0 0.584558 0.560357
0.724147 0.829755 0.516472
0.902861 0.847868 0.453193
0 0.0945754 0.380621
0 0.0942855 0.380392
0.441382 0.0807965 0.389395
0.638453 0.00108339 0.360479
0.652888 0 0.356588
0 0.0933852 0.379583
0 0.0930648 0.379294
0.426795 0.0820935 0.389349
0.633661 0.00132753 0.360128
0.653208 0 0.355505
0 0.322637 0.437705
0 0.314275 0.434867
0.449989 0.399084 0.583978
0.721431 0.248737 0.483192
0.707454 0.123049 0.410864
0.503456 0.650553 0.605447
0.50016 0.647211 0.603723
0.481071 0.629358 0.594049
0.800626 0.797055 0.688243
0.911452 0.779919 0.659297
0.593164 0.763104 0.676204
0.590921 0.762539 0.675822
0.587366 0.76228 0.675639
0.718563 0.852827 0.714366
0.884077 0.865095 0.688151
0 0.130098 0.411673
0 0.130098 0.411673
0.404395 0.138964 0.428855
0.61471 0.0844282 0.398199
0.637003 0.0746929 0.393851
0 0.130098 0.411673
0 0.130098 0.411673
0.390631 0.139956 0.429786
0.608835 0.0873579 0.399481
0.637003 0.0746929 0.393851
0 0.279973 0.49749
0 0.271733 0.496345
0.348653 0.29601 0.530678
0.605264 0.154208 0.435279
0.63949 0.0633402 0.389227
0.469978 0.636896 0.606516
0.466224 0.634119 0.605097
0.440146 0.615625 0.596033
0.798306 0.783398 0.735195
0.904173 0.760433 0.70573
0.653223 0.768841 0.681773
0.653956 0.768902 0.681727
0.635447 0.753017 0.670649
0.853025 0.852796 0.736904
0.879622 0.862837 0.742596
