public/luts/Halloween-0.cube
TITLE "Generated by Resolve"
LUT_3D_SIZE 9
0.0168002 0.0332189 0.0395666
0.0314488 0.0332647 0.0393683
0.109285 0.0443732 0.0465705
0.333822 0.0641031 0.0463874
0.553124 0.0704204 0.0437629
0.693004 0.0831617 0.04477
0.724697 0.0853742 0.0449226
0.726696 0.0855268 0.0449226
0.727047 0.0855573 0.0449226
0.0208743 0.0530861 0.0485389
0.028687 0.0563363 0.0467842
0.111513 0.0662242 0.0517586
0.328115 0.0705882 0.0475929
0.550484 0.070161 0.0437476
0.691554 0.0830243 0.0447852
0.724605 0.0853742 0.0449226
0.726619 0.0855268 0.0449226
0.727047 0.0855573 0.0449226
0.033875 0.153628 0.11928
0.0337835 0.151507 0.117525
0.0837873 0.176898 0.087068
0.368338 0.181659 0.0647746
0.557137 0.135912 0.0500038
0.691005 0.0899519 0.0462196
0.72459 0.0853895 0.0449073
0.726619 0.0855268 0.0449226
0.727047 0.0855573 0.0449226
0.025803 0.327092 0.228305
0.0260014 0.324498 0.226917
0.027039 0.323079 0.225742
0.334417 0.372229 0.131197
0.59086 0.373739 0.108995
0.731579 0.357168 0.0967269
0.7579 0.311742 0.0821851
0.730312 0.117601 0.0502785
0.727047 0.0855573 0.0449226
0.0391089 0.487526 0.301961
0.0385443 0.485069 0.301137
0.0382391 0.483619 0.300649
0.088426 0.483528 0.296361
0.574487 0.559899 0.191333
0.764569 0.574838 0.184909
0.802365 0.561181 0.179812
0.798718 0.52253 0.162112
0.770108 0.373556 0.101671
0.0929885 0.617288 0.335042
0.0916457 0.615656 0.334585
0.0908827 0.614664 0.33431
0.0902724 0.613931 0.334112
0.303212 0.609186 0.298131
0.742336 0.721492 0.258503
0.812314 0.72961 0.253895
0.815534 0.723583 0.250248
0.816587 0.705806 0.241138
0.145312 0.67158 0.349828
0.145006 0.671382 0.349783
0.144808 0.671168 0.349722
0.144671 0.671107 0.349706
0.144503 0.67097 0.349676
0.563943 0.727932 0.33872
0.809827 0.794293 0.2934
0.81471 0.794491 0.292515
0.815244 0.793286 0.2916
0.154925 0.678386 0.351568
0.154894 0.678309 0.351553
0.154894 0.678309 0.351553
0.154757 0.678248 0.351537
0.154757 0.678248 0.351537
0.154757 0.678248 0.351537
0.685649 0.77435 0.319203
0.814542 0.803372 0.298482
0.815381 0.803464 0.29836
0.157107 0.679866 0.351965
0.157107 0.679866 0.351965
0.157107 0.679866 0.351965
0.157107 0.679866 0.351965
0.157107 0.679866 0.351965
0.157107 0.679866 0.351965
0.157107 0.679866 0.351965
0.811292 0.804532 0.299992
0.815396 0.805341 0.299611
0.0168612 0.0354467 0.0508125
0.0368658 0.0376898 0.0583505
0.11313 0.0447242 0.058793
0.336278 0.0624399 0.0502022
0.553948 0.0694743 0.044007
0.692912 0.0831464 0.04477
0.724697 0.0853742 0.0449226
0.726696 0.0855268 0.0449226
0.727047 0.0855573 0.0449226
0.0223087 0.0602731 0.0656291
0.0360723 0.0699016 0.0714275
0.113069 0.0623636 0.0607462
0.329015 0.0681468 0.0513924
0.550835 0.0691997 0.0439765
0.691463 0.0830243 0.0447852
0.724605 0.0853742 0.0449226
0.726619 0.0855268 0.0449226
0.727047 0.0855573 0.0449226
0.0328069 0.149401 0.123247
0.0326543 0.147021 0.120638
0.0835889 0.172824 0.0905318
0.364141 0.179232 0.065568
0.555627 0.131411 0.0498512
0.690578 0.0889448 0.0460212
0.724498 0.0853895 0.0449073
0.726619 0.0855268 0.0449226
0.727047 0.0855573 0.0449226
0.0258946 0.325612 0.227604
0.0261082 0.32285 0.226108
0.0270542 0.321416 0.224964
0.330999 0.370871 0.131197
0.589868 0.371893 0.108446
0.730877 0.355261 0.0960555
0.757626 0.309239 0.0815442
0.729854 0.115557 0.0501106
0.727047 0.0855573 0.0449226
0.0389105 0.486763 0.301717
0.0383917 0.484306 0.300877
0.0380865 0.482856 0.300389
0.0866407 0.482734 0.296147
0.573373 0.558953 0.190967
0.763928 0.573892 0.184482
0.80209 0.55996 0.179202
0.798505 0.521202 0.161517
0.76939 0.36997 0.100389
0.0927291 0.616876 0.334936
0.0913558 0.615152 0.334462
0.0905318 0.614176 0.334188
0.0899214 0.613428 0.333989
0.30312 0.608927 0.29778
0.741665 0.720943 0.258289
0.812238 0.729076 0.25362
0.815549 0.723064 0.249958
0.816602 0.705104 0.240787
0.145312 0.67158 0.349828
0.144976 0.671305 0.349767
0.144808 0.671168 0.349722
0.14464 0.671031 0.349691
0.144503 0.67097 0.349676
0.565072 0.728298 0.338613
0.809735 0.794186 0.293355
0.814694 0.794324 0.292409
0.815244 0.793042 0.291432
0.154925 0.678386 0.351568
0.154894 0.678309 0.351553
0.154757 0.678248 0.351537
0.154757 0.678248 0.351537
0.154757 0.678248 0.351537
0.154726 0.678172 0.351522
0.678828 0.772473 0.320821
0.814542 0.803296 0.298436
0.815381 0.803464 0.29836
0.157107 0.679866 0.351965
0.157107 0.679866 0.351965
0.157107 0.679866 0.351965
0.157107 0.679866 0.351965
0.157107 0.679866 0.351965
0.157107 0.679866 0.351965
0.157107 0.679866 0.351965
0.811109 0.804501 0.300008
0.815396 0.805341 0.299611
0.0310216 0.0746624 0.127352
0.0463111 0.0729381 0.157763
0.147814 0.073106 0.167498
0.400031 0.0593118 0.147585
0.578378 0.0521706 0.109331
0.697841 0.0774395 0.045594
0.724697 0.0853742 0.0449226
0.726696 0.0855268 0.0449226
0.727047 0.0855573 0.0449226
0.0298772 0.082414 0.130526
0.0378271 0.0824445 0.135332
0.134905 0.0764324 0.167758
0.390723 0.0591897 0.145754
0.574899 0.0517586 0.107408
0.69633 0.0770275 0.0456092
0.724605 0.0853742 0.0449226
0.726619 0.0855268 0.0449226
0.727047 0.0855573 0.0449226
0.034287 0.18706 0.200031
0.0342718 0.1841 0.196292
0.109651 0.197971 0.190677
0.377188 0.168612 0.147936
0.581598 0.0958724 0.106691
0.693507 0.0828717 0.0465858
0.724498 0.0853895 0.0449073
0.726619 0.0855268 0.0449226
0.727047 0.0855573 0.0449226
0.0215 0.341299 0.276905
0.0217899 0.337621 0.273625
0.0220188 0.334874 0.27042
0.311391 0.379095 0.195651
0.590448 0.37084 0.133715
0.730266 0.351675 0.0948043
0.757076 0.304524 0.0803235
0.728862 0.111009 0.0496681
0.727047 0.0855573 0.0449226
0.0336309 0.493431 0.321233
0.0334173 0.489952 0.318486
0.0334936 0.487678 0.315999
0.0750591 0.486168 0.307164
0.572747 0.557641 0.190326
0.7635 0.572747 0.183963
0.801892 0.55874 0.178668
0.79823 0.519371 0.160708
0.768521 0.365515 0.0987411
0.0937514 0.616831 0.335775
0.0923934 0.615152 0.335241
0.0917067 0.614054 0.334768
0.091371 0.613123 0.334127
0.302205 0.608286 0.298238
0.741375 0.72047 0.258061
0.812238 0.728832 0.253468
0.815549 0.722637 0.249729
0.816617 0.704494 0.240482
0.145586 0.671473 0.349828
0.145251 0.671199 0.349767
0.144976 0.671077 0.349722
0.144717 0.670954 0.349691
0.144472 0.670893 0.34966
0.562066 0.727047 0.338628
0.809735 0.794034 0.293248
0.814694 0.794247 0.292348
0.815244 0.792966 0.291371
0.154925 0.678386 0.351568
0.154894 0.678309 0.351553
0.154757 0.678248 0.351537
0.154757 0.678248 0.351537
0.154757 0.678248 0.351537
0.154726 0.678172 0.351522
0.676585 0.771862 0.32134
0.814542 0.803296 0.298436
0.815381 0.803464 0.29836
0.157107 0.679866 0.351965
0.157107 0.679866 0.351965
0.157107 0.679866 0.351965
0.157107 0.679866 0.351965
0.157107 0.679866 0.351965
0.157107 0.679866 0.351965
0.157107 0.679866 0.351965
0.811002 0.804471 0.300023
0.815396 0.805341 0.299611
0.0506142 0.168139 0.283299
0.0596017 0.167361 0.285801
0.159457 0.145006 0.367239
0.43328 0.11487 0.326528
0.61323 0.111864 0.319081
0.741039 0.10016 0.283635
0.754009 0.0465553 0.0757305
0.726696 0.0855268 0.0449226
0.727047 0.0855573 0.0449226
0.0506905 0.168933 0.284642
0.0547646 0.167773 0.284337
0.135454 0.148257 0.367483
0.426444 0.114473 0.325338
0.609644 0.11107 0.316548
0.738933 0.0991684 0.28043
0.753674 0.0460517 0.072343
0.726619 0.0855268 0.0449226
0.727047 0.0855573 0.0449226
0.0378119 0.216541 0.316976
0.038117 0.213687 0.313649
0.0927138 0.209491 0.326711
0.418708 0.159457 0.34229
0.609262 0.122301 0.319936
0.737926 0.0988022 0.279103
0.753613 0.0459144 0.0714275
0.726619 0.0855268 0.0449226
0.727047 0.0855573 0.0449226
0.0174868 0.399649 0.401068
0.0175631 0.396155 0.39762
0.0176394 0.393973 0.39498
0.357061 0.406424 0.380224
0.610544 0.3897 0.351873
0.76762 0.335409 0.296757
0.760159 0.283406 0.112764
0.727901 0.105577 0.0490883
0.727047 0.0855573 0.0449226
0.0167239 0.565423 0.444114
0.0167697 0.561837 0.441489
0.0168002 0.559304 0.439307
0.0325322 0.558831 0.435492
0.585473 0.591562 0.397574
0.783566 0.58645 0.329473
0.801953 0.555734 0.184894
0.797665 0.515633 0.15906
0.766567 0.355581 0.0951705
0.0837262 0.676524 0.438636
0.0832074 0.672496 0.435264
0.082887 0.669688 0.432776
0.0827649 0.66566 0.428687
0.368612 0.66746 0.428138
0.756466 0.736843 0.33373
0.812299 0.728099 0.253605
0.815579 0.72195 0.249348
0.816648 0.703532 0.240009
0.119951 0.708324 0.415915
0.120211 0.706798 0.413611
0.120562 0.705531 0.411536
0.121126 0.703593 0.40798
0.122866 0.698619 0.398764
0.567254 0.733547 0.370535
0.809628 0.793927 0.293187
0.814694 0.794171 0.292302
0.815244 0.792798 0.291264
0.157519 0.678203 0.351934
0.156939 0.678523 0.352712
0.156619 0.678721 0.353094
0.156176 0.678721 0.35317
0.15552 0.678538 0.35256
0.155032 0.678141 0.351537
0.674876 0.771389 0.321736
0.814542 0.803296 0.298436
0.815381 0.803372 0.298299
0.157107 0.679866 0.351965
0.157107 0.679866 0.351965
0.157107 0.679866 0.351965
0.157107 0.679866 0.351965
0.157107 0.679866 0.351965
0.157107 0.679866 0.351965
0.157107 0.679866 0.351965
0.81091 0.804456 0.300023
0.815396 0.805341 0.299611
0.0702525 0.26424 0.442344
0.0706951 0.263752 0.441688
0.12076 0.261387 0.456977
0.444785 0.192096 0.52665
0.632349 0.18497 0.508492
0.77258 0.180194 0.498222
0.803052 0.165545 0.46334
0.76643 0.07393 0.190021
0.727047 0.0855573 0.0449226
0.0703441 0.26479 0.443244
0.0702068 0.263691 0.441474
0.110796 0.261738 0.451652
0.437675 0.191821 0.525994
0.628641 0.184009 0.506249
0.770275 0.178973 0.495415
0.802487 0.164187 0.460075
0.765866 0.0728008 0.185855
0.727047 0.0855573 0.0449226
0.0699168 0.266682 0.446052
0.069688 0.265431 0.443992
0.0900282 0.263737 0.447669
0.424186 0.193011 0.528786
0.624781 0.183917 0.50605
0.769436 0.178759 0.494911
0.802258 0.163836 0.459236
0.765621 0.0722057 0.183627
0.727047 0.0855573 0.0449226
0.017319 0.431281 0.56817
0.017319 0.427863 0.563973
0.017319 0.425574 0.561181
0.313481 0.411978 0.555276
0.635294 0.394476 0.544884
0.79028 0.351507 0.523476
0.824308 0.260243 0.478065
0.766079 0.0752117 0.182757
0.727047 0.0855573 0.0449226
0.0159762 0.607858 0.601526
0.0160525 0.604349 0.598062
0.0161135 0.602106 0.59588
0.0160983 0.600183 0.59292
0.596582 0.618555 0.592081
0.802548 0.600092 0.562417
0.854856 0.575448 0.509041
0.810559 0.510567 0.250111
0.761349 0.320638 0.0847486
0.0280156 0.750439 0.598642
0.0278172 0.747814 0.595331
0.0277104 0.746029 0.593088
0.0277867 0.74461 0.590799
0.209018 0.751858 0.591836
0.785748 0.781109 0.592203
0.875563 0.778958 0.532982
0.826688 0.729183 0.30338
0.816709 0.700999 0.238743
0.0654612 0.810071 0.599054
0.0666209 0.808804 0.595666
0.0674754 0.807889 0.593393
0.0684215 0.806989 0.590951
0.0704204 0.805417 0.586557
0.60267 0.823484 0.614084
0.872114 0.860822 0.507362
0.818235 0.797345 0.31722
0.815244 0.79263 0.291157
0.0887312 0.806806 0.569833
0.0902876 0.805158 0.565621
0.0912337 0.804074 0.562936
0.0925307 0.802747 0.559503
0.0947585 0.800336 0.553307
0.0961471 0.791409 0.535714
0.720958 0.831724 0.493248
0.815076 0.803937 0.305592
0.815381 0.803372 0.298299
0.115938 0.747417 0.463081
0.117403 0.739086 0.45243
0.118532 0.732967 0.444953
0.12079 0.72874 0.438483
0.125322 0.722362 0.427222
0.142855 0.703944 0.394064
0.145907 0.689586 0.368093
0.810819 0.80444 0.300038
0.815396 0.805341 0.299611
0.0857404 0.347127 0.591394
0.0856794 0.346868 0.590875
0.0867781 0.34696 0.591318
0.345251 0.293614 0.711025
0.633021 0.260197 0.680049
0.785336 0.256519 0.67039
0.822278 0.253422 0.66331
0.824048 0.239551 0.632837
0.807935 0.172778 0.480568
0.0858015 0.347326 0.591806
0.0856641 0.346716 0.590585
0.0860456 0.346578 0.590402
0.32607 0.296208 0.711894
0.629252 0.259556 0.678721
0.783062 0.255589 0.668376
0.822187 0.252384 0.661067
0.823819 0.238071 0.629511
0.806134 0.167269 0.467414
0.0859388 0.347936 0.593042
0.0857404 0.347173 0.591501
0.0857252 0.346777 0.590692
0.284001 0.305959 0.706493
0.625254 0.259693 0.679103
0.782132 0.25539 0.667979
0.822171 0.252064 0.66038
0.823774 0.23769 0.628656
0.805493 0.165316 0.462776
0.0778973 0.386328 0.633661
0.0780194 0.383322 0.629877
0.0781415 0.381399 0.627543
0.211414 0.369162 0.640162
0.622034 0.30338 0.693797
0.787137 0.286076 0.677394
0.823865 0.256672 0.662348
0.823804 0.237491 0.628229
0.80528 0.164614 0.461082
0.021561 0.633829 0.790692
0.0212253 0.63064 0.788037
0.0210574 0.628809 0.786542
0.022034 0.627222 0.785168
0.579828 0.61416 0.768933
0.813916 0.612543 0.740276
0.870985 0.595743 0.727764
0.868467 0.537972 0.684321
0.820569 0.222202 0.474754
0.0271153 0.785199 0.768627
0.0268101 0.782834 0.766217
0.0265965 0.781277 0.764675
0.0264591 0.780209 0.763439
0.0716411 0.779904 0.762188
0.787289 0.803143 0.77229
0.884962 0.7953 0.757824
0.893446 0.779477 0.718379
0.878782 0.738064 0.532692
0.0346532 0.851743 0.7626
0.0345617 0.85069 0.759838
0.0345006 0.849989 0.758083
0.0344549 0.84947 0.756756
0.0343938 0.84889 0.754894
0.488212 0.869795 0.76109
0.882826 0.887968 0.763317
0.902068 0.882887 0.716411
0.881743 0.857176 0.508278
0.0356603 0.859571 0.755962
0.0356146 0.858808 0.753017
0.0355688 0.858274 0.751049
0.0355383 0.857877 0.749416
0.0355383 0.857343 0.747448
0.0356298 0.856428 0.743526
0.70782 0.891524 0.758709
0.903746 0.904936 0.695628
0.861936 0.853254 0.454917
0.0365454 0.857328 0.738979
0.0366827 0.856321 0.734722
0.0367742 0.855589 0.731762
0.0368505 0.854994 0.729351
0.0370184 0.854261 0.726299
0.037995 0.852872 0.720821
0.0411078 0.849271 0.706355
0.890654 0.904418 0.656077
0.823331 0.814099 0.345037
0.0968948 0.368093 0.636027
0.0968338 0.368032 0.635904
0.0968338 0.368032 0.635904
0.105165 0.368505 0.638788
0.596841 0.299763 0.764904
0.782467 0.29482 0.753094
0.823163 0.294179 0.751217
0.824643 0.292866 0.74847
0.824842 0.288701 0.739605
0.0968948 0.368109 0.636072
0.0967575 0.368017 0.635843
0.0967575 0.367971 0.635752
0.103243 0.368307 0.637934
0.591974 0.299718 0.764843
0.780072 0.294438 0.752346
0.823026 0.293706 0.75024
0.824628 0.292348 0.747387
0.824872 0.287831 0.737728
0.0970474 0.368215 0.636347
0.0968948 0.368063 0.635981
0.0967575 0.368017 0.635843
0.100786 0.368185 0.63711
0.586328 0.299886 0.76527
0.77879 0.294408 0.752285
0.823026 0.293568 0.749935
0.824628 0.292165 0.74699
0.824857 0.287419 0.736828
0.0971695 0.368277 0.636484
0.0969711 0.36817 0.636225
0.0968948 0.368093 0.636027
0.0972305 0.368063 0.636042
0.569497 0.300862 0.766583
0.776791 0.294484 0.752438
0.822965 0.293568 0.74995
0.824628 0.292119 0.746883
0.824857 0.287266 0.736538
0.0255741 0.545357 0.790387
0.0256504 0.543618 0.788968
0.025742 0.542397 0.788052
0.0261997 0.540093 0.786389
0.484993 0.519875 0.81915
0.800687 0.516915 0.801633
0.857099 0.490349 0.792111
0.840833 0.365881 0.765621
0.825025 0.287785 0.736904
0.0285039 0.786755 0.840269
0.0283055 0.784863 0.840177
0.0281834 0.783719 0.840131
0.0280919 0.782818 0.840055
0.0310063 0.781964 0.840299
0.78027 0.798337 0.863584
0.890181 0.797055 0.852598
0.897627 0.785199 0.847501
0.895079 0.752621 0.831601
0.0358282 0.865873 0.839078
0.0357824 0.865293 0.838834
0.0357366 0.864927 0.838697
0.0357214 0.864713 0.83859
0.0357061 0.8645 0.838453
0.375113 0.868986 0.844526
0.882551 0.898833 0.864668
0.904921 0.898192 0.861143
0.905165 0.894682 0.849805
0.036759 0.87744 0.840177
0.0367437 0.877317 0.839902
0.0367437 0.877256 0.83978
0.0367437 0.877195 0.839643
0.0367285 0.877134 0.839506
0.0367285 0.877104 0.839292
0.639796 0.908934 0.859998
0.907088 0.920485 0.864134
0.908812 0.919249 0.851575
0.0368963 0.879377 0.840024
0.0368963 0.879332 0.839734
0.0368963 0.879301 0.839521
0.0368963 0.879286 0.839399
0.0368963 0.879271 0.839231
0.0368963 0.879271 0.838987
0.0368963 0.87921 0.838575
0.892332 0.922927 0.865293
0.908812 0.923476 0.848371
0.101335 0.370779 0.642725
0.101335 0.370779 0.642725
0.101335 0.370779 0.642725
0.101335 0.370779 0.642725
0.165026 0.369757 0.658351
0.755383 0.302464 0.76939
0.823102 0.301961 0.767712
0.82475 0.3019 0.767559
0.825025 0.301793 0.767346
0.101335 0.370779 0.642725
0.101259 0.370779 0.64271
0.101259 0.370779 0.64271
0.101259 0.370748 0.642664
0.159625 0.369985 0.657267
0.751766 0.302495 0.769497
0.822934 0.301915 0.76762
0.82475 0.301793 0.767361
0.825025 0.301701 0.767147
0.101335 0.370794 0.642771
0.101335 0.370779 0.642725
0.101259 0.370779 0.64271
0.101259 0.370779 0.64271
0.153429 0.37026 0.65597
0.749828 0.30251 0.769558
0.822934 0.301869 0.767514
0.82475 0.301793 0.767361
0.825025 0.301656 0.767056
0.101335 0.370794 0.642771
0.101335 0.370779 0.642725
0.101335 0.370779 0.642725
0.101259 0.370779 0.64271
0.131991 0.371176 0.651286
0.746212 0.302541 0.76968
0.822873 0.301869 0.767514
0.82475 0.301793 0.767361
0.825025 0.301656 0.767056
0.101396 0.370825 0.642847
0.101335 0.370794 0.642771
0.101335 0.370779 0.642725
0.101335 0.370779 0.642725
0.103059 0.370871 0.64329
0.733745 0.3028 0.770306
0.822766 0.301915 0.76762
0.82475 0.301793 0.767361
0.825025 0.301656 0.767056
0.0262303 0.716823 0.846601
0.0263828 0.71397 0.846616
0.0264744 0.712261 0.846586
0.0265202 0.710704 0.846616
0.0265049 0.709407 0.846616
0.711482 0.708675 0.857527
0.882155 0.708232 0.850523
0.886839 0.684977 0.845762
0.877012 0.602609 0.829847
0.0355077 0.862165 0.844282
0.035462 0.861555 0.844221
0.0354162 0.861204 0.84416
0.0353857 0.860853 0.844099
0.0353704 0.860655 0.844099
0.0353552 0.860456 0.844083
0.876387 0.895918 0.882429
0.905699 0.89543 0.883055
0.90753 0.892134 0.881788
0.0367895 0.877943 0.845701
0.0367742 0.877821 0.84564
0.0367742 0.877775 0.845594
0.0367742 0.877729 0.845594
0.0367742 0.877684 0.845533
0.036759 0.877638 0.845533
0.554589 0.906981 0.873945
0.910628 0.924865 0.890669
0.916503 0.925429 0.890913
0.0369116 0.880034 0.846052
0.0369116 0.880018 0.846006
0.0369116 0.880018 0.84596
0.0369116 0.880018 0.84593
0.0369116 0.880018 0.84593
0.0369116 0.880003 0.845884
0.0369116 0.880003 0.845884
0.885939 0.927367 0.889403
0.917906 0.930755 0.892241
0.102312 0.371359 0.64416
0.102312 0.371359 0.64416
0.102312 0.371359 0.64416
0.102312 0.371359 0.64416
0.102312 0.371359 0.64416
0.587564 0.304845 0.775876
0.822156 0.303593 0.771191
0.82475 0.303578 0.771115
0.825071 0.303578 0.771115
0.102312 0.371359 0.64416
0.102312 0.371359 0.64416
0.102312 0.371359 0.64416
0.102312 0.371359 0.64416
0.102312 0.371359 0.64416
0.555413 0.306615 0.775921
0.82182 0.303609 0.771206
0.82475 0.303578 0.771115
0.825071 0.303578 0.771115
0.102312 0.371359 0.64416
0.102312 0.371359 0.64416
0.102312 0.371359 0.64416
0.102312 0.371359 0.64416
0.102312 0.371359 0.64416
0.540322 0.308232 0.775509
0.821714 0.303609 0.771206
0.82475 0.303578 0.771115
0.825071 0.303578 0.771115
0.102312 0.371359 0.64416
0.102312 0.371359 0.64416
0.102312 0.371359 0.64416
0.102312 0.371359 0.64416
0.102312 0.371359 0.64416
0.523156 0.310307 0.774731
0.821653 0.303609 0.771206
0.82475 0.303578 0.771115
0.825071 0.303578 0.771115
0.102312 0.371359 0.64416
0.102312 0.371359 0.64416
0.102312 0.371359 0.64416
0.102312 0.371359 0.64416
0.102312 0.371359 0.64416
0.442878 0.318486 0.775189
0.821332 0.303609 0.771206
0.82475 0.303578 0.771115
0.825071 0.303578 0.771115
0.102312 0.371359 0.64416
0.102312 0.371359 0.64416
0.102312 0.371359 0.64416
0.102312 0.371359 0.64416
0.102312 0.371359 0.64416
0.102312 0.371359 0.64416
0.819944 0.303609 0.771252
0.82475 0.303578 0.771115
0.825071 0.303578 0.771115
0.0340581 0.84564 0.845045
0.0338903 0.843717 0.845014
0.0337987 0.842603 0.845029
0.0337224 0.841733 0.845045
0.0336767 0.841093 0.84506
0.0336156 0.84036 0.845014
0.858137 0.870176 0.882338
0.902617 0.868559 0.881453
0.904967 0.860914 0.880583
0.0367742 0.877791 0.846799
0.036759 0.877623 0.846769
0.036759 0.877531 0.846769
0.036759 0.877455 0.846754
0.036759 0.877409 0.846708
0.0367437 0.877363 0.846693
0.0790723 0.880446 0.849653
0.910384 0.924819 0.895521
0.917891 0.925429 0.896788
0.0369116 0.88014 0.847135
0.0369116 0.88014 0.847135
0.0369116 0.88014 0.847135
0.0369116 0.88014 0.847135
0.0369116 0.88014 0.847135
0.0369116 0.88014 0.847135
0.0369116 0.88014 0.847135
0.864378 0.926894 0.89189
0.92018 0.931991 0.898939
