public/luts/Halloween2.cube
TITLE "Generated by Resolve"
LUT_3D_SIZE 33
0.0136263 0.0285954 0.0363928
0.0138552 0.0286412 0.036408
0.0149844 0.0288853 0.0365301
0.016495 0.0290532 0.0366217
0.0180667 0.0290227 0.0365454
0.0203403 0.0290684 0.0365759
0.024979 0.0300298 0.0372625
0.0322423 0.0317845 0.0383307
0.0417639 0.0337682 0.0396887
0.0545968 0.0359808 0.0411841
0.0697185 0.0382544 0.0426337
0.0867018 0.0408942 0.0443275
0.110552 0.0437934 0.0461433
0.143969 0.0464332 0.0473335
0.186282 0.0491646 0.0476844
0.237766 0.0563973 0.0483558
0.294774 0.0626535 0.0477607
0.354574 0.0627451 0.0451209
0.412299 0.0598459 0.0426032
0.46186 0.0602121 0.0424201
0.505714 0.0652171 0.0431678
0.545983 0.069688 0.0437018
0.583963 0.0734722 0.0440223
0.619837 0.0770275 0.0442969
0.651911 0.0798352 0.0445258
0.679423 0.0820783 0.0447547
0.700603 0.0837415 0.04477
0.714229 0.0846876 0.0448463
0.720653 0.0850996 0.044892
0.723537 0.0853132 0.0449073
0.724773 0.0853895 0.0449226
0.725567 0.0854353 0.0449226
0.726085 0.085481 0.0449226
0.0140536 0.0298619 0.0369573
0.0142214 0.0299077 0.0369726
0.0154116 0.0302129 0.0370794
0.0170443 0.0305638 0.037232
0.018555 0.030457 0.0370947
0.0205234 0.0301518 0.0369726
0.0245212 0.0306096 0.0373693
0.0316472 0.0321813 0.0383917
0.0412299 0.0342107 0.039765
0.0542306 0.0364385 0.0412909
0.0697795 0.0387579 0.042771
0.0873121 0.0413672 0.0444953
0.111482 0.0441596 0.0462348
0.145464 0.0467536 0.047425
0.188922 0.0495155 0.0477302
0.24094 0.0571298 0.0484474
0.298711 0.0628367 0.0476234
0.359182 0.0624247 0.0448768
0.416571 0.0598154 0.0425574
0.465476 0.0606394 0.0424811
0.509499 0.0656443 0.0432136
0.549538 0.0700542 0.0437476
0.587411 0.0738079 0.0440528
0.623163 0.0773327 0.0443122
0.65478 0.0800793 0.0445411
0.681865 0.0822919 0.04477
0.702052 0.0838636 0.04477
0.714839 0.0847334 0.0448463
0.720913 0.0851148 0.044892
0.72372 0.0853285 0.0449073
0.724956 0.0854047 0.0449226
0.725658 0.0854505 0.0449226
0.726085 0.085481 0.0449226
0.0146792 0.0314794 0.0376745
0.0148928 0.0316014 0.0377203
0.0159762 0.0319066 0.0378119
0.0176394 0.0324102 0.0379644
0.0191501 0.0323339 0.0378271
0.0208133 0.0317235 0.0375219
0.0238651 0.0314336 0.037583
0.0306096 0.0327764 0.0384527
0.0400854 0.0347906 0.0397955
0.0531319 0.0371099 0.0413977
0.0688487 0.0393988 0.0428779
0.0868238 0.0419013 0.0446021
0.111131 0.0445411 0.0463417
0.145449 0.0471504 0.0475319
0.189319 0.0498817 0.0478218
0.241749 0.057557 0.0485237
0.300191 0.0629587 0.0475776
0.360998 0.0623026 0.0447852
0.41854 0.0598306 0.0425422
0.467552 0.0608835 0.0425269
0.511452 0.0658579 0.0432441
0.551553 0.0702525 0.0437476
0.589548 0.0740063 0.0440833
0.625086 0.0774853 0.0443427
0.656611 0.0802472 0.0445563
0.683268 0.0823835 0.0447852
0.70309 0.0839399 0.04477
0.715297 0.0847486 0.0448463
0.721187 0.0851453 0.044892
0.723796 0.0853285 0.0449073
0.724956 0.0854047 0.0449226
0.725734 0.0854505 0.0449226
0.726177 0.085481 0.0449226
0.0155489 0.0333867 0.0385138
0.015671 0.033463 0.0385443
0.0165866 0.0337987 0.0386053
0.0181582 0.0343633 0.0387274
0.0197147 0.0344396 0.0386053
0.02121 0.033753 0.0382239
0.0234073 0.0327459 0.0379644
0.0297246 0.0337987 0.0386816
0.03888 0.0357061 0.0399176
0.0518349 0.0380713 0.0415351
0.0678569 0.0403296 0.0430915
0.0861372 0.042649 0.0447547
0.110536 0.0451209 0.046479
0.144701 0.0475624 0.0476387
0.189029 0.0502785 0.0479286
0.242161 0.057908 0.0486
0.300877 0.0630198 0.0475624
0.362325 0.0622416 0.0447089
0.419638 0.0598001 0.0425269
0.468742 0.0610208 0.0425422
0.512688 0.0659953 0.0432593
0.552956 0.0703899 0.0437629
0.590967 0.0741436 0.0440986
0.626657 0.0776226 0.044358
0.657938 0.080354 0.0445563
0.684398 0.0824598 0.0447852
0.703777 0.0840009 0.04477
0.715648 0.0847791 0.0448615
0.721263 0.0851453 0.044892
0.723888 0.0853437 0.0449073
0.725048 0.0854047 0.0449226
0.725734 0.0854505 0.0449226
0.726177 0.085481 0.0449226
0.0162203 0.0350958 0.0392157
0.0163424 0.0352026 0.0392615
0.016907 0.035462 0.039292
0.0181277 0.0360113 0.0393988
0.0197604 0.0364385 0.0393835
0.0215 0.0363317 0.0390631
0.0234531 0.0354009 0.0387884
0.0295567 0.0362402 0.0393835
0.0381933 0.0379797 0.0404669
0.0510414 0.0404364 0.0421149
0.067277 0.0426795 0.0437018
0.085832 0.04448 0.0452125
0.110033 0.0464485 0.0467994
0.144121 0.0487221 0.0479286
0.188708 0.0513924 0.0482338
0.242161 0.0587167 0.0487984
0.301167 0.0633555 0.0476081
0.362829 0.0622416 0.0446937
0.420432 0.0598306 0.0425269
0.469657 0.0611124 0.0425727
0.513726 0.0661173 0.0432593
0.554086 0.0705272 0.0437629
0.592096 0.0742809 0.0440986
0.627695 0.0777295 0.044358
0.658976 0.0804456 0.0445716
0.685252 0.082536 0.0447852
0.704372 0.0840467 0.04477
0.715908 0.0847944 0.0448615
0.721447 0.0851606 0.044892
0.723888 0.0853437 0.0449073
0.725048 0.0854047 0.0449226
0.725734 0.0854505 0.0449226
0.726177 0.085481 0.0449226
0.0167391 0.0371405 0.0400092
0.0167849 0.0372168 0.0400244
0.0170138 0.0373541 0.0400397
0.0178531 0.0378882 0.0402075
0.0191653 0.038468 0.0402838
0.0210422 0.0390173 0.0402228
0.0238346 0.0392004 0.0400092
0.0299077 0.0399786 0.0405127
0.0381476 0.0414282 0.0413977
0.0506294 0.0439918 0.0429999
0.0670329 0.0462348 0.0446479
0.0859693 0.0474708 0.0460059
0.109987 0.0486915 0.047364
0.14374 0.0505074 0.0484169
0.188571 0.053315 0.0487221
0.242008 0.0599832 0.0491188
0.301167 0.0639048 0.0477302
0.363012 0.0624094 0.0447242
0.421027 0.0598306 0.0425116
0.470283 0.0612039 0.0425727
0.514366 0.0661784 0.0432746
0.554971 0.0706035 0.0437781
0.593072 0.0743572 0.0441138
0.628672 0.0778058 0.044358
0.659861 0.0805066 0.0445716
0.686015 0.0826123 0.0447852
0.704814 0.0840925 0.04477
0.716167 0.0848096 0.0448615
0.721523 0.0851606 0.044892
0.72398 0.0853437 0.0449073
0.725124 0.0854047 0.0449226
0.725734 0.0854505 0.0449226
0.726177 0.085481 0.0449226
0.0178225 0.0412909 0.0417182
0.0178836 0.0415045 0.0418097
0.0179751 0.0416571 0.0418708
0.0184939 0.0420233 0.0419623
0.019379 0.0425422 0.0420386
0.0208438 0.0431678 0.0420233
0.0234379 0.0440223 0.0417792
0.0295262 0.0459449 0.0421759
0.0393835 0.0480507 0.0432136
0.0517433 0.0503395 0.0445869
0.0677501 0.0523384 0.0461433
0.0870069 0.0528267 0.0474556
0.111131 0.0536049 0.0486458
0.144656 0.055375 0.0497292
0.189349 0.05832 0.0500343
0.242939 0.0635996 0.0499733
0.301534 0.0657054 0.0480964
0.363333 0.0629587 0.0448157
0.421347 0.059968 0.0425422
0.470634 0.0612497 0.0425879
0.514885 0.0662394 0.0432746
0.555489 0.0706645 0.0437781
0.593881 0.0744335 0.0441138
0.629526 0.0778973 0.0443732
0.660639 0.0805829 0.0445869
0.686641 0.0826429 0.0447852
0.705257 0.0840925 0.04477
0.716335 0.0848249 0.0448615
0.721614 0.0851759 0.044892
0.72398 0.0853437 0.0449073
0.725124 0.0854047 0.0449226
0.725826 0.0854658 0.0449226
0.726268 0.0854963 0.0449226
0.0196841 0.0484321 0.0450752
0.0198062 0.0489052 0.0453193
0.0198367 0.049012 0.0453803
0.0201419 0.0492714 0.0454261
0.0206607 0.0496529 0.0454414
0.0216068 0.0500496 0.0452583
0.023682 0.0507668 0.0447547
0.0286107 0.0531319 0.0446174
0.0398108 0.0572824 0.0456703
0.0540932 0.0599985 0.0471351
0.069688 0.0616464 0.048249
0.0895857 0.0626688 0.0496986
0.113817 0.0628977 0.0508583
0.147845 0.0651255 0.0521096
0.192721 0.0687114 0.0523537
0.246021 0.0717784 0.0513771
0.302846 0.0703136 0.0486763
0.363485 0.0646677 0.0451514
0.421317 0.0602731 0.0426032
0.470817 0.061326 0.0426032
0.515328 0.0663005 0.0432898
0.556008 0.0707256 0.0437781
0.5944 0.0744945 0.0441291
0.630152 0.0779431 0.0443732
0.661158 0.0806287 0.0445869
0.68716 0.0826886 0.0447852
0.705608 0.084123 0.0447852
0.716518 0.0848402 0.0448615
0.721706 0.0851759 0.044892
0.724086 0.0853285 0.0449226
0.725124 0.0854047 0.0449226
0.725826 0.0854658 0.0449226
0.726268 0.0854963 0.0449226
0.0223545 0.0594492 0.0512856
0.0224613 0.0599527 0.0515755
0.0225071 0.0601968 0.0517433
0.0226596 0.0603494 0.0516976
0.0229038 0.0604715 0.0515602
0.0234531 0.0605631 0.0510719
0.0246586 0.0607614 0.0500191
0.0272984 0.0614786 0.048127
0.0362707 0.0680095 0.049012
0.0550393 0.0739147 0.0507362
0.0737316 0.0764935 0.0522011
0.0935836 0.0775769 0.0532692
0.117952 0.0778363 0.0541543
0.152682 0.0810254 0.0552987
0.197726 0.0859693 0.055436
0.251179 0.0865644 0.0535286
0.306401 0.0802319 0.0498817
0.364721 0.0702831 0.0458686
0.421195 0.0624857 0.0429847
0.470649 0.0616464 0.042649
0.515389 0.066331 0.0432746
0.556268 0.0707561 0.0437781
0.59501 0.0745556 0.0441291
0.630579 0.0779889 0.0443732
0.661707 0.0806592 0.0445869
0.687587 0.0827192 0.0447852
0.705959 0.0841535 0.0447852
0.716686 0.0848554 0.0448615
0.721798 0.0851911 0.044892
0.724086 0.0853285 0.0449226
0.725124 0.0854047 0.0449226
0.725826 0.0854658 0.0449226
0.726268 0.0854963 0.0449226
0.0250095 0.0733959 0.0604715
0.0251316 0.0740063 0.0608835
0.0251926 0.0743267 0.0610971
0.0252537 0.0745708 0.0612192
0.0254215 0.0746777 0.0611276
0.025803 0.0747082 0.0607156
0.0264591 0.0747845 0.0600443
0.0284886 0.0751049 0.0580606
0.0334783 0.078706 0.0541238
0.0472267 0.0879072 0.0557107
0.0742504 0.0941787 0.0568551
0.0970626 0.097261 0.0583963
0.122454 0.0981918 0.0587778
0.157275 0.102464 0.0595254
0.201923 0.109773 0.0594644
0.256886 0.108507 0.0563516
0.313344 0.100847 0.0519112
0.369436 0.0870222 0.0471199
0.422629 0.0716564 0.044358
0.4701 0.0632486 0.0429084
0.515023 0.0663615 0.0432746
0.556329 0.0707866 0.0437781
0.595071 0.0745861 0.0441138
0.63093 0.0780194 0.0443885
0.662058 0.0806897 0.0446021
0.688014 0.0827649 0.0447852
0.706218 0.0841688 0.0447852
0.716777 0.0848554 0.0448615
0.721798 0.0851911 0.044892
0.724086 0.0853285 0.0449226
0.725124 0.0854047 0.0449226
0.725826 0.0854658 0.0449226
0.726268 0.0854963 0.0449226
0.0275273 0.0911879 0.0723583
0.0276493 0.0920577 0.0729229
0.0277256 0.0925002 0.0732128
0.0277562 0.0927138 0.0733654
0.0278325 0.0928817 0.0733654
0.0280003 0.0929274 0.073228
0.028336 0.0931106 0.0729686
0.0293126 0.0933089 0.0719615
0.0324102 0.0942245 0.0691081
0.0381781 0.0988479 0.0612039
0.0595102 0.111925 0.0635538
0.0960708 0.119738 0.0653391
0.12546 0.124376 0.0661173
0.16144 0.128374 0.0659037
0.206638 0.134401 0.0648356
0.260853 0.133455 0.0604562
0.321096 0.125566 0.0547189
0.377661 0.113024 0.0492103
0.427131 0.0978256 0.0458534
0.471641 0.0821698 0.0451362
0.514626 0.0708171 0.0439765
0.555886 0.0712291 0.0438239
0.595026 0.0746319 0.0440986
0.631052 0.0780804 0.0443732
0.662287 0.0807355 0.0445869
0.688258 0.0827802 0.04477
0.706401 0.084184 0.0447852
0.716869 0.0848707 0.0448615
0.721874 0.0851911 0.044892
0.724163 0.0853437 0.0449226
0.725216 0.08542 0.0449226
0.725826 0.0854658 0.0449226
0.726268 0.0854963 0.0449226
0.0300298 0.114031 0.0889601
0.0301366 0.115175 0.0898299
0.0301976 0.11577 0.0902724
0.0302586 0.116182 0.0905623
0.0302739 0.116442 0.0907454
0.0303349 0.116625 0.090837
0.0304723 0.11667 0.0907454
0.030808 0.116854 0.090547
0.0319829 0.11725 0.0896315
0.0364843 0.118822 0.0855268
0.0442359 0.124544 0.0734264
0.0731823 0.141115 0.0738231
0.120226 0.150072 0.0752575
0.165148 0.156237 0.0749828
0.211719 0.161166 0.0728618
0.268421 0.159472 0.0673075
0.330373 0.151949 0.0597696
0.387549 0.141558 0.0533608
0.434363 0.129686 0.0496071
0.475578 0.114717 0.0468757
0.517433 0.0994583 0.0465095
0.556771 0.0892653 0.0462959
0.594949 0.079942 0.0450294
0.630961 0.0788586 0.0444648
0.662211 0.0809186 0.0445869
0.688319 0.0828412 0.04477
0.706554 0.0842145 0.04477
0.716945 0.0848707 0.0448615
0.721874 0.0851911 0.044892
0.724163 0.0853437 0.0449226
0.725216 0.08542 0.0449226
0.725826 0.0854658 0.0449226
0.726268 0.0854963 0.0449226
0.0332189 0.145617 0.112856
0.0333562 0.14725 0.114122
0.0334478 0.148363 0.114992
0.0335088 0.148959 0.11545
0.0335393 0.149386 0.115785
0.0335546 0.149645 0.115984
0.0336004 0.149905 0.116182
0.0336767 0.150011 0.116197
0.0339361 0.149996 0.115969
0.0359808 0.150729 0.114839
0.0435798 0.152712 0.10959
0.0533761 0.160861 0.0889754
0.0899214 0.178225 0.088304
0.150729 0.188159 0.0864881
0.218769 0.191501 0.0829023
0.27454 0.191714 0.0769665
0.340993 0.183566 0.0678569
0.399298 0.175158 0.0603189
0.444327 0.167773 0.0563668
0.485145 0.157321 0.053727
0.525124 0.143465 0.0507668
0.56318 0.128054 0.0491493
0.598795 0.112322 0.0484169
0.633448 0.103548 0.0482643
0.663249 0.096788 0.0475929
0.688411 0.0895399 0.0461738
0.706569 0.0860761 0.045182
0.716991 0.0851911 0.0449073
0.72195 0.0852216 0.044892
0.724147 0.085359 0.0449073
0.725216 0.08542 0.0449226
0.725826 0.0854658 0.0449226
0.726268 0.0854963 0.0449226
0.0352941 0.182803 0.139605
0.0352789 0.184466 0.140719
0.0352636 0.185595 0.141466
0.0352636 0.186221 0.141863
0.0352636 0.186831 0.142275
0.0352483 0.187182 0.142504
0.0352483 0.187442 0.142672
0.0352636 0.187533 0.142718
0.0352941 0.187625 0.142763
0.0356603 0.187808 0.14258
0.0383917 0.188556 0.140856
0.0488746 0.190494 0.134051
0.0618601 0.200504 0.10544
0.107271 0.220447 0.104067
0.193866 0.228717 0.0964523
0.283375 0.226719 0.0883497
0.347936 0.222583 0.0793622
0.409491 0.214206 0.0708476
0.455116 0.209415 0.0656901
0.494347 0.205447 0.0621958
0.534722 0.197436 0.0602884
0.574411 0.186038 0.0581369
0.611811 0.172808 0.0555428
0.64506 0.157656 0.0531319
0.67248 0.139345 0.0517739
0.693736 0.121141 0.050248
0.709255 0.109514 0.049424
0.717769 0.101198 0.0485084
0.721889 0.0915389 0.046479
0.724102 0.0856184 0.0449378
0.7252 0.0854353 0.0449073
0.725826 0.0854658 0.0449226
0.726268 0.0854963 0.0449226
0.0341802 0.220218 0.164233
0.0340429 0.222141 0.165499
0.0339818 0.223102 0.16614
0.0339513 0.223896 0.166644
0.0339055 0.224506 0.167056
0.0338903 0.224765 0.167224
0.033875 0.225025 0.167391
0.0338598 0.225376 0.16762
0.0338598 0.225467 0.167681
0.0338445 0.225559 0.167742
0.0339818 0.225483 0.16759
0.0375219 0.226139 0.165301
0.0576944 0.22884 0.154543
0.072343 0.243565 0.115877
0.140597 0.266102 0.119112
0.258183 0.267796 0.102602
0.356878 0.262943 0.0925917
0.413947 0.259129 0.0847334
0.462318 0.25452 0.0793927
0.504509 0.251865 0.0751812
0.543801 0.250004 0.0717784
0.581933 0.244923 0.0684825
0.620127 0.235477 0.0661021
0.655787 0.224292 0.0640269
0.685863 0.211978 0.0616464
0.709606 0.197192 0.0587625
0.724529 0.177676 0.0561074
0.729305 0.152468 0.0538949
0.726497 0.120455 0.0505531
0.724788 0.10135 0.0484321
0.72517 0.0932326 0.0469062
0.72578 0.0861677 0.0450752
0.726268 0.0854963 0.0449226
0.0316625 0.257633 0.18822
0.0315404 0.259556 0.189425
0.0314641 0.260685 0.190127
0.0314183 0.261479 0.190631
0.0313878 0.262089 0.191012
0.031342 0.262623 0.191333
0.0313115 0.262882 0.191516
0.0312963 0.263142 0.191684
0.031281 0.263325 0.191791
0.031281 0.263416 0.191852
0.0313115 0.263325 0.191775
0.0324102 0.263554 0.191135
0.0396887 0.264759 0.187533
0.0688792 0.269429 0.164385
0.0963455 0.292241 0.122103
0.202976 0.310948 0.128756
0.337697 0.306706 0.108278
0.42002 0.305684 0.100267
0.464454 0.305013 0.0953536
0.509453 0.30132 0.0905623
0.551263 0.298939 0.0868849
0.590707 0.296193 0.0834058
0.627741 0.292287 0.0797742
0.662333 0.286259 0.0766308
0.693217 0.278035 0.0741741
0.718196 0.267857 0.0714122
0.73492 0.25478 0.0687419
0.742885 0.237629 0.0654765
0.744503 0.214572 0.0613413
0.74165 0.181643 0.056733
0.732418 0.132662 0.051957
0.725719 0.0955215 0.047303
0.726238 0.0888533 0.0458076
0.0284276 0.295308 0.210758
0.0282597 0.297185 0.21181
0.0281376 0.298619 0.212619
0.0280613 0.299428 0.213062
0.0280003 0.300053 0.213413
0.0279545 0.300587 0.213718
0.0279393 0.300847 0.21387
0.0279088 0.301213 0.214069
0.0278782 0.301472 0.214221
0.027863 0.301656 0.214328
0.0278477 0.301747 0.214374
0.027863 0.301656 0.214328
0.0302586 0.301885 0.213184
0.0553292 0.304173 0.202884
0.0863508 0.316106 0.165881
0.157946 0.343297 0.140948
0.294301 0.351583 0.128771
0.408499 0.349554 0.116213
0.46923 0.353582 0.111681
0.511208 0.353658 0.107836
0.554894 0.349081 0.103227
0.596796 0.345418 0.0991531
0.635889 0.342123 0.0960861
0.67097 0.338018 0.0928054
0.700679 0.333654 0.0898299
0.724727 0.327672 0.0869612
0.74168 0.319585 0.0842603
0.750515 0.308461 0.0813458
0.753582 0.29395 0.0776226
0.753613 0.27364 0.0728313
0.751156 0.24332 0.066392
0.74551 0.196658 0.0582284
0.733654 0.133684 0.052369
0.0252995 0.333944 0.231952
0.0251469 0.335988 0.233051
0.0250553 0.33724 0.233707
0.0249943 0.338216 0.234226
0.0249485 0.338933 0.234607
0.0249332 0.339376 0.234836
0.0249027 0.33991 0.235111
0.0248875 0.340185 0.235248
0.0248722 0.340536 0.235431
0.0248722 0.340627 0.235477
0.0248569 0.34081 0.235584
0.0248569 0.340719 0.235538
0.0250095 0.340825 0.235523
0.0266575 0.340871 0.234882
0.0754101 0.343297 0.216754
0.109041 0.366857 0.154955
0.251652 0.387259 0.157031
0.381643 0.391165 0.131182
0.461173 0.394919 0.128344
0.515969 0.399847 0.123903
0.559075 0.400168 0.120226
0.60058 0.395529 0.116289
0.641398 0.39144 0.113039
0.678096 0.388006 0.110124
0.709087 0.384298 0.10753
0.733822 0.379675 0.104875
0.750622 0.37377 0.102205
0.759228 0.366293 0.0992599
0.76202 0.356359 0.0955825
0.761715 0.343236 0.0910048
0.760128 0.324575 0.0856489
0.757443 0.296162 0.0785229
0.753231 0.251255 0.0685283
0.0238804 0.371939 0.251438
0.0238956 0.373693 0.252293
0.0238956 0.375006 0.252934
0.0238956 0.375875 0.253361
0.0238956 0.376654 0.253758
0.0238956 0.377096 0.253971
0.0239109 0.377615 0.254231
0.0239109 0.37789 0.254353
0.0239109 0.378225 0.25452
0.0239109 0.3785 0.254658
0.0239109 0.378668 0.254734
0.0239109 0.378576 0.254688
0.0239109 0.378668 0.254734
0.0240787 0.378592 0.254658
0.0294041 0.379004 0.25362
0.0960708 0.382116 0.228397
0.180377 0.41445 0.166567
0.339223 0.426673 0.165988
0.440269 0.434119 0.143893
0.509117 0.439445 0.142321
0.562448 0.444587 0.138781
0.606119 0.446036 0.135622
0.646082 0.442679 0.132448
0.684749 0.437888 0.129412
0.717021 0.434211 0.126848
0.742794 0.430304 0.124453
0.76083 0.425956 0.122164
0.770291 0.42005 0.119478
0.773495 0.412558 0.116411
0.773419 0.402975 0.112596
0.771725 0.390341 0.107805
0.768856 0.372717 0.101396
0.76408 0.346639 0.0920119
0.025742 0.408255 0.269169
0.0259556 0.409995 0.269993
0.0261234 0.411307 0.270604
0.026215 0.412192 0.271015
0.0263066 0.412894 0.271351
0.0263828 0.413504 0.271626
0.0264286 0.413947 0.271839
0.0264744 0.414298 0.272007
0.0265049 0.414557 0.272129
0.0265354 0.414816 0.272251
0.026566 0.414984 0.272328
0.0265812 0.415076 0.272374
0.0265812 0.415167 0.272419
0.0265812 0.415167 0.272419
0.0265965 0.415259 0.27245
0.0586709 0.416526 0.26656
0.128283 0.424567 0.230854
0.273854 0.454047 0.188251
0.407904 0.467979 0.176822
0.490074 0.478508 0.159579
0.555398 0.48394 0.157946
0.607248 0.489067 0.15465
0.651881 0.491295 0.151965
0.689967 0.488991 0.149676
0.723583 0.485039 0.14696
0.750225 0.480949 0.144518
0.769223 0.476997 0.142565
0.779828 0.472145 0.140368
0.784115 0.466194 0.137896
0.785031 0.458961 0.134966
0.784283 0.449454 0.131167
0.782452 0.436805 0.126009
0.779171 0.419226 0.118883
0.0306096 0.443641 0.285267
0.0308995 0.445533 0.286076
0.0310826 0.446738 0.286595
0.0312505 0.447669 0.287007
0.0313725 0.448447 0.287343
0.0314641 0.449042 0.287617
0.0315251 0.449485 0.2878
0.0315862 0.449821 0.287953
0.0316472 0.450248 0.288136
0.0316625 0.45034 0.288167
0.0317235 0.450675 0.288319
0.0317388 0.450767 0.28835
0.0317693 0.450935 0.288411
0.031754 0.450858 0.28838
0.0317693 0.450935 0.288411
0.0372473 0.451255 0.287892
0.0995041 0.452323 0.279408
0.176318 0.470954 0.221576
0.360449 0.493004 0.20705
0.461158 0.511894 0.190799
0.537484 0.521904 0.175875
0.599466 0.527626 0.173877
0.650187 0.533074 0.17116
0.695171 0.536202 0.169253
0.729473 0.534264 0.167819
0.756802 0.531441 0.166445
0.77673 0.527733 0.164553
0.788144 0.523751 0.162493
0.792996 0.518898 0.160159
0.794553 0.513146 0.157641
0.794614 0.506035 0.154574
0.793912 0.496574 0.150607
0.791913 0.483803 0.145098
0.0371099 0.478614 0.29897
0.0375219 0.4804 0.299565
0.0377813 0.48159 0.299962
0.0379797 0.482521 0.300267
0.0381781 0.483284 0.300526
0.0383001 0.483879 0.300725
0.0383917 0.484306 0.300877
0.038468 0.484733 0.30103
0.038529 0.484977 0.301106
0.0386053 0.485328 0.301228
0.0386511 0.485573 0.301305
0.0386969 0.48574 0.301366
0.0387121 0.485832 0.301396
0.0387274 0.485924 0.301427
0.0387274 0.485924 0.301427
0.0387427 0.486 0.301457
0.0577096 0.486152 0.300008
0.148211 0.485252 0.291905
0.263035 0.510918 0.226749
0.424765 0.535225 0.224323
0.510826 0.554559 0.204929
0.58265 0.564584 0.192844
0.641352 0.570947 0.190326
0.691508 0.576333 0.187854
0.732341 0.579446 0.186831
0.762478 0.57911 0.186725
0.783322 0.576959 0.186557
0.795453 0.573754 0.185534
0.800839 0.570214 0.184024
0.802563 0.565637 0.181933
0.803037 0.56022 0.179492
0.80264 0.553338 0.176394
0.801678 0.543969 0.172107
0.0451362 0.512505 0.309483
0.0456397 0.514382 0.310018
0.0459602 0.515572 0.310353
0.0461738 0.516411 0.310597
0.0464027 0.517174 0.310796
0.04654 0.517769 0.310948
0.0466926 0.518364 0.311101
0.0468452 0.518776 0.311223
0.0469062 0.519036 0.311284
0.0469673 0.51928 0.311345
0.0470588 0.519615 0.311437
0.0470893 0.519707 0.311452
0.0471656 0.519875 0.311498
0.0471809 0.519951 0.311528
0.0472114 0.520043 0.311543
0.0472114 0.520043 0.311543
0.0471809 0.519951 0.311528
0.0796216 0.520272 0.310979
0.194308 0.516213 0.297459
0.358068 0.547967 0.2439
0.476677 0.578241 0.240101
0.558556 0.596216 0.219409
0.625238 0.606271 0.209369
0.68159 0.61323 0.206699
0.727687 0.618158 0.204807
0.762783 0.621225 0.204639
0.787549 0.62208 0.205219
0.801434 0.620554 0.205234
0.807462 0.618097 0.204654
0.809644 0.614893 0.203494
0.810422 0.610986 0.201953
0.810437 0.60592 0.199863
0.809949 0.599084 0.196902
0.0546273 0.545449 0.317906
0.0552682 0.547189 0.318303
0.0556802 0.548272 0.318547
0.0560159 0.549264 0.318761
0.0562753 0.549935 0.318914
0.0564736 0.550439 0.319036
0.056672 0.551019 0.319173
0.0568246 0.551431 0.319265
0.0569162 0.551675 0.319326
0.057023 0.551934 0.319371
0.0571298 0.552178 0.319432
0.0571908 0.552422 0.319493
0.0572824 0.55259 0.319524
0.0572976 0.552682 0.319554
0.0573281 0.552758 0.31957
0.0573281 0.552758 0.31957
0.0573739 0.55285 0.319585
0.0573281 0.552758 0.31957
0.10396 0.553079 0.321645
0.23653 0.548714 0.293645
0.427359 0.589212 0.263828
0.526146 0.619684 0.253956
0.603998 0.636484 0.234501
0.666194 0.646479 0.225971
0.718425 0.6533 0.22298
0.757549 0.657847 0.221469
0.785351 0.660426 0.220752
0.802426 0.661189 0.2206
0.810208 0.660456 0.220325
0.813367 0.658595 0.219684
0.815 0.65626 0.218845
0.815991 0.653117 0.2177
0.816114 0.648737 0.216236
0.0666514 0.576593 0.324926
0.0673533 0.578332 0.325322
0.0678721 0.579324 0.325551
0.0683146 0.580072 0.325734
0.0686351 0.580652 0.325872
0.0689403 0.581231 0.326009
0.0691386 0.581643 0.326101
0.0693065 0.581964 0.326177
0.0694743 0.5823 0.326253
0.069688 0.582635 0.326329
0.0697337 0.582803 0.32636
0.0698558 0.582956 0.326406
0.0699626 0.583215 0.326452
0.0700236 0.583291 0.326467
0.0700847 0.583368 0.326497
0.0700847 0.583368 0.326497
0.0701152 0.583459 0.326513
0.0700847 0.583368 0.326497
0.0700847 0.583368 0.326497
0.130846 0.582925 0.330556
0.289693 0.587121 0.2795
0.482444 0.631113 0.283558
0.574228 0.65922 0.266361
0.64715 0.674617 0.248936
0.705043 0.684245 0.241947
0.749737 0.690623 0.239231
0.781552 0.694469 0.238117
0.800717 0.696178 0.237324
0.809201 0.696101 0.236759
0.81265 0.695109 0.236057
0.814389 0.693416 0.235111
0.81529 0.691325 0.234043
0.8159 0.688319 0.232578
0.0825055 0.603616 0.331411
0.0835279 0.605005 0.331762
0.0841993 0.605982 0.332006
0.0848249 0.60679 0.332219
0.0852369 0.60737 0.332372
0.0856641 0.60795 0.332525
0.0859083 0.608347 0.332616
0.0861982 0.608682 0.332708
0.0863966 0.608927 0.332769
0.0865339 0.609171 0.33283
0.086656 0.609339 0.332876
0.0868238 0.609506 0.332921
0.0869306 0.609659 0.332967
0.0870222 0.609751 0.332998
0.0870527 0.609827 0.333013
0.087129 0.609903 0.333028
0.087129 0.609903 0.333028
0.0871595 0.609995 0.333043
0.087129 0.609903 0.333028
0.087129 0.609903 0.333028
0.15642 0.607721 0.337682
0.387228 0.620584 0.294728
0.533578 0.669032 0.297124
0.620081 0.694377 0.276204
0.687709 0.7084 0.262119
0.739162 0.717311 0.256504
0.77583 0.722698 0.254261
