public/luts/Halloween2.cube
TITLE "Generated by Resolve"
LUT_3D_SIZE 9
0.0136263 0.0285954 0.0363928
0.0180667 0.0290227 0.0365454
0.0417639 0.0337682 0.0396887
0.110552 0.0437934 0.0461433
0.294774 0.0626535 0.0477607
0.505714 0.0652171 0.0431678
0.651911 0.0798352 0.0445258
0.720653 0.0850996 0.044892
0.726085 0.085481 0.0449226
0.0162203 0.0350958 0.0392157
0.0197604 0.0364385 0.0393835
0.0381933 0.0379797 0.0404669
0.110033 0.0464485 0.0467994
0.301167 0.0633555 0.0476081
0.513726 0.0661173 0.0432593
0.658976 0.0804456 0.0445716
0.721447 0.0851606 0.044892
0.726177 0.085481 0.0449226
0.0223545 0.0594492 0.0512856
0.0229038 0.0604715 0.0515602
0.0362707 0.0680095 0.049012
0.117952 0.0778363 0.0541543
0.306401 0.0802319 0.0498817
0.515389 0.066331 0.0432746
0.661707 0.0806592 0.0445869
0.721798 0.0851911 0.044892
0.726268 0.0854963 0.0449226
0.0332189 0.145617 0.112856
0.0335393 0.149386 0.115785
0.0339361 0.149996 0.115969
0.0899214 0.178225 0.088304
0.340993 0.183566 0.0678569
0.525124 0.143465 0.0507668
0.663249 0.096788 0.0475929
0.72195 0.0852216 0.044892
0.726268 0.0854963 0.0449226
0.0284276 0.295308 0.210758
0.0280003 0.300053 0.213413
0.0278782 0.301472 0.214221
0.0302586 0.301885 0.213184
0.294301 0.351583 0.128771
0.554894 0.349081 0.103227
0.700679 0.333654 0.0898299
0.753582 0.29395 0.0776226
0.733654 0.133684 0.052369
0.0306096 0.443641 0.285267
0.0313725 0.448447 0.287343
0.0316472 0.450248 0.288136
0.0317693 0.450935 0.288411
0.0995041 0.452323 0.279408
0.537484 0.521904 0.175875
0.729473 0.534264 0.167819
0.792996 0.518898 0.160159
0.791913 0.483803 0.145098
0.0666514 0.576593 0.324926
0.0686351 0.580652 0.325872
0.0694743 0.5823 0.326253
0.0699626 0.583215 0.326452
0.0701152 0.583459 0.326513
0.289693 0.587121 0.2795
0.705043 0.684245 0.241947
0.809201 0.696101 0.236759
0.8159 0.688319 0.232578
0.129809 0.657359 0.346029
0.131533 0.659068 0.346517
0.132326 0.659861 0.346746
0.132799 0.660319 0.346883
0.132982 0.660563 0.346944
0.133074 0.660563 0.346944
0.530983 0.707301 0.332586
0.800961 0.780941 0.286168
0.814099 0.781872 0.284321
0.152239 0.676493 0.35108
0.152544 0.676692 0.351141
0.152682 0.676753 0.351156
0.152712 0.676829 0.351171
0.152712 0.676829 0.351171
0.15285 0.67689 0.351186
0.15285 0.67689 0.351186
0.624567 0.754177 0.332906
0.813855 0.801694 0.297505
0.014313 0.0294957 0.0383917
0.0198825 0.0305943 0.0400549
0.0424353 0.0339208 0.0415808
0.110628 0.0433356 0.0468147
0.295369 0.0621653 0.0479896
0.506264 0.0652628 0.043183
0.652506 0.079881 0.0445258
0.720745 0.0850996 0.044892
0.726085 0.085481 0.0449226
0.0172732 0.0364691 0.0422065
0.0226596 0.0397345 0.0440833
0.0387579 0.0378576 0.0423743
0.110109 0.045716 0.0473945
0.302342 0.0628519 0.0478218
0.514534 0.0661936 0.0432746
0.65977 0.0805066 0.0445716
0.721523 0.0851606 0.044892
0.726177 0.085481 0.0449226
0.0222171 0.0590066 0.0534066
0.0227207 0.0598611 0.0535897
0.036286 0.06804 0.0513313
0.117113 0.0756237 0.0543374
0.306889 0.0788128 0.0500954
0.516457 0.0664378 0.0432898
0.662654 0.0807507 0.0446021
0.721874 0.0851911 0.044892
0.726268 0.0854963 0.0449226
0.033051 0.14464 0.112642
0.0333867 0.148394 0.115526
0.0337682 0.149157 0.115785
0.0899214 0.177554 0.0882734
0.341955 0.183032 0.067689
0.526284 0.142397 0.0505989
0.664271 0.0962387 0.0475166
0.722042 0.0852216 0.044892
0.726268 0.0854963 0.0449226
0.0283665 0.295949 0.211124
0.0279545 0.300679 0.213779
0.0278019 0.302281 0.214694
0.0305333 0.302647 0.213458
0.296559 0.352438 0.128695
0.556283 0.350057 0.103426
0.701976 0.334417 0.0900282
0.753765 0.294896 0.077821
0.73315 0.131121 0.0521096
0.030808 0.444938 0.285817
0.0315404 0.449561 0.287846
0.0318456 0.451377 0.288594
0.0319982 0.452232 0.28893
0.100374 0.45359 0.280003
0.539422 0.523476 0.176471
0.731106 0.53608 0.168582
0.793454 0.520821 0.160983
0.792264 0.48571 0.145907
0.0671702 0.577829 0.325216
0.0692302 0.581811 0.326131
0.0701762 0.583535 0.326528
0.070573 0.584283 0.326696
0.0707713 0.584695 0.326787
0.289296 0.587701 0.28098
0.70692 0.685817 0.242634
0.809461 0.697459 0.23743
0.815976 0.689845 0.233326
0.130404 0.657908 0.346197
0.132128 0.659617 0.346685
0.132921 0.660395 0.346899
0.133272 0.660792 0.347005
0.133577 0.661112 0.347097
0.133715 0.661189 0.347127
0.540932 0.711513 0.33286
0.801541 0.781628 0.286503
0.814115 0.782635 0.284794
0.152377 0.676555 0.351095
0.152575 0.676768 0.351141
0.152712 0.676829 0.351171
0.15285 0.67689 0.351186
0.15285 0.67689 0.351186
0.15288 0.676966 0.351202
0.15288 0.676966 0.351202
0.628595 0.755627 0.332036
0.813855 0.80177 0.297566
0.0170138 0.0359655 0.0549935
0.0201419 0.0357061 0.0611429
0.0503548 0.0396124 0.0653391
0.115175 0.0454261 0.0648814
0.30486 0.0528725 0.0502022
0.508431 0.0625772 0.0438239
0.65243 0.079881 0.0445258
0.720745 0.0850996 0.044892
0.726085 0.085481 0.0449226
0.0179446 0.0399481 0.0570077
0.0196231 0.0401465 0.0594949
0.0451209 0.0429999 0.0676127
0.114839 0.0472572 0.0667582
0.314595 0.0526436 0.0506905
0.517388 0.0632639 0.0439918
0.659937 0.0805219 0.0445716
0.721523 0.0851606 0.044892
0.726177 0.085481 0.0449226
0.0238804 0.0691691 0.0744945
0.0243839 0.0703288 0.075349
0.0463417 0.0838178 0.0831769
0.121736 0.0719005 0.0695201
0.312779 0.0703136 0.0564889
0.519493 0.063508 0.0440375
0.663035 0.0807507 0.0446021
0.721874 0.0851911 0.044892
0.726268 0.0854963 0.0449226
0.0319371 0.142641 0.121431
0.0322576 0.146166 0.124132
0.032517 0.1467 0.123934
0.0919203 0.175586 0.0963149
0.338766 0.182162 0.0706493
0.52639 0.139269 0.0518959
0.664607 0.0945907 0.047303
0.722118 0.0852369 0.044892
0.726268 0.0854963 0.0449226
0.0283207 0.295323 0.211566
0.0278325 0.300252 0.214588
0.0276799 0.301854 0.215473
0.0303044 0.302388 0.21413
0.295766 0.352163 0.128832
0.556924 0.349798 0.103304
0.702556 0.334462 0.0900282
0.75378 0.294255 0.0776532
0.732708 0.129244 0.0518807
0.0308385 0.445182 0.285939
0.0316014 0.449989 0.288029
0.0319219 0.451804 0.288762
0.0320745 0.452674 0.289097
0.099382 0.454185 0.280461
0.540246 0.524193 0.176745
0.731991 0.536934 0.168948
0.793667 0.521645 0.161318
0.792386 0.486305 0.146166
0.0675517 0.5785 0.325368
0.0696117 0.582376 0.326268
0.0704967 0.584039 0.32665
0.0709544 0.584863 0.326848
0.0711528 0.585275 0.32694
0.289418 0.588083 0.281437
0.707988 0.686748 0.243046
0.809537 0.698268 0.237827
0.815961 0.69073 0.233768
0.130694 0.658137 0.346258
0.132326 0.659861 0.346746
0.133104 0.660639 0.34696
0.133623 0.661189 0.347112
0.133898 0.661418 0.347189
0.13402 0.661494 0.347219
0.545419 0.713436 0.33286
0.801923 0.782116 0.286748
0.814115 0.782971 0.285008
0.152377 0.676555 0.351095
0.152682 0.676753 0.351156
0.15285 0.67689 0.351186
0.15285 0.67689 0.351186
0.15288 0.676966 0.351202
0.152987 0.676951 0.351202
0.152987 0.676951 0.351202
0.632319 0.756924 0.331228
0.813855 0.801862 0.297612
0.0304875 0.0728618 0.12459
0.0345464 0.0732891 0.128206
0.0629129 0.0674296 0.161547
0.145159 0.0702525 0.158495
0.352941 0.0577554 0.137423
0.525536 0.0532692 0.104326
0.666331 0.0619821 0.0461128
0.720745 0.0850996 0.044892
0.726085 0.085481 0.0449226
0.0303197 0.07364 0.125124
0.0329442 0.0747845 0.128603
0.0541543 0.0713207 0.161791
0.145983 0.0723735 0.164736
0.364889 0.0592813 0.143801
0.537331 0.0541543 0.112428
0.676524 0.0585184 0.0462348
0.721523 0.0851606 0.044892
0.726177 0.085481 0.0449226
0.0296635 0.086656 0.130541
0.0302739 0.088365 0.132937
0.0432746 0.0893721 0.143786
0.139422 0.0813611 0.169238
0.363272 0.0614786 0.145922
0.540856 0.0544747 0.115175
0.680873 0.0572061 0.0463264
0.721965 0.0851911 0.044892
0.726268 0.0854963 0.0449226
0.0341802 0.178805 0.190768
0.0342412 0.182925 0.195056
0.0342565 0.183368 0.195026
0.116976 0.19968 0.190356
0.356619 0.171283 0.151415
0.547143 0.114153 0.113756
0.67837 0.0725567 0.0511788
0.722118 0.0852369 0.044892
0.726268 0.0854963 0.0449226
0.024445 0.311696 0.257939
0.0237888 0.317449 0.262409
0.0236515 0.318868 0.263188
0.0237736 0.31783 0.261097
0.283772 0.361379 0.194491
0.558907 0.350774 0.138628
0.702449 0.331426 0.0893721
0.753491 0.290486 0.0767529
0.73164 0.124559 0.0514076
0.0272374 0.450721 0.303517
0.0274815 0.456306 0.307561
0.0275731 0.458274 0.308705
0.0278477 0.458747 0.307805
0.0873121 0.46006 0.29691
0.539666 0.523888 0.178882
0.732448 0.53637 0.168704
0.793683 0.521233 0.161105
0.792264 0.48571 0.145907
0.0668498 0.579492 0.327459
0.0687419 0.583566 0.328786
0.0696574 0.585168 0.329076
0.0703288 0.585824 0.328756
0.0711376 0.585809 0.327947
0.287739 0.58761 0.282948
0.708385 0.686992 0.243122
0.809613 0.698634 0.23801
0.815961 0.691081 0.233936
0.131807 0.658259 0.34641
0.133639 0.659983 0.346914
0.134463 0.660838 0.347158
0.134844 0.661311 0.34728
0.134859 0.661555 0.347326
0.134569 0.661723 0.347326
0.545327 0.713573 0.333043
0.802213 0.782406 0.286885
0.814115 0.783215 0.285161
0.152407 0.676631 0.35111
0.152682 0.676753 0.351156
0.15285 0.67689 0.351186
0.15288 0.676966 0.351202
0.152987 0.676951 0.351202
0.153017 0.677028 0.351217
0.153017 0.677028 0.351217
0.635554 0.757992 0.33048
0.813855 0.801862 0.297612
0.046479 0.153918 0.257984
0.0486763 0.153918 0.25893
0.064622 0.1523 0.263264
0.168292 0.128634 0.332219
0.395514 0.10399 0.29192
0.563149 0.0992447 0.279835
0.695781 0.0882887 0.244465
0.751797 0.0507057 0.0977188
0.726085 0.085481 0.0449226
0.0468605 0.155261 0.260441
0.0480049 0.156573 0.263127
0.0613413 0.155886 0.26775
0.164004 0.133303 0.341634
0.404013 0.106722 0.301244
0.573007 0.102647 0.290593
0.705196 0.0919966 0.257435
0.753414 0.0525978 0.107057
0.726177 0.085481 0.0449226
0.0464179 0.155291 0.260288
0.0469978 0.157214 0.263798
0.0553292 0.157336 0.26746
0.147158 0.137026 0.346426
0.403311 0.107988 0.305104
0.576013 0.10399 0.294804
0.709178 0.0936751 0.263371
0.754086 0.0532235 0.110002
0.726268 0.0854963 0.0449226
0.0364538 0.209125 0.294759
0.0364538 0.21239 0.299199
0.0367132 0.212711 0.299748
0.0990005 0.210529 0.316823
0.3953 0.16553 0.326314
0.579141 0.123522 0.302495
0.710765 0.0948196 0.265782
0.754314 0.0533761 0.110597
0.726268 0.0854963 0.0449226
0.0195315 0.363272 0.368383
0.0190433 0.369451 0.373495
0.0189059 0.371221 0.374823
0.0189059 0.371344 0.374334
0.337713 0.385595 0.35938
0.575509 0.368658 0.331289
0.739834 0.316808 0.286336
0.761334 0.267323 0.129015
0.728664 0.110979 0.0500191
0.0168612 0.51342 0.414115
0.0168612 0.520027 0.418692
0.016846 0.522637 0.420325
0.016846 0.5234 0.420371
0.0421607 0.527092 0.418357
0.54902 0.555566 0.37583
0.751354 0.551125 0.317876
0.79472 0.519158 0.176822
0.79176 0.482612 0.144594
0.0733959 0.626154 0.414176
0.0740826 0.632441 0.4177
0.0740826 0.634806 0.419074
0.0742199 0.635431 0.41883
0.0742046 0.633616 0.416373
0.373312 0.63888 0.415488
0.724941 0.705287 0.322988
0.810132 0.698573 0.242161
0.815961 0.690639 0.233738
0.111666 0.686442 0.397269
0.112184 0.690013 0.400977
0.112581 0.691447 0.402335
0.113039 0.692012 0.402502
0.113497 0.691218 0.400519
0.115007 0.687816 0.393851
0.551934 0.720699 0.365454
0.802319 0.782528 0.28719
0.814115 0.783383 0.285267
0.151858 0.678538 0.355261
0.152316 0.678798 0.355596
0.152041 0.679332 0.35642
0.152041 0.679484 0.356573
0.152819 0.679088 0.355856
0.153918 0.678126 0.354025
0.153552 0.677302 0.352148
0.637583 0.758663 0.330007
0.813962 0.801877 0.297612
0.0661021 0.241856 0.406058
0.0661021 0.242069 0.406394
0.0712749 0.24062 0.405859
0.121248 0.234257 0.432685
0.408072 0.170352 0.474769
0.578927 0.161593 0.452979
0.723186 0.155734 0.439353
0.78941 0.143343 0.407752
0.769345 0.0826886 0.221851
0.0664073 0.243687 0.408942
0.0666819 0.245151 0.411337
0.0697948 0.244663 0.411566
0.120943 0.239796 0.435279
0.416144 0.174319 0.484428
0.589502 0.166232 0.464317
0.732815 0.160494 0.45124
0.792203 0.147692 0.418784
0.770596 0.0862135 0.234257
0.066453 0.2439 0.409293
0.0668193 0.245853 0.412482
0.0681163 0.246052 0.413214
0.116381 0.242634 0.430579
0.415564 0.176425 0.489387
0.592538 0.168276 0.46923
0.73695 0.162753 0.456748
0.793713 0.149935 0.424475
0.770367 0.0855268 0.231815
0.0657511 0.246113 0.412039
0.0661021 0.248569 0.416022
0.0662242 0.249073 0.416892
0.0973831 0.246967 0.424155
0.402899 0.180667 0.495613
0.591241 0.169589 0.471977
0.738933 0.164157 0.460166
0.794614 0.151522 0.428504
0.770443 0.0857557 0.232624
0.0178988 0.394873 0.513237
0.0176699 0.401297 0.520989
0.0176089 0.403113 0.523384
0.0175937 0.403433 0.523812
0.29099 0.393668 0.520836
0.600717 0.374151 0.511376
0.761074 0.33228 0.490181
0.818296 0.252934 0.449958
0.770932 0.0882124 0.233219
0.016846 0.552422 0.54963
0.0168002 0.559197 0.555901
0.0167697 0.561746 0.558373
0.0167544 0.562829 0.55903
0.0167544 0.562402 0.557595
0.55967 0.581186 0.552987
0.767971 0.563729 0.526436
0.842817 0.536767 0.47512
0.812192 0.479301 0.267079
0.019852 0.696757 0.549508
0.0207218 0.702464 0.555077
0.0211032 0.704997 0.557488
0.0213016 0.706157 0.558511
0.0215152 0.706401 0.558053
0.228336 0.717479 0.560632
0.748165 0.742412 0.558862
0.863127 0.740475 0.503395
0.83093 0.700557 0.312062
0.0758526 0.778637 0.549142
0.0746471 0.782712 0.5552
0.0741741 0.784619 0.557992
0.0740673 0.785641 0.559258
0.0745251 0.785901 0.559152
0.0762951 0.784878 0.556023
0.589212 0.800702 0.587091
0.857374 0.841596 0.485969
0.819608 0.78851 0.319615
0.0999619 0.780209 0.517601
0.0981308 0.783993 0.524102
0.0973678 0.785718 0.527031
0.0969863 0.786679 0.528649
0.0972305 0.786557 0.528344
0.098497 0.784375 0.524407
0.10219 0.776654 0.510613
0.687709 0.817823 0.492302
0.814527 0.802548 0.304967
0.0809949 0.324956 0.548394
0.0811017 0.325444 0.549294
0.0809339 0.324529 0.547601
0.0909438 0.323171 0.547494
0.317266 0.272099 0.662318
0.581308 0.236454 0.627604
0.737331 0.230289 0.612589
0.814847 0.224735 0.599771
0.817197 0.207599 0.560998
0.0813764 0.326879 0.55198
0.0816205 0.328099 0.554299
0.0816205 0.327947 0.554009
0.0891737 0.32726 0.554482
0.327047 0.27541 0.670558
0.591348 0.241032 0.637766
0.746685 0.235355 0.623972
0.817151 0.230426 0.612421
0.818936 0.213916 0.575235
0.0814374 0.327199 0.552575
0.0817884 0.328801 0.555642
0.0818494 0.329061 0.556146
0.0875257 0.328786 0.556954
0.319051 0.278523 0.675853
0.594415 0.242878 0.64184
0.750729 0.237476 0.62884
0.818219 0.233158 0.618509
0.81976 0.217044 0.5823
0.0814374 0.327138 0.552468
0.0818494 0.329122 0.556237
0.0819715 0.329656 0.55726
0.0835126 0.329671 0.557641
0.281727 0.285573 0.684764
0.593301 0.24419 0.644816
0.752499 0.238788 0.631815
0.818662 0.23476 0.622095
0.820249 0.218723 0.586053
0.0764782 0.366629 0.591714
0.0734417 0.370428 0.596857
0.0720378 0.371328 0.598199
0.0716106 0.371298 0.598367
0.221103 0.358785 0.615015
0.592416 0.30164 0.663493
0.759655 0.27837 0.644327
0.820203 0.239673 0.625956
0.820584 0.219944 0.5888
0.0177005 0.582116 0.735561
0.0183108 0.588022 0.741497
0.0185702 0.590402 0.743999
0.0187076 0.591531 0.745037
0.0211337 0.591211 0.744671
0.546166 0.578286 0.727306
0.781994 0.575662 0.701473
0.860349 0.555001 0.685405
0.861753 0.501381 0.640848
0.0200809 0.732418 0.718166
0.0208591 0.737865 0.723262
0.0211795 0.740246 0.725582
0.0213626 0.741604 0.726635
0.0214084 0.742061 0.726833
0.0936599 0.745769 0.729503
0.752316 0.764431 0.734844
0.872831 0.752499 0.716579
0.886473 0.73492 0.674556
0.0317693 0.82324 0.707576
0.0321508 0.82649 0.713359
0.0323186 0.828046 0.716075
0.0323949 0.828885 0.717708
0.0324407 0.829282 0.718135
0.0324865 0.829252 0.717479
0.486763 0.847547 0.722606
0.86656 0.866621 0.726436
0.898314 0.861936 0.677592
0.038468 0.843473 0.698344
0.0381781 0.845197 0.704295
0.0380407 0.845975 0.707012
0.0379492 0.846464 0.708766
0.0379339 0.846738 0.709636
0.0381018 0.846601 0.708965
0.0386664 0.845838 0.705791
0.677165 0.878065 0.725017
0.900252 0.897658 0.65536
0.092256 0.363943 0.626184
0.0923781 0.364065 0.626444
0.092256 0.363928 0.626139
0.0920882 0.363714 0.625681
0.13312 0.364569 0.637812
0.54905 0.293126 0.749599
0.733196 0.283284 0.728817
0.818875 0.280919 0.723095
0.82388 0.277775 0.71632
0.092607 0.364355 0.627115
0.0927749 0.364614 0.627665
0.0927749 0.364614 0.627665
0.092668 0.364508 0.627451
0.134005 0.365393 0.639719
0.559548 0.294499 0.753124
0.742565 0.28542 0.733272
0.819837 0.283375 0.728283
0.824002 0.280552 0.72224
0.092668 0.364446 0.627314
0.0929122 0.364782 0.628077
0.0929885 0.364858 0.628229
0.0929885 0.364828 0.628183
0.128496 0.36582 0.639063
0.562081 0.295369 0.755001
0.746929 0.286458 0.73547
0.820279 0.284596 0.730892
0.824125 0.281956 0.725216
0.092668 0.364492 0.627405
0.0929885 0.364858 0.628229
0.0931106 0.364965 0.628504
0.0931258 0.365011 0.62858
0.113329 0.36585 0.635203
0.559442 0.296178 0.756512
0.748898 0.287114 0.736858
0.820569 0.285451 0.732677
0.824155 0.282933 0.727306
0.092668 0.364462 0.627359
0.0929885 0.364904 0.628321
0.0931258 0.365057 0.628672
0.0931868 0.365118 0.62884
0.0958114 0.365255 0.629725
0.542565 0.298589 0.75848
0.748119 0.287633 0.737987
0.820737 0.286061 0.733974
0.824186 0.28368 0.728893
0.0310826 0.513954 0.762127
0.0296941 0.520867 0.768582
0.0289616 0.524056 0.771405
0.0285649 0.525643 0.772824
0.0284581 0.525811 0.773022
0.461509 0.506172 0.80441
0.769879 0.498283 0.786297
0.85214 0.47628 0.775097
0.843748 0.385718 0.752728
0.0249485 0.741878 0.833997
0.02533 0.746563 0.834882
0.0254978 0.74876 0.835264
0.0256046 0.750027 0.835431
0.0256199 0.750378 0.835554
0.0424811 0.7505 0.836667
0.744045 0.760372 0.849668
0.878828 0.757778 0.83154
0.892119 0.745846 0.824491
0.0339818 0.845594 0.823682
0.0342412 0.848417 0.825742
0.0343633 0.849699 0.826749
0.0344244 0.850385 0.827253
0.0344701 0.850935 0.82768
0.0344854 0.851072 0.827695
0.361883 0.853483 0.832151
0.865415 0.881102 0.847486
0.898177 0.879789 0.841291
0.0362707 0.871275 0.820996
0.0363317 0.872099 0.823728
0.0363622 0.872541 0.825086
0.0363775 0.872755 0.825879
0.0363928 0.872984 0.826459
0.036408 0.873014 0.826658
0.036408 0.872999 0.826368
0.596506 0.901961 0.841306
0.901579 0.914855 0.846815
0.100298 0.370199 0.641276
0.100359 0.37023 0.641352
0.100298 0.370199 0.641276
0.100298 0.370184 0.64123
0.100221 0.370153 0.641169
0.238987 0.361471 0.679225
0.702174 0.301137 0.767391
0.819196 0.29984 0.763226
0.824308 0.299397 0.762234
0.100435 0.37026 0.641428
0.100496 0.370306 0.641535
0.100496 0.370306 0.641535
0.100435 0.370275 0.641474
0.100435 0.370275 0.641474
0.235584 0.362295 0.676738
0.711818 0.301534 0.768002
0.820005 0.300298 0.764172
0.824384 0.299992 0.763516
0.100435 0.370275 0.641474
0.100496 0.370321 0.641581
0.100496 0.370321 0.641581
0.100496 0.370321 0.641581
0.100496 0.370321 0.641581
0.232639 0.362982 0.674601
0.716304 0.301656 0.76817
0.82034 0.300481 0.764553
0.824445 0.300191 0.763912
0.100435 0.370275 0.641474
0.100496 0.370321 0.641581
0.100572 0.370352 0.641657
0.100572 0.370352 0.641657
0.100572 0.370352 0.641657
0.223133 0.364736 0.667292
0.718181 0.301762 0.768353
0.820569 0.300618 0.764843
0.824445 0.300328 0.764218
0.100435 0.370275 0.641474
0.100572 0.370321 0.641611
0.100572 0.370352 0.641657
0.100572 0.370367 0.641703
0.100572 0.370367 0.641703
0.182925 0.368292 0.660533
0.716136 0.301839 0.768566
0.820676 0.30071 0.765042
0.824506 0.300465 0.764508
0.100435 0.370275 0.641474
0.100572 0.370352 0.641657
0.100572 0.370367 0.641703
0.100633 0.370367 0.641718
0.100633 0.370367 0.641718
0.122087 0.370901 0.648051
0.704189 0.301885 0.768917
0.820508 0.300755 0.765148
0.824506 0.300511 0.764614
0.0253758 0.675273 0.844343
0.0248417 0.678889 0.844541
0.0247501 0.680995 0.844724
0.0247044 0.682124 0.844785
0.0246586 0.682521 0.8448
0.0245975 0.681956 0.84477
0.678614 0.67538 0.851377
0.871305 0.676432 0.842313
0.882826 0.655573 0.83801
0.0336461 0.841031 0.842741
0.0338598 0.84361 0.842847
0.0339818 0.844968 0.842924
0.0340581 0.845777 0.842954
0.0340887 0.846265 0.842954
0.0341039 0.846494 0.842954
0.0467231 0.846387 0.843732
0.85832 0.877989 0.877791
0.900526 0.877409 0.876036
0.0366064 0.875227 0.843961
0.0366369 0.875532 0.844175
0.0366369 0.875669 0.844236
0.0366522 0.875761 0.844343
0.0366522 0.875853 0.844358
0.0366522 0.875853 0.844388
0.0366522 0.875898 0.844404
0.51487 0.901015 0.868833
0.905669 0.920211 0.885969
