public/luts/Halloween-0.cube
TITLE "Generated by Resolve"
LUT_3D_SIZE 33
0.0168002 0.0332189 0.0395666
0.0196384 0.0343938 0.0402838
0.0218357 0.0340429 0.0399329
0.0246586 0.032929 0.0391852
0.0314488 0.0332647 0.0393683
0.0438392 0.0357214 0.0410163
0.061677 0.0386664 0.0429389
0.0816968 0.0412604 0.0445716
0.109285 0.0443732 0.0465705
0.149874 0.0471962 0.0477607
0.203082 0.0505531 0.0478828
0.266072 0.0607919 0.048661
0.333822 0.0641031 0.0463874
0.401694 0.0602884 0.0429541
0.459159 0.0599222 0.0423743
0.508614 0.0655528 0.0431983
0.553124 0.0704204 0.0437629
0.594751 0.0745251 0.0441291
0.633387 0.078233 0.0444038
0.666438 0.0810407 0.0446326
0.693004 0.0831617 0.04477
0.710536 0.0844434 0.0448157
0.719158 0.085008 0.0448768
0.723018 0.0852827 0.0449073
0.724697 0.0853742 0.0449226
0.725567 0.0854353 0.0449226
0.726085 0.085481 0.0449226
0.726436 0.0855116 0.0449226
0.726696 0.0855268 0.0449226
0.726879 0.0855421 0.0449226
0.727047 0.0855573 0.0449226
0.727047 0.0855573 0.0449226
0.727047 0.0855573 0.0449226
0.0175479 0.0358434 0.0407263
0.0200046 0.0371862 0.0413367
0.0229038 0.0377813 0.0413062
0.0253758 0.0363928 0.0405585
0.030869 0.0356909 0.040116
0.0424048 0.037644 0.0413672
0.0599832 0.0407568 0.0433967
0.0803235 0.0429999 0.0449378
0.107607 0.0454871 0.0467994
0.147417 0.0480964 0.0479896
0.200504 0.0513313 0.048127
0.263645 0.0609445 0.0487678
0.331273 0.0643168 0.0465248
0.399664 0.0604257 0.0430457
0.457801 0.0598306 0.042359
0.507393 0.0654002 0.043183
0.552148 0.0703288 0.0437629
0.593881 0.0744335 0.0441138
0.632578 0.078172 0.0443885
0.66566 0.0809796 0.0446326
0.692409 0.0831006 0.04477
0.710185 0.0844129 0.0448157
0.718975 0.0849928 0.0448768
0.722927 0.0852674 0.0449073
0.724605 0.0853742 0.0449226
0.725475 0.0854353 0.0449226
0.726085 0.085481 0.0449226
0.726436 0.0855116 0.0449226
0.726696 0.0855268 0.0449226
0.726879 0.0855421 0.0449226
0.727047 0.0855573 0.0449226
0.727047 0.0855573 0.0449226
0.727047 0.0855573 0.0449226
0.0177157 0.0382391 0.0415503
0.0195468 0.0396582 0.0421607
0.0224155 0.041413 0.0427405
0.0259861 0.0414435 0.0423438
0.0315557 0.0402991 0.0417182
0.0415961 0.0412146 0.0422065
0.0591897 0.0446784 0.0443427
0.0798962 0.0463874 0.0457923
0.106981 0.0478218 0.0473487
0.145846 0.0499733 0.0484932
0.198886 0.0531777 0.048661
0.261738 0.0618296 0.0490425
0.32932 0.0646372 0.0466773
0.398215 0.0606088 0.043122
0.456901 0.0597086 0.0423438
0.506493 0.0653239 0.043183
0.551461 0.0702525 0.0437476
0.593256 0.0743877 0.0441138
0.631983 0.0781109 0.0443885
0.665141 0.0809186 0.0446326
0.692058 0.0830701 0.04477
0.709819 0.0844129 0.0448005
0.718898 0.0849928 0.0448768
0.722835 0.0852674 0.0449073
0.724605 0.0853742 0.0449226
0.725475 0.0854353 0.0449226
0.726085 0.085481 0.0449226
0.726436 0.0855116 0.0449226
0.726619 0.0855268 0.0449226
0.726879 0.0855421 0.0449226
0.727047 0.0855573 0.0449226
0.727047 0.0855573 0.0449226
0.727047 0.0855573 0.0449226
0.018555 0.0430152 0.0433967
0.0196231 0.0439002 0.0437629
0.0214847 0.0455177 0.044358
0.0247807 0.0467689 0.0440681
0.0313268 0.0482338 0.0438697
0.0426337 0.0487831 0.0442206
0.0596933 0.052018 0.046067
0.0808881 0.0531472 0.0475471
0.107912 0.0534218 0.0487984
0.146105 0.0554971 0.0500038
0.198749 0.0587778 0.0501717
0.26128 0.0651408 0.0498665
0.327962 0.0657816 0.0469673
0.396933 0.0608682 0.0432136
0.455894 0.0596628 0.0423438
0.505974 0.0652476 0.0431678
0.550912 0.0702068 0.0437476
0.592737 0.0743267 0.0441138
0.631632 0.0780652 0.0443885
0.664759 0.0809186 0.0446174
0.691814 0.0830549 0.0447852
0.709651 0.0843977 0.0448005
0.718807 0.0849928 0.0448768
0.722835 0.0852674 0.0449073
0.724605 0.0853742 0.0449226
0.725475 0.0854353 0.0449226
0.726009 0.085481 0.0449226
0.72636 0.0854963 0.0449226
0.726619 0.0855268 0.0449226
0.726879 0.0855421 0.0449226
0.727047 0.0855573 0.0449226
0.727047 0.0855573 0.0449226
0.727047 0.0855573 0.0449226
0.0208743 0.0530861 0.0485389
0.0211795 0.0531777 0.0484321
0.0218967 0.0535744 0.0483406
0.0239719 0.0542916 0.0475929
0.028687 0.0563363 0.0467842
0.0437171 0.061799 0.0476997
0.0627146 0.0653544 0.049485
0.0842603 0.0665446 0.0506752
0.111513 0.0662242 0.0517586
0.150546 0.0692607 0.053193
0.202945 0.0735943 0.0532692
0.264729 0.0759594 0.0514839
0.328115 0.0705882 0.0475929
0.395453 0.0619974 0.043473
0.454871 0.0596323 0.0423438
0.505333 0.0652018 0.0431525
0.550484 0.070161 0.0437476
0.592355 0.0742962 0.0440986
0.631266 0.0780499 0.0443885
0.6645 0.0808881 0.0446174
0.691554 0.0830243 0.0447852
0.70956 0.0843977 0.0448005
0.718715 0.0849775 0.0448768
0.722835 0.0852674 0.0449073
0.724605 0.0853742 0.0449226
0.725475 0.0854353 0.0449226
0.726009 0.085481 0.0449226
0.72636 0.0854963 0.0449226
0.726619 0.0855268 0.0449226
0.726879 0.0855421 0.0449226
0.727047 0.0855573 0.0449226
0.727047 0.0855573 0.0449226
0.727047 0.0855573 0.0449226
0.024033 0.0683604 0.0578927
0.0240482 0.0680552 0.0576028
0.0243687 0.0678569 0.0570687
0.0252995 0.0678264 0.0560769
0.0280461 0.0682689 0.053666
0.0389258 0.0756695 0.0522774
0.0640116 0.0837415 0.0543679
0.0888991 0.0867781 0.0557412
0.116594 0.0867781 0.0563058
0.155764 0.0916304 0.0575113
0.208118 0.0983291 0.0574044
0.271656 0.09691 0.0540932
0.333562 0.0876783 0.0492866
0.397192 0.0733196 0.0449683
0.453727 0.0614633 0.0426337
0.504326 0.0652323 0.0431525
0.549752 0.0701305 0.0437324
0.591928 0.0742504 0.0440986
0.63093 0.0780194 0.0443885
0.664332 0.0808728 0.0446174
0.691463 0.0830243 0.0447852
0.70956 0.0843977 0.0448005
0.718715 0.0849775 0.0448768
0.722759 0.0852522 0.0449073
0.724605 0.0853742 0.0449226
0.725475 0.0854353 0.0449226
0.726009 0.085481 0.0449226
0.72636 0.0854963 0.0449226
0.726619 0.0855268 0.0449226
0.726879 0.0855421 0.0449226
0.727047 0.0855573 0.0449226
0.727047 0.0855573 0.0449226
0.727047 0.0855573 0.0449226
0.0271 0.0883803 0.071046
0.0270542 0.0879988 0.0707713
0.0272068 0.0876936 0.0703136
0.0275883 0.087541 0.069749
0.0291752 0.0877699 0.0681315
0.033814 0.0898299 0.0628367
0.0500038 0.101656 0.0596323
0.0886091 0.111635 0.0627756
0.120287 0.115404 0.0637217
0.16083 0.12018 0.0638743
0.212818 0.127703 0.0629587
0.276646 0.125322 0.0579385
0.343008 0.114122 0.0514229
0.401984 0.0988785 0.0465095
0.455314 0.0819257 0.0450141
0.503441 0.0699474 0.0439155
0.548959 0.0706188 0.0437781
0.591424 0.0743267 0.0440833
0.630457 0.0780194 0.044358
0.664134 0.0808881 0.0446021
0.691279 0.0830243 0.04477
0.709468 0.0843824 0.0448005
0.718624 0.0849775 0.0448768
0.722759 0.0852522 0.0449073
0.724605 0.0853742 0.0449226
0.725475 0.0854353 0.0449226
0.726009 0.085481 0.0449226
0.72636 0.0854963 0.0449226
0.726619 0.0855268 0.0449226
0.726879 0.0855421 0.0449226
0.727047 0.0855573 0.0449226
0.727047 0.0855573 0.0449226
0.727047 0.0855573 0.0449226
0.0300603 0.114961 0.090013
0.0299992 0.114366 0.0895552
0.0299992 0.113985 0.0892348
0.0301366 0.113725 0.088838
0.0305791 0.113649 0.088304
0.032639 0.114031 0.0863813
0.0400244 0.116823 0.0772869
0.0650187 0.134813 0.0712444
0.116823 0.145663 0.0738231
0.165667 0.152651 0.0737469
0.219669 0.157733 0.0711986
0.285069 0.154818 0.064332
0.355016 0.145205 0.0563058
0.412116 0.133104 0.0507668
0.459632 0.118227 0.0471351
0.505867 0.100084 0.0463874
0.549386 0.0896468 0.0462501
0.590906 0.0796368 0.0450141
0.629999 0.0788128 0.04448
0.663706 0.0809796 0.0445869
0.691081 0.0830396 0.04477
0.709285 0.0843977 0.0448005
0.718608 0.0849928 0.0448615
0.722759 0.0852522 0.0449073
0.724605 0.0853742 0.0449226
0.725475 0.0854353 0.0449226
0.726009 0.085481 0.0449226
0.72636 0.0854963 0.0449226
0.726619 0.0855268 0.0449226
0.726879 0.0855421 0.0449226
0.727047 0.0855573 0.0449226
0.727047 0.0855573 0.0449226
0.727047 0.0855573 0.0449226
0.033875 0.153628 0.11928
0.0337987 0.15285 0.118669
0.033753 0.152346 0.118273
0.0337377 0.151919 0.117906
0.0337835 0.151507 0.117525
0.0342565 0.151217 0.116884
0.0379034 0.152148 0.114534
0.05066 0.157076 0.0975357
0.0837873 0.176898 0.087068
0.152407 0.189227 0.086717
0.228336 0.192767 0.0823224
0.294026 0.191699 0.0749676
0.368338 0.181659 0.0647746
0.425086 0.173602 0.0581674
0.470634 0.165072 0.0553445
0.515023 0.151553 0.0522774
0.557137 0.135912 0.0500038
0.595926 0.119234 0.0489509
0.633173 0.109285 0.0487373
0.664881 0.0994278 0.0479591
0.691005 0.0899519 0.0462196
0.709194 0.0859846 0.0451362
0.718578 0.0851911 0.044892
0.722744 0.0852827 0.044892
0.72459 0.0853895 0.0449073
0.725475 0.0854353 0.0449226
0.726009 0.085481 0.0449226
0.72636 0.0854963 0.0449226
0.726619 0.0855268 0.0449226
0.726879 0.0855421 0.0449226
0.727047 0.0855573 0.0449226
0.727047 0.0855573 0.0449226
0.727047 0.0855573 0.0449226
0.035172 0.197375 0.149279
0.0351568 0.196582 0.148775
0.035172 0.195804 0.148257
0.035172 0.195361 0.147951
0.0352026 0.19501 0.147707
0.0352483 0.194583 0.147387
0.0359655 0.194476 0.146731
0.0416419 0.195636 0.143206
0.0602884 0.202304 0.119554
0.102632 0.225406 0.10428
0.204044 0.23566 0.0978714
0.304799 0.232654 0.0879225
0.376501 0.22678 0.0779431
0.437354 0.219028 0.0700542
0.482139 0.215946 0.0657969
0.52488 0.211185 0.0626688
0.568826 0.201236 0.0608225
0.609537 0.188235 0.0579538
0.646815 0.17348 0.0551308
0.676966 0.155764 0.053315
0.700526 0.137987 0.052079
0.714885 0.124086 0.0510567
0.720913 0.109407 0.0497139
0.722637 0.0910048 0.0462654
0.724437 0.0856184 0.0449226
0.72546 0.0854505 0.0449226
0.726009 0.085481 0.0449226
0.72636 0.0854963 0.0449226
0.726619 0.0855268 0.0449226
0.726879 0.0855421 0.0449226
0.727047 0.0855573 0.0449226
0.727047 0.0855573 0.0449226
0.727047 0.0855573 0.0449226
0.0328069 0.240543 0.177386
0.0328527 0.239841 0.176944
0.032929 0.239048 0.176425
0.0329595 0.238529 0.176089
0.03299 0.238087 0.175799
0.0330205 0.237644 0.175525
0.033051 0.237385 0.175341
0.0340734 0.237354 0.174563
0.0487068 0.23946 0.16672
0.0726024 0.25211 0.129763
0.142916 0.278141 0.122759
0.283085 0.279133 0.104707
0.386053 0.275746 0.0934768
0.441657 0.272053 0.086656
0.491035 0.267918 0.0813916
0.535576 0.266682 0.0774548
0.577508 0.263325 0.07364
0.617594 0.256809 0.0702983
0.656489 0.246952 0.0682383
0.689357 0.235874 0.0658274
0.715328 0.222705 0.0631266
0.730922 0.204746 0.0594186
0.73608 0.179889 0.0558938
0.733547 0.148165 0.0531777
0.730053 0.125399 0.0513466
0.725429 0.0971084 0.0478218
0.725948 0.0861982 0.0450752
0.72636 0.0854963 0.0449226
0.726619 0.0855268 0.0449226
0.726879 0.0855421 0.0449226
0.727047 0.0855573 0.0449226
0.727047 0.0855573 0.0449226
0.727047 0.0855573 0.0449226
0.029572 0.283421 0.203861
0.029633 0.282719 0.203449
0.0296941 0.282017 0.203052
0.0297551 0.281498 0.202731
0.0298161 0.281056 0.202472
0.0298466 0.280613 0.202213
0.0298772 0.280262 0.202014
0.0301213 0.280034 0.20174
0.0337987 0.280171 0.199496
0.0682078 0.283528 0.180331
0.0958877 0.307927 0.125658
0.225025 0.328145 0.132647
0.373449 0.323995 0.110994
0.44715 0.326513 0.104372
0.493782 0.325277 0.0998093
0.541527 0.321599 0.0950942
0.586053 0.318715 0.0909438
0.627176 0.3149 0.0872663
0.664622 0.310445 0.0838026
0.696727 0.30425 0.0808118
0.723186 0.295827 0.0782483
0.740185 0.284321 0.0755169
0.747921 0.269749 0.0723888
0.749722 0.249393 0.0682841
0.747555 0.219867 0.0622873
0.740475 0.169543 0.0548562
0.733028 0.132006 0.0518196
0.726589 0.0990311 0.0483101
0.726604 0.0855421 0.0449226
0.726879 0.0855421 0.0449226
0.727047 0.0855573 0.0449226
0.727047 0.0855573 0.0449226
0.727047 0.0855573 0.0449226
0.025803 0.327092 0.228305
0.025864 0.326192 0.227832
0.0259251 0.325399 0.227405
0.0259709 0.324865 0.2271
0.0260014 0.324498 0.226917
0.0260471 0.323873 0.226581
0.0260624 0.323705 0.22649
0.0260929 0.323262 0.226246
0.027039 0.323079 0.225742
0.0412757 0.324407 0.220722
0.0866712 0.331655 0.18645
0.174578 0.364111 0.147799
0.334417 0.372229 0.131197
0.438346 0.373892 0.122164
0.499458 0.379126 0.11754
0.544625 0.378225 0.11313
0.59086 0.373739 0.108995
0.634226 0.369787 0.105577
0.673289 0.366293 0.102571
0.705791 0.362234 0.0997024
0.731579 0.357168 0.0967269
0.748562 0.350484 0.093843
0.756222 0.341329 0.0905776
0.758419 0.329305 0.0869612
0.7579 0.311742 0.0821851
0.756039 0.285405 0.0760662
0.751934 0.242664 0.0671855
0.742779 0.17705 0.0556954
0.730312 0.117601 0.0502785
0.726848 0.0912947 0.0464332
0.727047 0.0855573 0.0449226
0.727047 0.0855573 0.0449226
0.727047 0.0855573 0.0449226
0.0238804 0.369757 0.25037
0.0238804 0.368704 0.249866
0.0238804 0.368185 0.249607
0.0238804 0.367483 0.249256
0.0238804 0.367132 0.249088
0.0238651 0.366613 0.248829
0.0238651 0.36643 0.248753
0.0238651 0.366003 0.248539
0.0238651 0.36556 0.248325
0.025864 0.365438 0.247639
0.0558175 0.366796 0.239292
0.11397 0.387228 0.176577
0.28275 0.411139 0.166537
0.413947 0.417746 0.139376
0.4934 0.423163 0.137438
0.55053 0.428992 0.13257
0.596597 0.429099 0.129381
0.639857 0.425086 0.125811
0.680674 0.42092 0.122621
0.714931 0.417212 0.119829
0.741848 0.413245 0.117494
0.75967 0.408469 0.115206
0.767849 0.402152 0.112459
0.770016 0.393591 0.109056
0.769543 0.382727 0.105043
0.767391 0.367391 0.0994583
0.763699 0.344991 0.0914626
0.759213 0.307225 0.0813458
0.75111 0.231647 0.0648661
0.738582 0.153445 0.0539406
0.728328 0.105287 0.0492256
0.727047 0.0855573 0.0449226
0.727047 0.0855573 0.0449226
0.0259861 0.410269 0.270115
0.025864 0.409308 0.269657
0.0257877 0.408606 0.269337
0.0257267 0.408072 0.269093
0.0256657 0.407645 0.268879
0.0256199 0.407294 0.268711
0.0255741 0.406851 0.268513
0.0255283 0.4065 0.268345
0.0254826 0.406317 0.268269
0.0254368 0.40589 0.268055
0.0297093 0.406012 0.267231
0.0953536 0.407813 0.251804
0.197757 0.438987 0.180179
0.374166 0.454719 0.177554
0.471687 0.466178 0.15584
0.543633 0.472267 0.153811
0.599619 0.477989 0.150179
0.646494 0.479362 0.147265
0.686885 0.475914 0.144472
0.722652 0.472145 0.141695
0.750729 0.468315 0.139315
0.769741 0.464225 0.137285
0.779202 0.459281 0.135195
0.782422 0.452979 0.132616
0.782773 0.444938 0.129381
0.781552 0.434424 0.125063
0.779019 0.419593 0.119005
0.77435 0.397757 0.110521
0.767926 0.36463 0.098436
0.758801 0.299489 0.0801099
0.747478 0.201816 0.0591745
0.73051 0.116609 0.0500801
0.727047 0.0855573 0.0449226
0.0315099 0.449393 0.28777
0.0314031 0.448615 0.287419
0.0312963 0.447929 0.287114
0.0312047 0.447333 0.286854
0.0310979 0.446815 0.286641
0.0310369 0.446479 0.286488
0.0309911 0.446128 0.286336
0.03093 0.445792 0.286198
0.0308843 0.445441 0.286046
0.0308537 0.445274 0.285969
0.0320439 0.444938 0.285664
0.0513008 0.445472 0.28304
0.141344 0.448814 0.253178
0.310521 0.482139 0.202625
0.439719 0.501747 0.191516
0.52517 0.513619 0.173419
0.591501 0.519982 0.171023
0.645975 0.525856 0.168154
0.69308 0.528481 0.165957
0.729335 0.526192 0.164324
0.757961 0.52311 0.162768
0.77818 0.519234 0.160739
0.788586 0.51519 0.158755
0.792477 0.510246 0.156497
0.793637 0.504494 0.154025
0.793423 0.496559 0.150668
0.792065 0.485893 0.146029
0.789639 0.471138 0.139742
0.785794 0.449653 0.131167
0.779293 0.417212 0.118059
0.76733 0.359457 0.0966049
0.753292 0.245716 0.0679789
0.740902 0.163729 0.0548562
0.0391089 0.487526 0.301961
0.0389105 0.486763 0.301717
0.0387427 0.486 0.301457
0.0386358 0.485496 0.301274
0.0385443 0.485069 0.301137
0.0384375 0.484565 0.300969
0.0383917 0.484306 0.300877
0.0383154 0.483955 0.300755
0.0382391 0.483619 0.300649
0.0381933 0.48336 0.300557
0.038117 0.483024 0.30045
0.041413 0.482826 0.300069
0.088426 0.483528 0.296361
0.196262 0.497871 0.239643
0.398093 0.525963 0.223819
0.495949 0.548608 0.206363
0.574487 0.559899 0.191333
0.637629 0.566812 0.188678
0.690593 0.572534 0.186099
0.733562 0.575753 0.185168
0.764569 0.574838 0.184909
0.785489 0.572534 0.18471
0.796704 0.569436 0.18349
0.800946 0.565759 0.181857
0.802365 0.561181 0.179812
0.802548 0.555444 0.177203
0.801938 0.547753 0.173785
0.800687 0.537163 0.168902
0.798718 0.52253 0.162112
0.795727 0.501305 0.152911
0.789868 0.468894 0.138888
0.778668 0.413825 0.116716
0.770108 0.373556 0.101671
0.0484016 0.524254 0.312642
0.0481727 0.523491 0.312444
0.0479744 0.522728 0.312245
0.0478218 0.522316 0.312139
0.047715 0.521889 0.312032
0.0475929 0.521385 0.311894
0.0474861 0.521141 0.311833
0.0473945 0.520806 0.311742
0.0473182 0.52047 0.31165
0.0472267 0.520119 0.311574
0.0471809 0.519951 0.311528
0.0470588 0.519615 0.311437
0.0523079 0.519387 0.311299
0.136034 0.518578 0.309545
0.30016 0.539986 0.245197
0.458366 0.572305 0.242893
0.547906 0.593469 0.221378
0.620478 0.604807 0.20914
0.680446 0.612268 0.206317
0.729335 0.617426 0.204349
0.765972 0.620676 0.204349
0.790784 0.621607 0.205112
0.803479 0.619776 0.205066
0.80824 0.617227 0.204349
0.810025 0.614099 0.203189
0.810513 0.609979 0.201526
0.810422 0.6047 0.199313
0.809781 0.597421 0.196033
0.808621 0.587335 0.191333
0.80679 0.573144 0.185031
0.803815 0.552483 0.175952
0.798779 0.520134 0.16144
0.795468 0.498329 0.152087
0.0597238 0.559182 0.321065
0.0594644 0.558511 0.320912
0.0591897 0.557763 0.320729
0.0590066 0.55726 0.320623
0.0588235 0.556848 0.320516
0.0586709 0.556435 0.320424
0.0585794 0.5561 0.320348
0.0584878 0.55584 0.320287
0.0583505 0.55552 0.320211
0.0582437 0.555261 0.32015
0.0581216 0.554925 0.320073
0.0580758 0.554757 0.320027
0.0579843 0.554513 0.319966
0.0656901 0.554391 0.320348
0.202716 0.548135 0.318715
0.396597 0.581384 0.264576
0.512856 0.617166 0.258244
0.597513 0.636652 0.23682
0.664393 0.647562 0.226871
0.720012 0.654963 0.223667
0.760967 0.659785 0.222156
0.788968 0.662593 0.221561
0.805051 0.663096 0.221424
0.811215 0.66212 0.221073
0.813993 0.660487 0.220508
0.815366 0.658106 0.219623
0.816159 0.654932 0.218479
0.81648 0.650355 0.216831
0.816052 0.643839 0.214633
0.815412 0.634714 0.211521
0.813947 0.621515 0.206271
0.811093 0.601724 0.197253
0.809201 0.588739 0.191318
0.074052 0.590814 0.328206
0.0736553 0.590066 0.328038
0.0733349 0.589487 0.327901
0.073106 0.589075 0.32781
0.0729076 0.588663 0.327718
0.0727092 0.588327 0.327626
0.0726024 0.588083 0.327581
0.0723888 0.587747 0.327504
0.072282 0.587503 0.327443
0.0722057 0.587335 0.327413
0.0720531 0.587091 0.327352
0.0719005 0.586847 0.327291
0.0718242 0.586679 0.327245
0.0717327 0.586511 0.327214
0.0840772 0.586404 0.328283
0.259464 0.576516 0.315801
0.45977 0.625498 0.285084
0.564553 0.659144 0.271168
0.643824 0.676768 0.251667
0.705989 0.687251 0.243687
0.753262 0.694179 0.240894
0.785519 0.698085 0.239612
0.803571 0.699748 0.238972
0.810269 0.699519 0.238407
0.813245 0.698375 0.237644
0.814618 0.696818 0.236789
0.815518 0.694743 0.235752
0.816037 0.691798 0.234287
0.816388 0.687953 0.232441
0.816861 0.682704 0.229892
0.817105 0.675319 0.226551
0.817365 0.664378 0.222248
0.817472 0.657282 0.219638
0.0929885 0.617288 0.335042
0.092546 0.616724 0.334874
0.0921645 0.616312 0.334752
0.0918441 0.6159 0.334646
0.0916457 0.615656 0.334585
0.0914015 0.61532 0.334493
0.0912032 0.615076 0.334432
0.0910048 0.614832 0.334356
0.0908827 0.614664 0.33431
0.0906844 0.61442 0.334249
0.0905623 0.614252 0.334203
0.0903639 0.614008 0.334142
0.0902724 0.613931 0.334112
0.0901503 0.613764 0.334066
0.090074 0.613687 0.334035
0.106996 0.613581 0.336034
0.303212 0.609186 0.298131
0.514488 0.665248 0.301885
0.613291 0.695796 0.280919
0.687694 0.711864 0.264729
0.742336 0.721492 0.258503
0.779995 0.726955 0.256184
0.801572 0.729702 0.2551
0.809049 0.730129 0.254536
0.812314 0.72961 0.253895
0.813779 0.728725 0.253254
0.814664 0.727489 0.252476
0.815183 0.725841 0.25153
0.815534 0.723583 0.250248
0.815991 0.720546 0.248539
0.816205 0.716289 0.246372
0.816464 0.710002 0.243229
0.816587 0.705806 0.241138
0.111467 0.638453 0.340963
0.11104 0.63798 0.340841
0.110765 0.637659 0.340749
0.110475 0.637354 0.340673
0.110231 0.63711 0.340597
0.110063 0.636866 0.340536
0.109834 0.636713 0.34049
0.109697 0.636561 0.340444
0.109529 0.636316 0.340383
0.109392 0.636149 0.340352
0.10927 0.636072 0.340322
0.109133 0.63592 0.340276
0.109102 0.635843 0.340261
0.108965 0.635676 0.340215
0.108858 0.635599 0.340185
0.108721 0.635447 0.340154
0.129137 0.634775 0.341878
0.387991 0.640101 0.306966
0.564996 0.699962 0.31107
0.65948 0.727291 0.287922
0.727123 0.74139 0.275334
0.771756 0.749065 0.270741
0.797925 0.753109 0.269062
0.807584 0.75407 0.268299
0.811521 0.754131 0.267796
0.813153 0.753735 0.267353
0.813947 0.752926 0.266789
0.814542 0.751995 0.266178
0.814862 0.750683 0.265385
0.815198 0.748867 0.264317
0.815442 0.746426 0.262898
0.81561 0.743206 0.261036
0.815671 0.741161 0.259892
0.126848 0.654307 0.34519
0.126543 0.653986 0.345098
0.126345 0.653758 0.345037
0.126085 0.653513 0.344976
0.125917 0.653361 0.34493
0.125887 0.653284 0.344915
0.125734 0.653132 0.344884
0.125582 0.652979 0.344839
0.125429 0.652811 0.344793
0.125307 0.652735 0.344762
0.125277 0.652659 0.344747
0.125124 0.652506 0.344701
0.125124 0.652506 0.344701
0.124971 0.652354 0.344671
0.124941 0.652262 0.34464
0.124849 0.652277 0.34464
0.124819 0.652186 0.344625
0.145785 0.651057 0.346075
0.452857 0.672587 0.324224
0.612375 0.729442 0.314443
0.70219 0.753323 0.292897
0.759609 0.764797 0.283833
0.792645 0.770565 0.280888
0.806027 0.772549 0.27985
0.811048 0.772961 0.27924
0.812863 0.772854 0.278874
0.813703 0.772503 0.278508
0.814282 0.771939 0.27805
0.814557 0.771237 0.277562
0.814847 0.770199 0.276875
0.81503 0.768811 0.275959
0.815122 0.766979 0.2748
0.815122 0.765896 0.274128
0.137835 0.665171 0.348241
0.13756 0.664958 0.34818
0.137407 0.66482 0.348135
0.137331 0.664683 0.348104
0.137179 0.66453 0.348074
0.137057 0.664469 0.348043
0.136934 0.664393 0.348028
0.136873 0.664256 0.347997
0.136782 0.664256 0.347982
0.136751 0.664179 0.347967
0.136721 0.664103 0.347951
0.136599 0.664042 0.347921
0.136568 0.663966 0.347906
0.136446 0.663905 0.34789
0.136446 0.663905 0.34789
0.136416 0.663828 0.347875
0.136294 0.663752 0.347845
0.136294 0.663752 0.347845
0.154833 0.662318 0.348775
0.510704 0.702205 0.334768
0.656214 0.752605 0.313497
0.73875 0.772488 0.295521
0.784695 0.781506 0.28986
0.804135 0.784894 0.288182
0.810636 0.785794 0.287495
0.812711 0.786023 0.287236
0.813748 0.785885 0.286946
0.814221 0.785733 0.286748
0.814588 0.785397 0.286458
0.814862 0.784955 0.286122
0.815061 0.784314 0.285679
0.815152 0.783413 0.2851
0.815152 0.78291 0.284779
0.145312 0.67158 0.349828
0.145281 0.671504 0.349813
0.145144 0.671443 0.349798
0.145113 0.671366 0.349783
0.145006 0.671382 0.349783
0.144976 0.671305 0.349767
0.144945 0.671229 0.349752
0.144839 0.671244 0.349737
0.144808 0.671168 0.349722
0.144808 0.671168 0.349722
0.144671 0.671107 0.349706
0.144671 0.671107 0.349706
0.144671 0.671107 0.349706
0.14464 0.671031 0.349691
0.14464 0.671031 0.349691
0.14464 0.671031 0.349691
0.144503 0.67097 0.349676
0.144503 0.67097 0.349676
0.144503 0.67097 0.349676
0.15552 0.670085 0.350179
0.563943 0.727932 0.33872
0.699321 0.771145 0.309697
0.76936 0.786679 0.297398
0.800992 0.792752 0.294224
0.809827 0.794293 0.2934
0.812543 0.794659 0.293065
0.813672 0.794705 0.292866
0.814328 0.794675 0.292714
0.81471 0.794491 0.292515
0.814984 0.794308 0.292332
0.815167 0.794018 0.292088
0.815259 0.79353 0.291752
0.815244 0.793286 0.2916
0.149432 0.67454 0.350576
0.149386 0.674464 0.350561
0.149386 0.674464 0.350561
0.149264 0.674403 0.350545
0.149264 0.674403 0.350545
0.149218 0.674327 0.35053
0.149218 0.674327 0.35053
0.149126 0.674342 0.35053
0.149096 0.674266 0.350515
0.149096 0.674266 0.350515
0.149096 0.674266 0.350515
0.149096 0.674266 0.350515
0.14905 0.674189 0.3505
0.148959 0.674205 0.3505
0.148959 0.674205 0.3505
0.148959 0.674205 0.3505
0.148928 0.674128 0.350484
0.148928 0.674128 0.350484
0.148928 0.674128 0.350484
0.149432 0.674083 0.3505
0.165805 0.672801 0.351293
0.603326 0.744671 0.335378
0.735149 0.782696 0.305104
0.790661 0.794293 0.297581
0.807538 0.797513 0.296071
0.812039 0.798306 0.295644
0.813535 0.79852 0.29546
0.814282 0.798581 0.295338
0.814664 0.798581 0.295247
0.81503 0.798566 0.295171
0.815229 0.79852 0.295094
0.81532 0.798383 0.294972
0.81532 0.798291 0.294926
0.152209 0.676417 0.35108
0.152102 0.676432 0.351064
0.152071 0.676356 0.351049
0.152071 0.676356 0.351049
0.152071 0.676356 0.351049
0.151934 0.676295 0.351034
0.151934 0.676295 0.351034
