public/luts/Halloween2.cube
TITLE "Generated by Resolve"
LUT_3D_SIZE 5
0.0136263 0.0285954 0.0363928
0.0417639 0.0337682 0.0396887
0.294774 0.0626535 0.0477607
0.651911 0.0798352 0.0445258
0.726085 0.085481 0.0449226
0.0223545 0.0594492 0.0512856
0.0362707 0.0680095 0.049012
0.306401 0.0802319 0.0498817
0.661707 0.0806592 0.0445869
0.726268 0.0854963 0.0449226
0.0284276 0.295308 0.210758
0.0278782 0.301472 0.214221
0.294301 0.351583 0.128771
0.700679 0.333654 0.0898299
0.733654 0.133684 0.052369
0.0666514 0.576593 0.324926
0.0694743 0.5823 0.326253
0.0701152 0.583459 0.326513
0.705043 0.684245 0.241947
0.8159 0.688319 0.232578
0.152239 0.676493 0.35108
0.152682 0.676753 0.351156
0.152712 0.676829 0.351171
0.15285 0.67689 0.351186
0.813855 0.801694 0.297505
0.0170138 0.0359655 0.0549935
0.0503548 0.0396124 0.0653391
0.30486 0.0528725 0.0502022
0.65243 0.079881 0.0445258
0.726085 0.085481 0.0449226
0.0238804 0.0691691 0.0744945
0.0463417 0.0838178 0.0831769
0.312779 0.0703136 0.0564889
0.663035 0.0807507 0.0446021
0.726268 0.0854963 0.0449226
0.0283207 0.295323 0.211566
0.0276799 0.301854 0.215473
0.295766 0.352163 0.128832
0.702556 0.334462 0.0900282
0.732708 0.129244 0.0518807
0.0675517 0.5785 0.325368
0.0704967 0.584039 0.32665
0.0711528 0.585275 0.32694
0.707988 0.686748 0.243046
0.815961 0.69073 0.233768
0.152377 0.676555 0.351095
0.15285 0.67689 0.351186
0.15288 0.676966 0.351202
0.152987 0.676951 0.351202
0.813855 0.801862 0.297612
0.046479 0.153918 0.257984
0.064622 0.1523 0.263264
0.395514 0.10399 0.29192
0.695781 0.0882887 0.244465
0.726085 0.085481 0.0449226
0.0464179 0.155291 0.260288
0.0553292 0.157336 0.26746
0.403311 0.107988 0.305104
0.709178 0.0936751 0.263371
0.726268 0.0854963 0.0449226
0.0195315 0.363272 0.368383
0.0189059 0.371221 0.374823
0.337713 0.385595 0.35938
0.739834 0.316808 0.286336
0.728664 0.110979 0.0500191
0.0733959 0.626154 0.414176
0.0740826 0.634806 0.419074
0.0742046 0.633616 0.416373
0.724941 0.705287 0.322988
0.815961 0.690639 0.233738
0.151858 0.678538 0.355261
0.152041 0.679332 0.35642
0.152819 0.679088 0.355856
0.153552 0.677302 0.352148
0.813962 0.801877 0.297612
0.0809949 0.324956 0.548394
0.0809339 0.324529 0.547601
0.317266 0.272099 0.662318
0.737331 0.230289 0.612589
0.817197 0.207599 0.560998
0.0814374 0.327199 0.552575
0.0818494 0.329061 0.556146
0.319051 0.278523 0.675853
0.750729 0.237476 0.62884
0.81976 0.217044 0.5823
0.0764782 0.366629 0.591714
0.0720378 0.371328 0.598199
0.221103 0.358785 0.615015
0.759655 0.27837 0.644327
0.820584 0.219944 0.5888
0.0200809 0.732418 0.718166
0.0211795 0.740246 0.725582
0.0214084 0.742061 0.726833
0.752316 0.764431 0.734844
0.886473 0.73492 0.674556
0.038468 0.843473 0.698344
0.0380407 0.845975 0.707012
0.0379339 0.846738 0.709636
0.0386664 0.845838 0.705791
0.900252 0.897658 0.65536
0.100298 0.370199 0.641276
0.100298 0.370199 0.641276
0.100221 0.370153 0.641169
0.702174 0.301137 0.767391
0.824308 0.299397 0.762234
0.100435 0.370275 0.641474
0.100496 0.370321 0.641581
0.100496 0.370321 0.641581
0.716304 0.301656 0.76817
0.824445 0.300191 0.763912
0.100435 0.370275 0.641474
0.100572 0.370352 0.641657
0.100572 0.370367 0.641703
0.716136 0.301839 0.768566
0.824506 0.300465 0.764508
0.0253758 0.675273 0.844343
0.0247501 0.680995 0.844724
0.0246586 0.682521 0.8448
0.678614 0.67538 0.851377
0.882826 0.655573 0.83801
0.0366064 0.875227 0.843961
0.0366369 0.875669 0.844236
0.0366522 0.875853 0.844358
0.0366522 0.875898 0.844404
0.905669 0.920211 0.885969
