public/luts/Halloween-0.cube
TITLE "Generated by Resolve"
LUT_3D_SIZE 5
0.0168002 0.0332189 0.0395666
0.109285 0.0443732 0.0465705
0.553124 0.0704204 0.0437629
0.724697 0.0853742 0.0449226
0.727047 0.0855573 0.0449226
0.033875 0.153628 0.11928
0.0837873 0.176898 0.087068
0.557137 0.135912 0.0500038
0.72459 0.0853895 0.0449073
0.727047 0.0855573 0.0449226
0.0391089 0.487526 0.301961
0.0382391 0.483619 0.300649
0.574487 0.559899 0.191333
0.802365 0.561181 0.179812
0.770108 0.373556 0.101671
0.145312 0.67158 0.349828
0.144808 0.671168 0.349722
0.144503 0.67097 0.349676
0.809827 0.794293 0.2934
0.815244 0.793286 0.2916
0.157107 0.679866 0.351965
0.157107 0.679866 0.351965
0.157107 0.679866 0.351965
0.157107 0.679866 0.351965
0.815396 0.805341 0.299611
0.0310216 0.0746624 0.127352
0.147814 0.073106 0.167498
0.578378 0.0521706 0.109331
0.724697 0.0853742 0.0449226
0.727047 0.0855573 0.0449226
0.034287 0.18706 0.200031
0.109651 0.197971 0.190677
0.581598 0.0958724 0.106691
0.724498 0.0853895 0.0449073
0.727047 0.0855573 0.0449226
0.0336309 0.493431 0.321233
0.0334936 0.487678 0.315999
0.572747 0.557641 0.190326
0.801892 0.55874 0.178668
0.768521 0.365515 0.0987411
0.145586 0.671473 0.349828
0.144976 0.671077 0.349722
0.144472 0.670893 0.34966
0.809735 0.794034 0.293248
0.815244 0.792966 0.291371
0.157107 0.679866 0.351965
0.157107 0.679866 0.351965
0.157107 0.679866 0.351965
0.157107 0.679866 0.351965
0.815396 0.805341 0.299611
0.0702525 0.26424 0.442344
0.12076 0.261387 0.456977
0.632349 0.18497 0.508492
0.803052 0.165545 0.46334
0.727047 0.0855573 0.0449226
0.0699168 0.266682 0.446052
0.0900282 0.263737 0.447669
0.624781 0.183917 0.50605
0.802258 0.163836 0.459236
0.727047 0.0855573 0.0449226
0.0159762 0.607858 0.601526
0.0161135 0.602106 0.59588
0.596582 0.618555 0.592081
0.854856 0.575448 0.509041
0.761349 0.320638 0.0847486
0.0654612 0.810071 0.599054
0.0674754 0.807889 0.593393
0.0704204 0.805417 0.586557
0.872114 0.860822 0.507362
0.815244 0.79263 0.291157
0.115938 0.747417 0.463081
0.118532 0.732967 0.444953
0.125322 0.722362 0.427222
0.145907 0.689586 0.368093
0.815396 0.805341 0.299611
0.0968948 0.368093 0.636027
0.0968338 0.368032 0.635904
0.596841 0.299763 0.764904
0.823163 0.294179 0.751217
0.824842 0.288701 0.739605
0.0970474 0.368215 0.636347
0.0967575 0.368017 0.635843
0.586328 0.299886 0.76527
0.823026 0.293568 0.749935
0.824857 0.287419 0.736828
0.0255741 0.545357 0.790387
0.025742 0.542397 0.788052
0.484993 0.519875 0.81915
0.857099 0.490349 0.792111
0.825025 0.287785 0.736904
0.0358282 0.865873 0.839078
0.0357366 0.864927 0.838697
0.0357061 0.8645 0.838453
0.882551 0.898833 0.864668
0.905165 0.894682 0.849805
0.0368963 0.879377 0.840024
0.0368963 0.879301 0.839521
0.0368963 0.879271 0.839231
0.0368963 0.87921 0.838575
0.908812 0.923476 0.848371
0.102312 0.371359 0.64416
0.102312 0.371359 0.64416
0.102312 0.371359 0.64416
0.822156 0.303593 0.771191
0.825071 0.303578 0.771115
0.102312 0.371359 0.64416
0.102312 0.371359 0.64416
0.102312 0.371359 0.64416
0.821714 0.303609 0.771206
0.825071 0.303578 0.771115
0.102312 0.371359 0.64416
0.102312 0.371359 0.64416
0.102312 0.371359 0.64416
0.821332 0.303609 0.771206
0.825071 0.303578 0.771115
0.0340581 0.84564 0.845045
0.0337987 0.842603 0.845029
0.0336767 0.841093 0.84506
0.858137 0.870176 0.882338
0.904967 0.860914 0.880583
0.0369116 0.88014 0.847135
0.0369116 0.88014 0.847135
0.0369116 0.88014 0.847135
0.0369116 0.88014 0.847135
0.92018 0.931991 0.898939
