public/luts/JOKER.cube
TITLE "Generated by Resolve"
LUT_3D_SIZE 9
0.000762951 0.0209812 0.0376898
0.000762951 0.0209812 0.0376898
0.00958267 0.0252079 0.0433967
0.0590066 0.0392462 0.0626688
0.294102 0.0683757 0.0949111
0.535012 0.0982986 0.103792
0.700755 0.127626 0.113634
0.764172 0.138811 0.117586
0.764172 0.138811 0.117586
0.00340276 0.0285496 0.0451209
0.00308232 0.0276341 0.0442206
0.0118105 0.0291905 0.0471962
0.0675212 0.041062 0.0651255
0.321126 0.0706645 0.0959335
0.560815 0.102663 0.105211
0.732647 0.133684 0.115648
0.764172 0.138811 0.117586
0.764172 0.138811 0.117586
0.00775158 0.0472877 0.0610971
0.00761425 0.0463722 0.0604562
0.013611 0.0462959 0.0618296
0.0817578 0.0552377 0.0762036
0.330114 0.071458 0.0962387
0.589639 0.10753 0.106844
0.764172 0.138811 0.117586
0.764172 0.138811 0.117586
0.764172 0.138811 0.117586
0.0186618 0.122942 0.10515
0.0197604 0.128634 0.107485
0.0218967 0.139666 0.112001
0.0879835 0.15108 0.124163
0.380957 0.158343 0.112459
0.654658 0.19115 0.122484
0.811078 0.220752 0.131395
0.818173 0.234211 0.134127
0.827436 0.252415 0.138811
0.0856641 0.307805 0.185031
0.0941482 0.327474 0.195117
0.106493 0.35642 0.210101
0.142016 0.376211 0.224598
0.355871 0.399832 0.202152
0.670558 0.408743 0.195026
0.87921 0.434409 0.19379
0.898009 0.447166 0.198474
0.903319 0.467506 0.206104
0.18381 0.549523 0.310155
0.192065 0.570642 0.32105
0.203891 0.600946 0.33669
0.217014 0.611276 0.343297
0.423911 0.619959 0.358495
0.633661 0.644114 0.277989
0.861372 0.659068 0.278492
0.941207 0.666545 0.284367
0.941909 0.679881 0.287617
0.269093 0.768826 0.422171
0.276997 0.789364 0.432456
0.286717 0.814542 0.444984
0.29456 0.812253 0.444907
0.500145 0.809277 0.461295
0.663493 0.830869 0.378592
0.847364 0.838621 0.339315
0.95314 0.843015 0.331151
0.953689 0.846738 0.332448
0.293156 0.831266 0.45333
0.293156 0.831266 0.45333
0.293156 0.831266 0.45333
0.312459 0.835691 0.457725
0.523369 0.869352 0.491646
0.68423 0.915816 0.445655
0.843091 0.94313 0.385443
0.969757 0.95346 0.37641
0.970092 0.95349 0.37641
0.293156 0.831266 0.45333
0.293156 0.831266 0.45333
0.293156 0.831266 0.45333
0.320089 0.836744 0.459113
0.526894 0.8701 0.491966
0.684962 0.916045 0.445151
0.84213 0.943038 0.38558
0.970016 0.953704 0.376516
0.970123 0.953719 0.376516
0.000762951 0.0209812 0.0376898
0.000762951 0.0209812 0.0376898
0.00975052 0.0252842 0.0434882
0.0597391 0.0393988 0.0628824
0.296315 0.0685435 0.0950027
0.536965 0.0986191 0.103883
0.702815 0.128008 0.113756
0.764172 0.138811 0.117586
0.764172 0.138811 0.117586
0.00344854 0.028687 0.0454261
0.00317388 0.0278782 0.0444953
0.0120394 0.0294652 0.0474556
0.0686351 0.0413062 0.0654459
0.324697 0.0709697 0.0960555
0.564446 0.103273 0.105409
0.736965 0.134478 0.115923
0.764172 0.138811 0.117586
0.764172 0.138811 0.117586
0.00782788 0.0478676 0.0615091
0.00773632 0.0471962 0.0610513
0.0140993 0.0470741 0.0625162
0.086183 0.0568551 0.0776684
0.338704 0.072221 0.0965286
0.598978 0.109117 0.107362
0.764172 0.138811 0.117586
0.764172 0.138811 0.117586
0.764172 0.138811 0.117586
0.019501 0.127275 0.10692
0.020798 0.133989 0.109682
0.0233005 0.14696 0.114992
0.0964981 0.159548 0.128344
0.394751 0.167788 0.114916
0.669291 0.201068 0.125017
0.815335 0.228763 0.133013
0.822644 0.242847 0.136126
0.832502 0.262623 0.141665
0.0899367 0.317708 0.190082
0.0987716 0.338201 0.200656
0.111589 0.368521 0.216388
0.15256 0.387411 0.231083
0.368566 0.411627 0.205463
0.682811 0.420081 0.199512
0.886397 0.444541 0.197604
0.900664 0.457115 0.202182
0.905974 0.478035 0.210163
0.187976 0.560204 0.315663
0.196399 0.58172 0.326787
0.208499 0.612833 0.342809
0.22565 0.622126 0.349477
0.434424 0.630884 0.362615
0.644556 0.6542 0.281376
0.871443 0.668391 0.281422
0.941634 0.674708 0.286351
0.942351 0.68806 0.289616
0.273289 0.779751 0.427634
0.281437 0.8009 0.438193
0.289937 0.822904 0.449165
0.302205 0.821393 0.449958
0.508278 0.817472 0.465187
0.670558 0.837919 0.380209
0.853956 0.844648 0.341161
0.953872 0.847974 0.332891
0.954269 0.851362 0.334112
0.293156 0.831266 0.45333
0.293156 0.831266 0.45333
0.293156 0.831266 0.45333
0.317433 0.836423 0.45864
0.527749 0.870268 0.492012
0.687465 0.916808 0.443427
0.847044 0.943511 0.384878
0.970123 0.953719 0.376516
0.970123 0.953719 0.376516
0.293156 0.831266 0.45333
0.293156 0.831266 0.45333
0.293156 0.831266 0.45333
0.323598 0.837247 0.459754
0.530282 0.870863 0.49221
0.687694 0.916884 0.443275
0.846403 0.94345 0.38497
0.970123 0.953719 0.376516
0.970123 0.953719 0.376516
0.00155642 0.0224155 0.0438697
0.0015259 0.0223392 0.043534
0.00988785 0.026154 0.0484016
0.0582895 0.0394598 0.0643778
0.295827 0.068513 0.0949874
0.536965 0.0986191 0.103883
0.703349 0.128099 0.113787
0.764172 0.138811 0.117586
0.764172 0.138811 0.117586
0.00389105 0.0294347 0.0515297
0.00361639 0.0286412 0.0504158
0.0117647 0.0301061 0.0525978
0.0677348 0.0415808 0.0675517
0.325322 0.0710307 0.0960708
0.566415 0.103609 0.105516
0.739788 0.134951 0.116106
0.764172 0.138811 0.117586
0.764172 0.138811 0.117586
0.00827039 0.048127 0.0664225
0.00817884 0.0475929 0.0658732
0.0156558 0.0476997 0.0690166
0.0879988 0.0585946 0.080827
0.346716 0.0729992 0.0967575
0.608469 0.110765 0.107897
0.764172 0.138811 0.117586
0.764172 0.138811 0.117586
0.764172 0.138811 0.117586
0.0203098 0.131472 0.108644
0.0218509 0.139437 0.11191
0.0252232 0.1552 0.118318
0.107393 0.169467 0.133547
0.410117 0.179049 0.117906
0.686702 0.212924 0.128069
0.820386 0.238422 0.134981
0.827634 0.252842 0.138933
0.83743 0.273213 0.144747
0.0946059 0.328542 0.195666
0.103899 0.350256 0.206897
0.117418 0.382605 0.223713
0.166171 0.401083 0.239216
0.383764 0.425589 0.20943
0.697292 0.433234 0.204913
0.894804 0.455589 0.201694
0.903288 0.467399 0.206073
0.908553 0.488228 0.214099
0.192615 0.572076 0.321798
0.201328 0.594339 0.333303
0.213535 0.625834 0.349477
0.236439 0.633829 0.356207
0.445808 0.642893 0.367376
0.656352 0.665141 0.285023
0.881743 0.67808 0.284459
0.942092 0.683131 0.288411
0.942763 0.69575 0.291493
0.277699 0.791226 0.433371
0.28574 0.812024 0.443732
0.292317 0.829068 0.452232
0.310124 0.830091 0.454871
0.51606 0.825727 0.469093
0.677623 0.845182 0.381872
0.860319 0.850629 0.343008
0.954437 0.852476 0.334524
0.954925 0.85565 0.335668
0.293156 0.831266 0.45333
0.293156 0.831266 0.45333
0.293156 0.831266 0.45333
0.321019 0.836927 0.459312
0.530983 0.871 0.492241
0.690272 0.917678 0.441489
0.850675 0.943862 0.38436
0.970123 0.953719 0.376516
0.970123 0.953719 0.376516
0.293156 0.831266 0.45333
0.293156 0.831266 0.45333
0.293156 0.831266 0.45333
0.325658 0.837522 0.460121
0.53254 0.871305 0.492332
0.690196 0.917647 0.44155
0.850355 0.943832 0.384405
0.970123 0.953719 0.376516
0.970123 0.953719 0.376516
0.00433356 0.027924 0.0767529
0.00419623 0.0276341 0.074815
0.0109102 0.0303197 0.076997
0.0556191 0.041062 0.0885023
0.284581 0.0686046 0.106264
0.530465 0.0975662 0.103548
0.698161 0.127138 0.113466
0.764172 0.138811 0.117586
0.764172 0.138811 0.117586
0.00546273 0.0322576 0.085771
0.00521859 0.0314183 0.0830243
0.0117952 0.032639 0.0824598
0.0666209 0.0438392 0.097734
0.315022 0.0715343 0.11249
0.562036 0.102861 0.105272
0.738338 0.134707 0.116014
0.764172 0.138811 0.117586
0.764172 0.138811 0.117586
0.00856031 0.0499428 0.100877
0.00852979 0.0497292 0.100282
0.013077 0.0526894 0.0977493
0.0833295 0.0624857 0.118395
0.344076 0.0744945 0.120546
0.610025 0.112367 0.116014
0.76286 0.139971 0.1243
0.761898 0.140459 0.130861
0.760494 0.141115 0.144427
0.0175937 0.135683 0.137743
0.0184329 0.145403 0.144976
0.0203403 0.164538 0.159335
0.101579 0.181353 0.188937
0.411002 0.1897 0.159686
0.689769 0.221881 0.154528
0.818875 0.247196 0.162905
0.824781 0.261418 0.176761
0.833051 0.282261 0.198428
0.0979782 0.33637 0.19971
0.106889 0.358679 0.212741
0.118853 0.392264 0.236439
0.173587 0.41181 0.263951
0.392081 0.433387 0.229816
0.705074 0.439033 0.211551
0.898939 0.459281 0.206348
0.904845 0.469688 0.213397
0.911162 0.488762 0.229709
0.195575 0.579644 0.325704
0.203845 0.600839 0.336645
0.215625 0.631235 0.352239
0.240345 0.638086 0.359274
0.44918 0.646387 0.368643
0.659144 0.66775 0.285893
0.882658 0.67895 0.284718
0.942031 0.682048 0.288151
0.942611 0.692866 0.290791
0.279057 0.794736 0.435126
0.286671 0.814435 0.444938
0.293126 0.831159 0.453269
0.309194 0.82884 0.4542
0.514229 0.823667 0.468101
0.675258 0.842603 0.38117
0.85684 0.847227 0.341939
0.953948 0.848432 0.333059
0.954147 0.850568 0.333837
0.29337 0.831815 0.453605
0.293004 0.832395 0.456031
0.292363 0.833066 0.459556
0.317311 0.836835 0.458824
0.526726 0.870069 0.491966
0.686366 0.916472 0.44419
0.845121 0.943328 0.385153
0.969985 0.95349 0.37641
0.970108 0.953597 0.376471
0.292058 0.833463 0.461387
0.291768 0.833829 0.463111
0.291691 0.83389 0.463447
0.320516 0.837324 0.459464
0.527352 0.870192 0.491997
0.686076 0.916381 0.444389
0.845228 0.943343 0.385138
0.970123 0.953719 0.376516
0.970123 0.953719 0.376516
0.00961318 0.0416266 0.219135
0.00955215 0.0413519 0.214908
0.012314 0.0414435 0.210452
0.0564736 0.0488746 0.22977
0.271977 0.0708782 0.269184
0.505364 0.099794 0.233677
0.671565 0.128145 0.215015
0.75877 0.144198 0.20798
0.758679 0.143847 0.200885
0.00979629 0.042298 0.229114
0.00972 0.0420386 0.225147
0.0130159 0.0423285 0.222721
0.0687419 0.0518502 0.256352
0.303838 0.0742657 0.296147
0.538567 0.106294 0.264118
0.715099 0.13785 0.255985
0.759747 0.14638 0.258885
0.760143 0.146822 0.269306
0.0108339 0.054612 0.252064
0.0108186 0.054551 0.251972
0.0131533 0.0546578 0.253727
0.0811322 0.061738 0.291936
0.341146 0.0788739 0.328328
0.599023 0.118547 0.319707
0.762646 0.149615 0.335103
0.763531 0.150546 0.357092
0.764538 0.151736 0.384543
0.00848402 0.135729 0.31574
0.0084535 0.146593 0.332692
0.00909438 0.167483 0.361791
0.0845502 0.197696 0.33872
0.377371 0.210315 0.363928
0.660365 0.238788 0.380148
0.806958 0.265476 0.399924
0.810819 0.283131 0.41738
0.815595 0.308492 0.439796
0.0592966 0.355383 0.330922
0.0657054 0.378973 0.353979
0.0742504 0.413504 0.3879
0.152697 0.429969 0.423972
0.400259 0.43209 0.417762
0.672831 0.446906 0.405631
0.864179 0.482795 0.431983
0.872328 0.494163 0.443976
0.877623 0.512367 0.461936
0.167483 0.594385 0.418982
0.172213 0.617258 0.440452
0.17908 0.649119 0.469718
0.202731 0.654353 0.477226
0.479942 0.643626 0.593057
0.655695 0.658061 0.523873
0.938338 0.64593 0.442985
0.955596 0.665919 0.50486
0.95642 0.675654 0.521843
0.254002 0.805997 0.531029
0.258762 0.826246 0.54905
0.264851 0.851026 0.570443
0.2757 0.838758 0.561334
0.559121 0.820493 0.672541
0.687861 0.821775 0.629618
0.856413 0.831296 0.559396
0.983795 0.819196 0.662486
0.983932 0.820279 0.665492
0.268193 0.855817 0.570031
0.266148 0.857237 0.576257
0.26453 0.858259 0.581064
0.28542 0.858747 0.571633
0.581201 0.880873 0.690059
0.722652 0.9084 0.672938
0.838621 0.940902 0.628824
0.967865 0.947646 0.681773
0.973526 0.947799 0.689235
0.264027 0.858549 0.582483
0.263325 0.858976 0.584482
0.263096 0.859236 0.58529
0.287053 0.85922 0.573404
0.581613 0.880873 0.69044
0.721584 0.908339 0.671473
0.838468 0.942367 0.628885
0.967605 0.952163 0.68954
0.973053 0.952178 0.696986
0.0122835 0.053315 0.432334
0.0122225 0.0530404 0.426841
0.0120851 0.0525063 0.415869
0.054078 0.0580911 0.446571
0.259358 0.0744945 0.499779
0.488457 0.105226 0.467887
0.656672 0.134051 0.451408
0.766857 0.154711 0.448218
0.766613 0.154406 0.442664
0.0124361 0.0539101 0.444968
0.0123751 0.0536965 0.44033
0.0122988 0.053315 0.432517
0.0661173 0.0601816 0.478386
0.291997 0.0784314 0.527962
0.525383 0.112444 0.49897
0.705913 0.144839 0.493599
0.768551 0.156909 0.498909
0.768841 0.157305 0.508705
0.0127718 0.0592813 0.455329
0.0127871 0.0594492 0.456703
0.0127871 0.0593423 0.457404
0.0780346 0.0626993 0.505608
0.337423 0.0852522 0.56405
0.596384 0.126879 0.558938
0.771221 0.160266 0.576455
0.772015 0.161105 0.596887
0.772961 0.162234 0.622339
0.0104982 0.133288 0.547951
0.0109865 0.145113 0.568246
0.0138705 0.167361 0.597009
0.100694 0.199084 0.59321
0.366278 0.218387 0.612573
0.657877 0.252308 0.615747
0.81529 0.272053 0.637949
0.818112 0.291066 0.650629
0.81973 0.32047 0.668162
0.0500801 0.362997 0.560586
0.0553597 0.38735 0.582254
0.0626078 0.421958 0.615091
0.111467 0.439185 0.631617
0.360464 0.45127 0.588998
0.647242 0.456977 0.617166
0.847913 0.493797 0.605936
0.865919 0.502632 0.616632
0.87248 0.519249 0.63473
0.116762 0.614466 0.604456
0.121996 0.637125 0.62623
0.129137 0.668391 0.656352
0.144793 0.672618 0.660426
0.456931 0.648539 0.730709
0.657252 0.658732 0.647074
0.848539 0.674647 0.626596
0.930739 0.67985 0.649393
0.932723 0.687312 0.657282
0.197452 0.828061 0.686
0.201816 0.847486 0.704112
0.20705 0.870939 0.725948
0.21323 0.857481 0.713664
0.537896 0.825711 0.802869
0.713375 0.811078 0.778119
0.838788 0.823178 0.730709
0.97789 0.819821 0.734173
0.97789 0.819821 0.734173
0.215732 0.885588 0.724529
0.213596 0.886717 0.732097
0.211856 0.887663 0.738537
0.225711 0.887236 0.721355
0.611536 0.893797 0.812436
0.76936 0.908553 0.823133
0.866865 0.928084 0.833814
0.962448 0.94316 0.849454
0.97763 0.943786 0.847959
0.211688 0.887755 0.739162
0.211093 0.88809 0.741421
0.210727 0.888289 0.742824
0.226566 0.887572 0.722683
0.611292 0.893767 0.812207
0.76788 0.908629 0.82179
0.868818 0.934401 0.829709
0.961028 0.955413 0.856565
0.976318 0.956298 0.856779
0.0136568 0.0585184 0.547555
0.0136568 0.0585184 0.547555
0.0136568 0.0585184 0.547631
0.0495613 0.0628977 0.59765
0.251255 0.0785077 0.670939
0.479255 0.109545 0.636896
0.649638 0.138994 0.623285
0.773007 0.162264 0.623178
0.772808 0.162097 0.619196
0.0136568 0.0585184 0.547555
0.0136568 0.0585184 0.547555
0.0136568 0.0585184 0.547707
0.061738 0.0638132 0.609842
0.285466 0.0833143 0.697932
0.519936 0.11751 0.670298
0.703792 0.15082 0.66894
0.774884 0.164523 0.677592
0.775341 0.165087 0.689448
0.0136873 0.0595712 0.55285
0.0137026 0.0599222 0.554238
0.0137026 0.06009 0.554971
0.0757763 0.0649119 0.623804
0.339239 0.0911421 0.714229
0.600702 0.133745 0.73051
0.777142 0.167544 0.745418
0.777371 0.16762 0.746166
0.777371 0.16762 0.746166
0.0125734 0.133852 0.703685
0.0139467 0.147051 0.713054
0.0175174 0.17052 0.723445
0.106767 0.191501 0.73315
0.388922 0.213291 0.752071
0.66949 0.247211 0.772412
0.819928 0.280949 0.786465
0.821546 0.299428 0.788724
0.822171 0.328725 0.790768
0.0563363 0.371038 0.73994
0.0613413 0.395239 0.761135
0.0682536 0.429862 0.78909
0.116365 0.446082 0.801495
0.339422 0.4813 0.7019
0.606531 0.478279 0.806226
0.845792 0.500923 0.804273
0.866941 0.508812 0.814893
0.874342 0.522622 0.832959
0.104814 0.62591 0.781918
0.109575 0.648325 0.803494
0.116167 0.67921 0.83357
0.130129 0.681788 0.836164
0.425574 0.659953 0.859846
0.622248 0.67129 0.805966
0.841337 0.675425 0.812222
0.921752 0.686152 0.80441
0.923522 0.692363 0.812161
0.166415 0.843397 0.84506
0.170535 0.861891 0.862699
0.175463 0.884153 0.884016
0.178744 0.869245 0.869688
0.548882 0.82829 0.906508
0.724834 0.813413 0.859571
0.83653 0.824979 0.823178
0.963653 0.828916 0.816052
0.963485 0.828122 0.815274
0.183627 0.904051 0.879973
0.182483 0.904662 0.887846
0.181628 0.905287 0.894667
0.18819 0.905119 0.87306
0.516091 0.916365 0.908217
0.731716 0.925078 0.90547
0.876875 0.929976 0.907088
0.964828 0.947143 0.903471
0.985916 0.948013 0.904997
0.181628 0.905287 0.894759
0.181384 0.90547 0.896681
0.18117 0.905623 0.898375
0.188739 0.905303 0.873823
0.515221 0.91635 0.907866
0.729595 0.927367 0.90277
0.882155 0.939788 0.907698
0.963195 0.964096 0.92256
0.982376 0.966171 0.922515
0.0136568 0.0585184 0.547555
0.0136568 0.0585184 0.547555
0.0136568 0.0585184 0.547555
0.0441138 0.0625315 0.59234
0.243473 0.078706 0.70396
0.474067 0.111925 0.72314
0.647211 0.142397 0.735393
0.777371 0.16762 0.746166
0.777264 0.167514 0.74435
0.0136568 0.0585184 0.547555
0.0136568 0.0585184 0.547555
0.0136568 0.0585184 0.547555
0.0564889 0.0634165 0.604852
0.279835 0.0830243 0.709377
0.517906 0.119326 0.72607
0.705089 0.153582 0.740124
0.777371 0.16762 0.746166
0.777371 0.16762 0.746166
0.0136568 0.0585641 0.548669
0.0136721 0.0585641 0.548745
0.0136721 0.0585641 0.548898
0.0754253 0.0648966 0.623423
0.342916 0.0916762 0.714672
0.606119 0.134768 0.73228
0.777371 0.16762 0.746166
0.777371 0.16762 0.746166
0.777554 0.167651 0.746334
0.0126802 0.13463 0.70486
0.0141299 0.148882 0.71426
0.0183108 0.174731 0.724666
0.111254 0.19733 0.733257
0.392187 0.21973 0.753872
0.674083 0.252979 0.77406
0.820737 0.285908 0.78735
0.821622 0.304158 0.789029
0.822065 0.333867 0.790967
0.0587167 0.378271 0.777462
0.0630503 0.401389 0.784161
0.0695201 0.436179 0.794171
0.120165 0.450538 0.802853
0.341543 0.48629 0.715267
0.598062 0.486732 0.833127
0.846662 0.502724 0.834882
0.869184 0.510567 0.840101
0.875486 0.523796 0.846082
0.106203 0.632441 0.847425
0.11043 0.654368 0.853452
0.11667 0.684108 0.86154
0.131228 0.684703 0.864103
0.421744 0.668559 0.883009
0.577203 0.683391 0.881621
0.821195 0.684092 0.892378
0.922316 0.686931 0.89543
0.923644 0.692317 0.896925
0.161028 0.849668 0.903716
0.166125 0.866697 0.908095
0.172152 0.886503 0.913542
0.173068 0.870939 0.910842
0.604288 0.82678 0.931899
0.710765 0.819089 0.934112
0.803235 0.833371 0.932479
0.957107 0.831266 0.935073
0.958236 0.830304 0.934218
0.178683 0.907423 0.919341
0.178683 0.907423 0.919341
0.178683 0.907423 0.919341
0.180407 0.909102 0.920943
0.645548 0.910582 0.952407
0.781964 0.924971 0.961456
0.890028 0.934432 0.964965
0.967788 0.953826 0.955657
0.984573 0.957183 0.956161
0.178683 0.907423 0.919341
0.178683 0.907423 0.919341
0.178683 0.907423 0.919341
0.180468 0.909117 0.920943
0.644999 0.910582 0.952392
0.778286 0.929442 0.962203
0.889174 0.948806 0.969558
0.974975 0.972274 0.968734
0.988357 0.976074 0.96849
0.0136568 0.0585184 0.547555
0.0136568 0.0585184 0.547555
0.0136568 0.0585184 0.547555
0.0392615 0.0621958 0.58735
0.234485 0.0777142 0.70219
0.466773 0.110735 0.722744
0.641642 0.14136 0.734936
0.777371 0.16762 0.746166
0.777371 0.16762 0.746166
0.0136568 0.0585184 0.547555
0.0136568 0.0585184 0.547555
0.0136568 0.0585184 0.547555
0.0532387 0.0631723 0.601694
0.275792 0.0825208 0.708827
0.515557 0.118914 0.725872
0.705745 0.153719 0.740185
0.777371 0.16762 0.746166
0.777371 0.16762 0.746166
0.0136568 0.0585489 0.548424
0.0136568 0.0585489 0.548577
0.0136721 0.0585641 0.548898
0.0781109 0.0650797 0.625666
0.349081 0.0925612 0.715084
0.61384 0.136202 0.732891
0.777371 0.16762 0.746166
0.777371 0.16762 0.746166
0.778225 0.167773 0.746899
0.0129397 0.137224 0.706554
0.0145418 0.152987 0.716945
0.0195621 0.18143 0.726635
0.117937 0.205768 0.73341
0.39675 0.22797 0.756161
0.680644 0.261189 0.776211
0.821363 0.293629 0.788266
0.821897 0.313069 0.789731
0.822065 0.342168 0.791424
0.0600595 0.385306 0.779538
0.0643473 0.408347 0.786252
0.070985 0.444053 0.796307
0.126513 0.457465 0.804898
0.347234 0.491875 0.719829
0.60618 0.492073 0.83447
0.850614 0.506706 0.836988
0.871153 0.514168 0.841932
0.876753 0.52723 0.847349
0.107378 0.638514 0.849088
0.111589 0.660304 0.85507
0.118105 0.690562 0.863233
0.135775 0.689937 0.865843
0.428977 0.671916 0.884764
0.581186 0.685939 0.882475
0.823575 0.685664 0.892851
0.922545 0.687877 0.895689
0.923751 0.692729 0.897032
0.162539 0.854749 0.904997
0.167452 0.871092 0.909346
0.172946 0.889097 0.914199
0.174334 0.872877 0.911482
0.606088 0.827741 0.932128
0.710124 0.818662 0.933974
0.801495 0.832395 0.932036
0.956527 0.830106 0.93637
0.957916 0.828885 0.936126
0.178683 0.907423 0.919341
0.178683 0.907423 0.919341
0.178683 0.907423 0.919341
0.180072 0.90898 0.920821
0.644724 0.910582 0.952377
0.784421 0.924514 0.963119
0.889784 0.934371 0.970504
0.965469 0.95407 0.969757
0.984298 0.956649 0.970718
0.178683 0.907423 0.919341
0.178683 0.907423 0.919341
0.178683 0.907423 0.919341
0.179889 0.90898 0.920821
0.64445 0.910582 0.952377
0.783871 0.929076 0.964263
0.899062 0.94786 0.973907
0.97673 0.972839 0.977935
0.988235 0.976486 0.977707
