public/luts/JOKER.cube
TITLE "Generated by Resolve"
LUT_3D_SIZE 5
0.000762951 0.0209812 0.0376898
0.00958267 0.0252079 0.0433967
0.294102 0.0683757 0.0949111
0.700755 0.127626 0.113634
0.764172 0.138811 0.117586
0.00775158 0.0472877 0.0610971
0.013611 0.0462959 0.0618296
0.330114 0.071458 0.0962387
0.764172 0.138811 0.117586
0.764172 0.138811 0.117586
0.0856641 0.307805 0.185031
0.106493 0.35642 0.210101
0.355871 0.399832 0.202152
0.87921 0.434409 0.19379
0.903319 0.467506 0.206104
0.269093 0.768826 0.422171
0.286717 0.814542 0.444984
0.500145 0.809277 0.461295
0.847364 0.838621 0.339315
0.953689 0.846738 0.332448
0.293156 0.831266 0.45333
0.293156 0.831266 0.45333
0.526894 0.8701 0.491966
0.84213 0.943038 0.38558
0.970123 0.953719 0.376516
0.00155642 0.0224155 0.0438697
0.00988785 0.026154 0.0484016
0.295827 0.068513 0.0949874
0.703349 0.128099 0.113787
0.764172 0.138811 0.117586
0.00827039 0.048127 0.0664225
0.0156558 0.0476997 0.0690166
0.346716 0.0729992 0.0967575
0.764172 0.138811 0.117586
0.764172 0.138811 0.117586
0.0946059 0.328542 0.195666
0.117418 0.382605 0.223713
0.383764 0.425589 0.20943
0.894804 0.455589 0.201694
0.908553 0.488228 0.214099
0.277699 0.791226 0.433371
0.292317 0.829068 0.452232
0.51606 0.825727 0.469093
0.860319 0.850629 0.343008
0.954925 0.85565 0.335668
0.293156 0.831266 0.45333
0.293156 0.831266 0.45333
0.53254 0.871305 0.492332
0.850355 0.943832 0.384405
0.970123 0.953719 0.376516
0.00961318 0.0416266 0.219135
0.012314 0.0414435 0.210452
0.271977 0.0708782 0.269184
0.671565 0.128145 0.215015
0.758679 0.143847 0.200885
0.0108339 0.054612 0.252064
0.0131533 0.0546578 0.253727
0.341146 0.0788739 0.328328
0.762646 0.149615 0.335103
0.764538 0.151736 0.384543
0.0592966 0.355383 0.330922
0.0742504 0.413504 0.3879
0.400259 0.43209 0.417762
0.864179 0.482795 0.431983
0.877623 0.512367 0.461936
0.254002 0.805997 0.531029
0.264851 0.851026 0.570443
0.559121 0.820493 0.672541
0.856413 0.831296 0.559396
0.983932 0.820279 0.665492
0.264027 0.858549 0.582483
0.263096 0.859236 0.58529
0.581613 0.880873 0.69044
0.838468 0.942367 0.628885
0.973053 0.952178 0.696986
0.0136568 0.0585184 0.547555
0.0136568 0.0585184 0.547631
0.251255 0.0785077 0.670939
0.649638 0.138994 0.623285
0.772808 0.162097 0.619196
0.0136873 0.0595712 0.55285
0.0137026 0.06009 0.554971
0.339239 0.0911421 0.714229
0.777142 0.167544 0.745418
0.777371 0.16762 0.746166
0.0563363 0.371038 0.73994
0.0682536 0.429862 0.78909
0.339422 0.4813 0.7019
0.845792 0.500923 0.804273
0.874342 0.522622 0.832959
0.166415 0.843397 0.84506
0.175463 0.884153 0.884016
0.548882 0.82829 0.906508
0.83653 0.824979 0.823178
0.963485 0.828122 0.815274
0.181628 0.905287 0.894759
0.18117 0.905623 0.898375
0.515221 0.91635 0.907866
0.882155 0.939788 0.907698
0.982376 0.966171 0.922515
0.0136568 0.0585184 0.547555
0.0136568 0.0585184 0.547555
0.234485 0.0777142 0.70219
0.641642 0.14136 0.734936
0.777371 0.16762 0.746166
0.0136568 0.0585489 0.548424
0.0136721 0.0585641 0.548898
0.349081 0.0925612 0.715084
0.777371 0.16762 0.746166
0.778225 0.167773 0.746899
0.0600595 0.385306 0.779538
0.070985 0.444053 0.796307
0.347234 0.491875 0.719829
0.850614 0.506706 0.836988
0.876753 0.52723 0.847349
0.162539 0.854749 0.904997
0.172946 0.889097 0.914199
0.606088 0.827741 0.932128
0.801495 0.832395 0.932036
0.957916 0.828885 0.936126
0.178683 0.907423 0.919341
0.178683 0.907423 0.919341
0.64445 0.910582 0.952377
0.899062 0.94786 0.973907
0.988235 0.976486 0.977707
