public/luts/JOKER.cube
TITLE "Generated by Resolve"
LUT_3D_SIZE 17
0.000762951 0.0209812 0.0376898
0.000762951 0.0209812 0.0376898
0.000762951 0.0209812 0.0376898
0.00300603 0.0221103 0.0392004
0.00958267 0.0252079 0.0433967
0.0224002 0.0299382 0.049897
0.0590066 0.0392462 0.0626688
0.156741 0.0558175 0.0840009
0.294102 0.0683757 0.0949111
0.429053 0.082063 0.0990158
0.535012 0.0982986 0.103792
0.624674 0.113573 0.108812
0.700755 0.127626 0.113634
0.762173 0.138598 0.117479
0.764172 0.138811 0.117586
0.764172 0.138811 0.117586
0.764172 0.138811 0.117586
0.00077821 0.0210269 0.0377356
0.000762951 0.0209812 0.0376898
0.000762951 0.0209812 0.0376898
0.00396735 0.0225834 0.0398413
0.0106203 0.0256657 0.0440223
0.0244907 0.0306401 0.0508736
0.0653086 0.040589 0.0644846
0.170764 0.0574807 0.0858778
0.309804 0.0696727 0.0955367
0.442802 0.0839704 0.0995041
0.54876 0.100603 0.104524
0.639185 0.116213 0.109728
0.71635 0.130571 0.114611
0.764172 0.138811 0.117586
0.764172 0.138811 0.117586
0.764172 0.138811 0.117586
0.764172 0.138811 0.117586
0.00340276 0.0285496 0.0451209
0.00325017 0.0281224 0.0446937
0.00308232 0.0276341 0.0442206
0.00540169 0.0277714 0.04477
0.0118105 0.0291905 0.0471962
0.0251316 0.0317388 0.0517891
0.0675212 0.041062 0.0651255
0.178439 0.0583963 0.0869001
0.321126 0.0706645 0.0959335
0.453513 0.0854353 0.0998856
0.560815 0.102663 0.105211
0.653056 0.11873 0.110597
0.732647 0.133684 0.115648
0.764172 0.138811 0.117586
0.764172 0.138811 0.117586
0.764172 0.138811 0.117586
0.764172 0.138811 0.117586
0.00576791 0.0368658 0.0527047
0.00570687 0.0365148 0.05243
0.00561532 0.0360876 0.052079
0.00706493 0.0355688 0.0519417
0.0133669 0.0361639 0.0534066
0.0276951 0.0379187 0.0568246
0.0702068 0.0436255 0.067216
0.177966 0.0583352 0.0868391
0.324086 0.0709239 0.096025
0.459739 0.0863508 0.10013
0.570993 0.104387 0.105776
0.667948 0.121492 0.111559
0.749615 0.136614 0.116716
0.764172 0.138811 0.117586
0.764172 0.138811 0.117586
0.764172 0.138811 0.117586
0.764172 0.138811 0.117586
0.00775158 0.0472877 0.0610971
0.00769055 0.0468757 0.0608072
0.00761425 0.0463722 0.0604562
0.00773632 0.0454108 0.0598154
0.013611 0.0462959 0.0618296
0.0296635 0.0495155 0.0658274
0.0817578 0.0552377 0.0762036
0.185748 0.0621805 0.088716
0.330114 0.071458 0.0962387
0.470695 0.0880293 0.100618
0.589639 0.10753 0.106844
0.694713 0.126482 0.113252
0.764172 0.138811 0.117586
0.764172 0.138811 0.117586
0.764172 0.138811 0.117586
0.764172 0.138811 0.117586
0.764172 0.138811 0.117586
0.0112764 0.0720684 0.0780499
0.0113069 0.072282 0.078172
0.0113375 0.0724956 0.0783093
0.0113375 0.0724956 0.0783093
0.0141909 0.0741588 0.0806592
0.0277714 0.0790265 0.0858015
0.0911574 0.0819257 0.0895705
0.211078 0.0856031 0.0953689
0.357382 0.0913405 0.098558
0.494896 0.102815 0.103243
0.618051 0.117891 0.109331
0.72781 0.135378 0.11577
0.769253 0.142916 0.118425
0.771542 0.147082 0.119173
0.774304 0.152346 0.120104
0.777752 0.158831 0.121263
0.782055 0.16672 0.122591
0.0186618 0.122942 0.10515
0.0192111 0.125795 0.106325
0.0197604 0.128634 0.107485
0.0205692 0.132845 0.109209
0.0218967 0.139666 0.112001
0.031281 0.147662 0.119539
0.0879835 0.15108 0.124163
0.22385 0.152575 0.110918
0.380957 0.158343 0.112459
0.52517 0.172335 0.117189
0.654658 0.19115 0.122484
0.769299 0.212467 0.128771
0.811078 0.220752 0.131395
0.814557 0.227359 0.132738
0.818173 0.234211 0.134127
0.822446 0.24242 0.136004
0.827436 0.252415 0.138811
0.0415656 0.204654 0.138628
0.0441291 0.210941 0.141329
0.0469215 0.217472 0.144167
0.0505379 0.225879 0.147829
0.0559854 0.238621 0.153292
0.0605325 0.249226 0.157733
0.109682 0.25568 0.16759
0.212161 0.26508 0.172366
0.377203 0.270405 0.146731
0.536141 0.278096 0.145876
0.674754 0.293019 0.149523
0.792889 0.31104 0.154406
0.858091 0.321218 0.158068
0.860853 0.32842 0.160052
0.863874 0.336431 0.16231
0.867247 0.34612 0.165118
0.87126 0.357488 0.168414
0.0856641 0.307805 0.185031
0.0899367 0.317708 0.190082
0.0941482 0.327474 0.195117
0.0992294 0.339269 0.201205
0.106493 0.35642 0.210101
0.112276 0.370138 0.217243
0.142016 0.376211 0.224598
0.248157 0.382971 0.239689
0.355871 0.399832 0.202152
0.515145 0.404685 0.192493
0.670558 0.408743 0.195026
0.790722 0.422751 0.19237
0.87921 0.434409 0.19379
0.896269 0.440818 0.196124
0.898009 0.447166 0.198474
0.900587 0.456794 0.20206
0.903319 0.467506 0.206104
0.13579 0.427787 0.24715
0.140414 0.439353 0.253132
0.144686 0.45005 0.258656
0.149737 0.462821 0.265263
0.156603 0.480308 0.274281
0.161746 0.4934 0.281071
0.177951 0.497124 0.285252
0.283818 0.501366 0.299779
0.383948 0.514244 0.286015
0.501396 0.526879 0.239109
0.641245 0.531975 0.235187
0.776379 0.53724 0.241703
0.886961 0.546166 0.243473
0.924834 0.552087 0.24213
0.92604 0.55697 0.244602
0.928054 0.565118 0.248707
0.930282 0.574258 0.25333
0.18381 0.549523 0.310155
0.188022 0.560311 0.315724
0.192065 0.570642 0.32105
0.197299 0.584024 0.327977
0.203891 0.600946 0.33669
0.20824 0.612177 0.342458
0.217014 0.611276 0.343297
0.318868 0.612665 0.356252
0.423911 0.619959 0.358495
0.514412 0.637354 0.305547
0.633661 0.644114 0.277989
0.750957 0.65127 0.273472
0.861372 0.659068 0.278492
0.936355 0.663951 0.28333
0.941207 0.666545 0.284367
0.941543 0.672786 0.285893
0.941909 0.679881 0.287617
0.227741 0.662455 0.368231
0.23212 0.673732 0.374014
0.236103 0.684016 0.379294
0.241474 0.697948 0.386435
0.24741 0.713268 0.394247
0.250599 0.721386 0.398352
0.255726 0.716777 0.396826
0.358053 0.715846 0.408438
0.46363 0.719432 0.414435
0.546914 0.733944 0.378195
0.644923 0.745159 0.326711
0.7505 0.749477 0.311788
0.846799 0.756085 0.305882
0.936599 0.762341 0.309834
0.947585 0.762982 0.310277
0.947784 0.766659 0.31133
0.948013 0.771023 0.312566
0.269093 0.768826 0.422171
0.273213 0.779538 0.427527
0.276997 0.789364 0.432456
0.282506 0.803662 0.439567
0.286717 0.814542 0.444984
0.287953 0.817746 0.446586
0.29456 0.812253 0.444907
0.397086 0.808865 0.455253
0.500145 0.809277 0.461295
0.582712 0.818204 0.437995
0.663493 0.830869 0.378592
0.758083 0.835477 0.348714
0.847364 0.838621 0.339315
0.930556 0.843519 0.332616
0.95314 0.843015 0.331151
0.953384 0.844709 0.331716
0.953689 0.846738 0.332448
0.293156 0.831266 0.45333
0.293156 0.831266 0.45333
0.293156 0.831266 0.45333
0.293156 0.831266 0.45333
0.293156 0.831266 0.45333
0.293156 0.831266 0.45333
0.306096 0.83473 0.456504
0.416144 0.851118 0.476539
0.522942 0.868681 0.49131
0.6103 0.884688 0.480903
0.683879 0.901137 0.429526
0.766705 0.908843 0.386725
0.850126 0.911574 0.369619
0.928054 0.913664 0.362097
0.96379 0.912779 0.357992
0.963897 0.913451 0.358251
0.964019 0.914107 0.358526
0.293156 0.831266 0.45333
0.293156 0.831266 0.45333
0.293156 0.831266 0.45333
0.293156 0.831266 0.45333
0.293156 0.831266 0.45333
0.293156 0.831266 0.45333
0.312459 0.835691 0.457725
0.421302 0.851896 0.477409
0.523369 0.869352 0.491646
0.610285 0.89099 0.486259
0.68423 0.915816 0.445655
0.76286 0.93341 0.404501
0.843091 0.94313 0.385443
0.919646 0.949538 0.377234
0.969757 0.95346 0.37641
0.970092 0.95349 0.37641
0.970092 0.95349 0.37641
0.293156 0.831266 0.45333
0.293156 0.831266 0.45333
0.293156 0.831266 0.45333
0.293156 0.831266 0.45333
0.293156 0.831266 0.45333
0.293156 0.831266 0.45333
0.318257 0.8365 0.458778
0.426429 0.852674 0.478248
0.526574 0.870039 0.491951
0.612055 0.891539 0.48571
0.685328 0.916152 0.444892
0.763256 0.933471 0.404379
0.842451 0.943069 0.385534
0.918807 0.949691 0.377371
0.969467 0.953658 0.376501
0.970123 0.953719 0.376516
0.970123 0.953719 0.376516
0.293156 0.831266 0.45333
0.293156 0.831266 0.45333
0.293156 0.831266 0.45333
0.293156 0.831266 0.45333
0.293156 0.831266 0.45333
0.293156 0.831266 0.45333
0.320089 0.836744 0.459113
0.427665 0.852949 0.478477
0.526894 0.8701 0.491966
0.611994 0.891508 0.485725
0.684962 0.916045 0.445151
0.76286 0.93341 0.404501
0.84213 0.943038 0.38558
0.918807 0.949691 0.377371
0.970016 0.953704 0.376516
0.970123 0.953719 0.376516
0.970123 0.953719 0.376516
0.000762951 0.0209812 0.0376898
0.000762951 0.0209812 0.0376898
0.000762951 0.0209812 0.0376898
0.0030518 0.0221256 0.0392309
0.0096437 0.0252384 0.0434272
0.0224765 0.0299687 0.0499428
0.0592203 0.039292 0.0627298
0.157214 0.0558785 0.0840772
0.294835 0.0684367 0.0949416
0.429847 0.0821698 0.0990463
0.535561 0.0983902 0.103807
0.62533 0.113695 0.108843
0.701518 0.127764 0.11368
0.762661 0.138643 0.117494
0.764172 0.138811 0.117586
0.764172 0.138811 0.117586
0.764172 0.138811 0.117586
0.000808728 0.0211185 0.0378271
0.000762951 0.0209812 0.0376898
0.000762951 0.0209812 0.0376898
0.0039826 0.0225834 0.0398566
0.0107118 0.0256962 0.0440681
0.0246128 0.0306859 0.0509346
0.0656748 0.0406653 0.0645914
0.171481 0.0575723 0.0859693
0.31078 0.0697642 0.0955673
0.443595 0.0840772 0.0995346
0.549645 0.100755 0.104585
0.640177 0.116396 0.109789
0.717556 0.1308 0.114687
0.764172 0.138811 0.117586
0.764172 0.138811 0.117586
0.764172 0.138811 0.117586
0.764172 0.138811 0.117586
0.00340276 0.0285496 0.0451209
0.00326543 0.0281682 0.0447395
0.00311284 0.0277256 0.0443122
0.00546273 0.0278325 0.044831
0.011902 0.0292973 0.047303
0.0252537 0.0317845 0.0518502
0.0679789 0.0411536 0.0652476
0.17937 0.0585031 0.0870222
0.322484 0.0707866 0.0959793
0.454978 0.0856489 0.0999313
0.562356 0.102922 0.105287
0.654673 0.119036 0.110704
0.734707 0.134081 0.115785
0.764172 0.138811 0.117586
0.764172 0.138811 0.117586
0.764172 0.138811 0.117586
0.764172 0.138811 0.117586
0.00578317 0.0369573 0.0527962
0.00572213 0.0366217 0.0525063
0.00563058 0.0361791 0.0521553
0.00712596 0.0356756 0.0520485
0.013489 0.0363012 0.0535286
0.027985 0.0380865 0.0570077
0.0710307 0.0438697 0.0675059
0.179736 0.0585489 0.0870832
0.326055 0.0710918 0.0961013
0.461814 0.0866712 0.100221
0.573617 0.104829 0.105928
0.671 0.122057 0.111757
0.752438 0.137087 0.116884
0.764172 0.138811 0.117586
0.764172 0.138811 0.117586
0.764172 0.138811 0.117586
0.764172 0.138811 0.117586
0.00776684 0.0474556 0.0612192
0.00772107 0.0471199 0.0609903
0.00766003 0.0467079 0.0607004
0.00784314 0.0456245 0.0599985
0.0138094 0.0466468 0.0621347
0.0302586 0.0499886 0.0662547
0.083711 0.0559548 0.0768597
0.189181 0.0627604 0.089128
0.333806 0.0717784 0.096376
0.474418 0.0885939 0.100786
0.593881 0.108248 0.107073
0.699687 0.127413 0.113558
0.764172 0.138811 0.117586
0.764172 0.138811 0.117586
0.764172 0.138811 0.117586
0.764172 0.138811 0.117586
0.764172 0.138811 0.117586
0.011368 0.0727092 0.0784314
0.011429 0.0731365 0.0786908
0.0114748 0.0734569 0.0788891
0.0114748 0.0734569 0.0788891
0.0145418 0.0755627 0.08159
0.0284581 0.0806439 0.0867933
0.0940719 0.0833143 0.0902724
0.216342 0.0873121 0.0958114
0.363516 0.0933547 0.098909
0.50074 0.105257 0.103761
0.624552 0.120851 0.110002
0.73489 0.138872 0.116564
0.770611 0.14548 0.118883
0.773083 0.150088 0.119707
0.775921 0.155367 0.120653
0.779446 0.161975 0.121798
0.783825 0.170001 0.123156
0.0190127 0.124758 0.105898
0.0196078 0.12784 0.107164
0.0202182 0.131029 0.108461
0.0211032 0.135576 0.110323
0.0225376 0.142977 0.113359
0.0324254 0.1514 0.121248
0.0920882 0.155062 0.126101
0.229587 0.156863 0.112032
0.387411 0.162783 0.113619
0.531914 0.177111 0.118456
0.661662 0.19588 0.123659
0.776532 0.217166 0.129763
0.813062 0.224475 0.132143
0.816541 0.231083 0.133486
0.820142 0.237934 0.13489
0.824537 0.246555 0.137163
0.829496 0.256641 0.139986
0.0428626 0.207996 0.140047
0.045655 0.214511 0.142885
0.0486305 0.221469 0.145907
0.05243 0.230304 0.149752
0.0580606 0.243442 0.155322
0.0626535 0.25417 0.159792
0.114641 0.260716 0.17026
0.217762 0.270695 0.172534
0.383246 0.27602 0.148745
0.542092 0.283711 0.147585
0.68072 0.298222 0.150988
0.799069 0.316213 0.155825
0.859724 0.325582 0.159274
0.862623 0.332998 0.161318
0.865446 0.340825 0.163592
0.868955 0.350912 0.166506
0.872969 0.3626 0.16997
0.0876478 0.312383 0.18735
0.0921187 0.322759 0.192676
0.0963149 0.332509 0.197711
0.101625 0.344854 0.204105
0.108904 0.362142 0.213077
0.114611 0.375784 0.220157
0.146807 0.381506 0.227604
0.253742 0.388449 0.24242
0.361975 0.40528 0.203632
0.520699 0.410224 0.1944
0.676234 0.41413 0.197147
0.796613 0.428092 0.194293
0.882429 0.439185 0.195575
0.897505 0.445258 0.197772
0.899138 0.451499 0.200092
0.901778 0.461341 0.203754
0.90457 0.472282 0.20795
0.137926 0.433127 0.249912
0.14255 0.444694 0.255894
0.146731 0.455177 0.261311
0.151919 0.468391 0.268132
0.158785 0.485878 0.277165
0.163928 0.49897 0.28397
0.183124 0.50248 0.288396
0.289723 0.506691 0.302846
0.389151 0.519646 0.287495
0.507088 0.531975 0.240864
0.646723 0.537194 0.236927
0.781659 0.542489 0.243366
0.891295 0.550744 0.245335
0.925856 0.556207 0.244221
0.927031 0.560998 0.246632
0.929076 0.569253 0.250797
0.931304 0.578454 0.255421
0.185748 0.554482 0.312703
0.190051 0.565484 0.318395
0.194125 0.575906 0.323781
0.199481 0.589624 0.330861
0.206027 0.606455 0.339529
0.210208 0.617243 0.345068
0.221027 0.616312 0.346166
0.324529 0.617563 0.359136
0.428779 0.624994 0.360357
0.519387 0.642252 0.306859
0.638758 0.648844 0.279561
0.755474 0.655741 0.2748
0.865919 0.66331 0.279805
0.937407 0.667643 0.284306
0.94139 0.670024 0.285206
0.941726 0.676402 0.286763
0.942107 0.683375 0.288472
0.229755 0.667659 0.370901
0.234104 0.678828 0.376623
0.238117 0.689219 0.381964
0.243565 0.703365 0.389212
0.24947 0.718532 0.396918
0.252476 0.726207 0.400793
0.259098 0.721248 0.399252
0.363119 0.720287 0.411032
0.467887 0.723842 0.416373
0.550774 0.738094 0.37908
0.648829 0.748882 0.327749
0.754223 0.752941 0.312871
0.85037 0.759289 0.306874
0.939971 0.765286 0.310719
0.947723 0.765515 0.310994
0.947921 0.769299 0.312078
0.948119 0.773205 0.313176
0.270985 0.773739 0.424628
0.275059 0.784344 0.429938
0.278981 0.794522 0.435019
0.284382 0.808499 0.441978
0.288197 0.818402 0.446906
0.289265 0.821149 0.44828
0.297963 0.816205 0.447105
0.401328 0.812528 0.457374
0.503548 0.812726 0.462959
0.58558 0.821393 0.438911
0.666499 0.833783 0.379232
0.760952 0.837964 0.349462
0.849989 0.84097 0.340032
0.932296 0.845548 0.333333
0.953399 0.844816 0.331762
0.953658 0.84651 0.332372
0.953918 0.84831 0.333013
0.293156 0.831266 0.45333
0.293156 0.831266 0.45333
0.293156 0.831266 0.45333
0.293156 0.831266 0.45333
0.293156 0.831266 0.45333
0.293156 0.831266 0.45333
0.307851 0.835035 0.456855
0.418448 0.851408 0.476921
0.525032 0.869245 0.491615
0.611872 0.885725 0.480858
0.685695 0.902663 0.429511
0.768566 0.910475 0.387045
0.851957 0.913298 0.370108
0.929534 0.915236 0.36257
0.964019 0.914107 0.358526
0.964126 0.914778 0.358785
0.964218 0.915343 0.359014
0.293156 0.831266 0.45333
0.293156 0.831266 0.45333
0.293156 0.831266 0.45333
0.293156 0.831266 0.45333
0.293156 0.831266 0.45333
0.293156 0.831266 0.45333
0.314748 0.835996 0.458122
0.423804 0.852323 0.477836
0.525338 0.869795 0.49189
0.611643 0.891402 0.485832
0.685481 0.916197 0.444785
0.764218 0.933608 0.404059
0.844266 0.943252 0.385275
0.92079 0.949859 0.377264
0.970123 0.953719 0.376516
0.970123 0.953719 0.376516
0.970123 0.953719 0.376516
0.293156 0.831266 0.45333
0.293156 0.831266 0.45333
0.293156 0.831266 0.45333
0.293156 0.831266 0.45333
0.293156 0.831266 0.45333
0.293156 0.831266 0.45333
0.320089 0.836744 0.459113
0.428428 0.85304 0.478599
0.528054 0.870329 0.492027
0.613153 0.891859 0.485374
0.686366 0.916472 0.44419
0.764508 0.933654 0.403952
0.843839 0.943206 0.385336
0.920027 0.949783 0.37731
0.970016 0.953704 0.376516
0.970123 0.953719 0.376516
0.970123 0.953719 0.376516
0.293156 0.831266 0.45333
0.293156 0.831266 0.45333
0.293156 0.831266 0.45333
0.293156 0.831266 0.45333
0.293156 0.831266 0.45333
0.293156 0.831266 0.45333
0.32163 0.836988 0.459403
0.429282 0.853162 0.478721
0.528298 0.870375 0.492042
0.612955 0.891798 0.485435
0.685924 0.916335 0.44448
0.763928 0.933562 0.40415
0.843519 0.943175 0.385382
0.92047 0.949828 0.377279
0.970123 0.953719 0.376516
0.970123 0.953719 0.376516
0.970123 0.953719 0.376516
0.000762951 0.0209812 0.0376898
0.000762951 0.0209812 0.0376898
0.000762951 0.0209812 0.0376898
0.00315862 0.0221714 0.039292
0.00975052 0.0252842 0.0434882
0.0226902 0.030045 0.0500343
0.0597391 0.0393988 0.0628824
0.158633 0.0560464 0.0842603
0.296315 0.0685435 0.0950027
0.431083 0.0823529 0.0990921
0.536965 0.0986191 0.103883
0.626642 0.113939 0.108934
0.702815 0.128008 0.113756
0.763622 0.13875 0.117556
0.764172 0.138811 0.117586
0.764172 0.138811 0.117586
0.764172 0.138811 0.117586
0.000869764 0.0212558 0.0380865
0.000762951 0.0209964 0.0377508
0.000762951 0.0209812 0.0376898
0.00401312 0.0225986 0.0398718
0.0108186 0.0257572 0.0441291
0.0248569 0.0307622 0.0510262
0.0664836 0.0408484 0.0648203
0.172778 0.0577249 0.0861524
0.312383 0.0699016 0.0956283
0.44506 0.0842756 0.0995804
0.551171 0.101015 0.104662
0.64181 0.116686 0.109895
0.719509 0.131182 0.114809
0.764172 0.138811 0.117586
0.764172 0.138811 0.117586
0.764172 0.138811 0.117586
0.764172 0.138811 0.117586
0.00344854 0.028687 0.0454261
0.00332647 0.028336 0.0450141
0.00317388 0.0278782 0.0444953
0.0055848 0.0280461 0.0450446
0.0120394 0.0294652 0.0474556
0.0255589 0.0319524 0.0520333
0.0686351 0.0413062 0.0654459
0.180911 0.0586862 0.0872358
0.324697 0.0709697 0.0960555
0.456886 0.0859083 0.100008
0.564446 0.103273 0.105409
0.657176 0.119493 0.110872
0.736965 0.134478 0.115923
0.764172 0.138811 0.117586
0.764172 0.138811 0.117586
0.764172 0.138811 0.117586
0.764172 0.138811 0.117586
0.00581369 0.0371099 0.0529488
0.00575265 0.036759 0.0526436
0.00567636 0.0363775 0.0523079
0.00726329 0.0359045 0.0522316
0.0136721 0.0365454 0.0537575
0.028397 0.0383154 0.0572366
0.0723125 0.0442512 0.0679332
0.182208 0.0588235 0.0873732
0.329259 0.0713817 0.0962081
0.464561 0.0870832 0.100343
0.576883 0.105379 0.106111
0.674693 0.122744 0.111986
0.75584 0.137667 0.117098
0.764172 0.138811 0.117586
0.764172 0.138811 0.117586
0.764172 0.138811 0.117586
0.764172 0.138811 0.117586
0.00782788 0.0478676 0.0615091
0.0077821 0.0475319 0.0612802
0.00773632 0.0471962 0.0610513
0.00801099 0.0460059 0.0603189
0.0140993 0.0470741 0.0625162
0.0310216 0.0505989 0.066804
0.086183 0.0568551 0.0776684
0.193606 0.0634623 0.0895857
0.338704 0.072221 0.0965286
0.479026 0.0892958 0.100984
0.598978 0.109117 0.107362
0.705516 0.128511 0.113924
0.764172 0.138811 0.117586
0.764172 0.138811 0.117586
0.764172 0.138811 0.117586
0.764172 0.138811 0.117586
0.764172 0.138811 0.117586
0.0115053 0.0736553 0.0790112
0.0115663 0.0741894 0.0793317
0.0116426 0.0747234 0.0796674
0.0116884 0.0750439 0.0798505
0.0149538 0.0774853 0.0828412
0.0295262 0.0829023 0.0882277
0.0977798 0.0851453 0.0911727
0.222995 0.0893416 0.0962997
0.370626 0.0957809 0.0993362
0.507607 0.10811 0.104372
0.632013 0.124346 0.110796
0.742412 0.142641 0.117433
0.772381 0.148653 0.119448
0.774945 0.15349 0.120317
0.77789 0.159136 0.121309
0.781842 0.166262 0.122515
0.786206 0.174441 0.123888
0.019501 0.127275 0.10692
0.0201419 0.130571 0.108278
0.020798 0.133989 0.109682
0.0217594 0.138994 0.111727
0.0233005 0.14696 0.114992
0.0340124 0.155779 0.12314
0.0964981 0.159548 0.128344
0.236072 0.161608 0.113298
0.394751 0.167788 0.114916
0.539147 0.1823 0.119814
0.669291 0.201068 0.125017
0.783322 0.222019 0.130861
0.815335 0.228763 0.133013
0.818891 0.235538 0.134401
0.822644 0.242847 0.136126
0.827283 0.252079 0.138705
0.832502 0.262623 0.141665
0.0444343 0.211673 0.141649
0.0475013 0.21883 0.144762
0.0505379 0.225879 0.147829
0.0545968 0.235355 0.151934
0.0603952 0.24892 0.157595
0.0650797 0.259846 0.162158
0.120485 0.266514 0.173297
0.223835 0.277104 0.173053
0.389609 0.282338 0.15082
0.548608 0.289769 0.149416
0.687251 0.304173 0.152667
0.805478 0.321889 0.157412
0.86186 0.330892 0.160739
0.864607 0.338582 0.162936
0.867445 0.346517 0.16524
0.871122 0.357092 0.168292
0.875013 0.368826 0.171847
0.0899367 0.317708 0.190082
0.0944228 0.328115 0.195453
0.0987716 0.338201 0.200656
0.104219 0.351019 0.207294
0.111589 0.368521 0.216388
0.117189 0.382071 0.223438
0.15256 0.387411 0.231083
0.260014 0.394614 0.245396
0.368566 0.411627 0.205463
0.527214 0.416358 0.196551
0.682811 0.420081 0.199512
0.802991 0.433906 0.19649
0.886397 0.444541 0.197604
0.898909 0.45066 0.199786
0.900664 0.457115 0.202182
0.903288 0.467399 0.206073
0.905974 0.478035 0.210163
0.140276 0.439033 0.252964
0.1449 0.450599 0.258946
0.149081 0.461189 0.264408
0.15436 0.474632 0.271351
0.161273 0.492195 0.280446
0.166369 0.50518 0.28719
0.188785 0.508293 0.291814
0.296376 0.512749 0.306325
0.395056 0.525826 0.288899
0.513161 0.537881 0.242969
0.652811 0.543038 0.238865
0.787549 0.548257 0.245167
0.896422 0.5561 0.247562
0.927138 0.561425 0.246845
0.928298 0.566094 0.24921
0.930404 0.574823 0.253605
0.932448 0.583642 0.25803
0.187976 0.560204 0.315663
0.19237 0.571405 0.321447
0.196399 0.58172 0.326787
0.201877 0.595773 0.334035
0.208499 0.612833 0.342809
0.212512 0.623194 0.348119
0.22565 0.622126 0.349477
0.331029 0.62324 0.362448
0.434424 0.630884 0.362615
0.525139 0.647959 0.308248
0.644556 0.6542 0.281376
0.761334 0.660945 0.276555
0.871443 0.668391 0.281422
0.938796 0.672389 0.285573
0.941634 0.674708 0.286351
0.942 0.681453 0.287999
0.942351 0.68806 0.289616
0.231952 0.673289 0.373785
0.236316 0.684565 0.379583
0.24033 0.694957 0.384909
0.246036 0.709758 0.392477
0.251881 0.724681 0.400015
0.254795 0.732143 0.403784
0.263508 0.726726 0.402274
0.369497 0.725841 0.414267
0.473228 0.72929 0.418723
0.555718 0.743374 0.380163
0.653864 0.75375 0.329076
0.759014 0.757488 0.314336
0.85507 0.763485 0.308095
0.944228 0.769421 0.311986
0.947906 0.769192 0.312047
0.948104 0.772976 0.313115
0.948302 0.776761 0.314183
0.273289 0.779751 0.427634
0.277363 0.790356 0.432944
0.281437 0.8009 0.438193
0.286503 0.813993 0.444724
0.289937 0.822904 0.449165
0.290837 0.825223 0.450309
0.302205 0.821393 0.449958
0.40679 0.817517 0.460212
0.508278 0.817472 0.465187
0.589837 0.826123 0.440177
0.670558 0.837919 0.380209
0.765087 0.841901 0.350698
0.853956 0.844648 0.341161
0.934325 0.848722 0.334493
0.953872 0.847974 0.332891
0.954025 0.849668 0.333516
0.954269 0.851362 0.334112
0.293156 0.831266 0.45333
0.293156 0.831266 0.45333
0.293156 0.831266 0.45333
0.293156 0.831266 0.45333
0.293156 0.831266 0.45333
0.293156 0.831266 0.45333
0.310262 0.835401 0.457328
0.421729 0.851942 0.47747
0.527657 0.870054 0.491905
0.614404 0.887587 0.48098
0.688609 0.905013 0.429465
0.771847 0.913146 0.387533
0.855055 0.916136 0.370871
0.932448 0.91812 0.363455
0.964446 0.916793 0.359594
0.964538 0.917342 0.359823
0.96463 0.917906 0.360037
0.293156 0.831266 0.45333
0.293156 0.831266 0.45333
0.293156 0.831266 0.45333
0.293156 0.831266 0.45333
0.293156 0.831266 0.45333
0.293156 0.831266 0.45333
0.317433 0.836423 0.45864
0.426688 0.852705 0.478279
0.527749 0.870268 0.492012
0.613642 0.892012 0.485222
0.687465 0.916808 0.443427
0.766842 0.933989 0.403189
0.847044 0.943511 0.384878
0.923445 0.950057 0.377127
0.970123 0.953719 0.376516
0.970123 0.953719 0.376516
0.970123 0.953719 0.376516
0.293156 0.831266 0.45333
0.293156 0.831266 0.45333
0.293156 0.831266 0.45333
0.293156 0.831266 0.45333
0.293156 0.831266 0.45333
0.293156 0.831266 0.45333
0.322332 0.83714 0.459556
0.430838 0.853468 0.479011
0.530282 0.870863 0.49221
0.614908 0.892485 0.484901
0.68806 0.916991 0.443015
0.766842 0.933989 0.403189
0.84651 0.943465 0.384955
0.922683 0.949996 0.377172
0.970123 0.953719 0.376516
0.970123 0.953719 0.376516
0.970123 0.953719 0.376516
0.293156 0.831266 0.45333
0.293156 0.831266 0.45333
0.293156 0.831266 0.45333
0.293156 0.831266 0.45333
0.293156 0.831266 0.45333
0.293156 0.831266 0.45333
0.323598 0.837247 0.459754
0.431525 0.853559 0.479118
0.530282 0.870863 0.49221
0.614527 0.892271 0.484947
0.687694 0.916884 0.443275
0.766461 0.933928 0.403311
0.846403 0.94345 0.38497
0.923781 0.950088 0.377111
0.970123 0.953719 0.376516
0.970123 0.953719 0.376516
0.970123 0.953719 0.376516
0.00105287 0.0215152 0.0399634
0.00105287 0.0214847 0.0398566
0.00102235 0.0214542 0.039704
0.00328069 0.0225071 0.0409552
0.00973526 0.0254826 0.0447242
0.0226749 0.0301366 0.0505989
0.0594492 0.0393378 0.0627909
0.159091 0.0560922 0.0843214
