public/luts/LAG_BLUE-HOUR.cube
TITLE "Generated by Resolve"
LUT_3D_SIZE 65
0 0 0
0 0 0
0 0 0
0 0 0
0 0 0
0 0 0
0 0 0
0.00256352 0 0
0.00758373 0 0
0.0133822 0 0
0.0198672 0 0
0.0269322 0 0
0.0344091 0 0
0.0424964 0 0
0.0511482 0 0
0.0596933 0 0
0.0682536 0 0
0.0767224 0 0
0.0875257 0 0
0.0994888 0 0
0.112795 0 0
0.127092 0 0
0.142779 0 0
0.159838 0 0
0.178424 0 0
0.198688 0 0
0.220676 0 0
0.24477 0 0
0.271168 0 0
0.299123 0 0
0.329595 0 0
0.362097 0 0
0.399176 0 0
0.440711 0 0
0.487098 0 0
0.539528 0 0
0.594507 0 0
0.652354 0 0
0.709911 0 0
0.763912 0 0
0.81474 0 0
0.858915 0 0
0.899931 0 0
0.934768 0 0
0.967269 0 0
0.996658 0 0
1 0 0
1 0 0
1 0 0
1 0 0
1 0 0
1 0 0
1 0 0
1 0 0
1 0 0
1 0 0
1 0 0
1 0 0
1 0 0
1 0 0
1 0 0
1 0 0
1 0 0
1 0 0
1 0 0
0 0 0
0 0 0
0 0 0
0 0 0
0 0 0
0 0 0
0 0 0
0.00167849 0 0
0.00640879 0 0
0.0120699 0 0
0.0184024 0 0
0.0252537 0 0
0.0327001 0 0
0.0406043 0 0
0.0493019 0 0
0.0578775 0 0
0.0664683 0 0
0.0750286 0 0
0.0860151 0 0
0.0981918 0 0
0.111559 0 0
0.125887 0 0
0.141787 0 0
0.15877 0 0
0.17763 0 0
0.197787 0 0
0.220066 0 0
0.244236 0 0
0.270481 0 0
0.298741 0 0
0.328969 0 0
0.361807 0 0
0.398886 0 0
0.440131 0 0
0.486839 0 0
0.538903 0 0
0.594278 0 0
0.65211 0 0
0.709697 0 0
0.763699 0 0
0.814069 0 0
0.858625 0 0
0.899199 0 0
0.934386 0 0
0.966903 0 0
0.995941 0 0
1 0 0
1 0 0
1 0 0
1 0 0
1 0 0
1 0 0
1 0 0
1 0 0
1 0 0
1 0 0
1 0 0
1 0 0
1 0 0
1 0 0
1 0 0
1 0 0
1 0 0
1 0 0
1 0 0
0 0 0
0 0 0
0 0 0
0 0 0
0 0 0
0 0 0
0 0 0
0.000900282 0 0
0.00534066 0 0
0.0108492 0 0
0.0169985 0 0
0.0238041 0 0
0.0310674 0 0
0.0389563 0 0
0.0476081 0 0
0.0561837 0 0
0.0648661 0 0
0.0733959 0 0
0.0847944 0 0
0.0970932 0 0
0.110552 0 0
0.125154 0 0
0.141054 0 0
0.158358 0 0
0.177325 0 0
0.197711 0 0
0.220172 0 0
0.244282 0 0
0.270939 0 0
0.299107 0 0
0.329778 0 0
0.362768 0 0
0.399802 0 0
0.441596 0 0
0.488182 0 0
0.540856 0 0
0.596429 0 0
0.654063 0 0
0.712169 0 0
0.765789 0 0
0.816617 0 0
0.860777 0 0
0.901793 0 0
0.937057 0 0
0.969207 0 0
0.998672 0 0
1 0 0
1 0 0
1 0 0
1 0 0
1 0 0
1 0 0
1 0 0
1 0 0
1 0 0
1 0 0
1 0 0
1 0 0
1 0 0
1 0 0
1 0 0
1 0 0
1 0 0
1 0 0
1 0 0
0 0 0
0 0 0
0 0 0
0 0 0
0 0 0
0 0 0
0 0 0
0.000381476 0 0
0.00456245 0 0
0.00984207 0 0
0.0159152 0 0
0.0225528 0 0
0.0297551 0 0
0.0375525 0 0
0.0458534 0 0
0.0547341 0 0
0.063386 0 0
0.0722515 0 0
0.0838178 0 0
0.0962387 0 0
0.109972 0 0
0.12459 0 0
0.14081 0 0
0.158251 0 0
0.177325 0 0
0.198032 0 0
0.220447 0 0
0.244968 0 0
0.27158 0 0
0.300221 0 0
0.331151 0 0
0.364141 0 0
0.401709 0 0
0.443427 0 0
0.490623 0 0
0.543481 0 0
0.598932 0 0
0.657115 0 0
0.714931 0 0
0.769131 0 0
0.82005 0 0
0.864363 0 0
0.905425 0 0
0.940261 0 0
0.972763 0 0
1 0 0
1 0 0
1 0 0
1 0 0
1 0 0
1 0 0
1 0 0
1 0 0
1 0 0
1 0 0
1 0 0
1 0 0
1 0 0
1 0 0
1 0 0
1 0 0
1 0 0
1 0 0
1 0 0
1 0 0
0 0 0
0 0 0
0 0 0
0 0 0
0 0 0
0 0 0
0 0 0
4.57771e-05 0 0
0.00390631 0 0
0.00909438 0 0
0.0149844 0 0
0.0215 0 0
0.0286259 0 0
0.0362402 0 0
0.0445411 0 0
0.0533455 0 0
0.0621042 0 0
0.0713359 0 0
0.0830091 0 0
0.0956741 0 0
0.109453 0 0
0.124392 0 0
0.140734 0 0
0.158297 0 0
0.177691 0 0
0.198398 0 0
0.221271 0 0
0.245945 0 0
0.272923 0 0
0.301839 0 0
0.332738 0 0
0.366232 0 0
0.403693 0 0
0.446006 0 0
0.493416 0 0
0.546304 0 0
0.602411 0 0
0.660456 0 0
0.718959 0 0
0.773266 0 0
0.823911 0 0
0.868574 0 0
0.909148 0 0
0.94432 0 0
0.976349 0 0
1 0 0
1 0 0
1 0 0
1 0 0
1 0 0
1 0 0
1 0 0
1 0 0
1 0 0
1 0 0
1 0 0
1 0 0
1 0 0
1 0 0
1 0 0
1 0 0
1 0 0
1 0 0
1 0 0
1 0 0
0 0 0
0 0 0
0 0 0
0 0 0
0 0 0
0 0 0
0 0 0
0 0 0
0.00325017 0 0
0.0083772 0 0
0.0142061 0 0
0.020676 0 0
0.0276036 0 0
0.0351873 0 0
0.0433356 0 0
0.0521859 0 0
0.0609598 0 0
0.0704814 0 0
0.0824292 0 0
0.0951553 0 0
0.109224 0 0
0.1243 0 0
0.140826 0 0
0.158724 0 0
0.178149 0 0
0.199313 0 0
0.222339 0 0
0.247227 0 0
0.274586 0 0
0.303456 0 0
0.33489 0 0
0.368383 0 0
0.406531 0 0
0.44921 0 0
0.496696 0 0
0.550286 0 0
0.606241 0 0
0.664958 0 0
0.723507 0 0
0.777554 0 0
0.82858 0 0
0.872847 0 0
0.913878 0 0
0.94905 0 0
0.981201 0 0
1 0 0
1 0 0
1 0 0
1 0 0
1 0 0
1 0 0
1 0 0
1 0 0
1 0 0
1 0 0
1 0 0
1 0 0
1 0 0
1 0 0
1 0 0
1 0 0
1 0 0
1 0 0
1 0 0
1 0 0
0 0 0
0 0 0
0 0 0
0 0 0
0 0 0
0 0 0
0 0 0
0 0 0
0.00227359 0 0
0.00749218 0 0
0.0134432 0 0
0.0198367 0 0
0.0268101 0 0
0.0342565 0 0
0.0423438 0 0
0.0511635 0 0
0.0598611 0 0
0.0699168 0 0
0.0819257 0 0
0.0949569 0 0
0.109255 0 0
0.124453 0 0
0.141299 0 0
0.159243 0 0
0.17911 0 0
0.200397 0 0
0.223636 0 0
0.248905 0 0
0.27631 0 0
0.305791 0 0
0.337453 0 0
0.37145 0 0
0.41001 0 0
0.452674 0 0
0.500893 0 0
0.55436 0 0
0.611048 0 0
0.669902 0 0
0.728389 0 0
0.782986 0 0
0.833692 0 0
0.878523 0 0
0.919509 0 0
0.95436 0 0
0.986709 0 0
1 0 0
1 0 0
1 0 0
1 0 0
1 0 0
1 0 0
1 0 0
1 0 0
1 0 0
1 0 0
1 0 0
1 0 0
1 0 0
1 0 0
1 0 0
1 0 0
1 0 0
1 0 0
1 0 0
1 0 0
0 0.00149538 0
0 0.00163272 0
0 0.00172427 0
0 0.00151064 0
0 0.000732433 0
0 0 0
0 0 0
0 0 0
0.00105287 0 0
0.00619516 0 0
0.0122072 0 0
0.0188449 0 0
0.0258335 0 0
0.0333257 0 0
0.0413977 0 0
0.0501106 0 0
0.0588998 0 0
0.0693675 0 0
0.081651 0 0
0.0948959 0 0
0.109239 0 0
0.124788 0 0
0.141665 0 0
0.159991 0 0
0.179995 0 0
0.201526 0 0
0.225208 0 0
0.250553 0 0
0.278584 0 0
0.308278 0 0
0.340246 0 0
0.374746 0 0
0.413245 0 0
0.456611 0 0
0.504799 0 0
0.559106 0 0
0.616236 0 0
0.67512 0 0
0.73431 0 0
0.788632 0 0
0.839902 0 0
0.88452 0 0
0.925124 0 0
0.960174 0 0
0.992004 0 0
1 0 0
1 0 0
1 0 0
1 0 0
1 0 0
1 0 0
1 0 0
1 0 0
1 0 0
1 0 0
1 0 0
1 0 0
1 0 0
1 0 0
1 0 0
1 0 0
1 0 0
1 0 0
1 0 0
1 0 0
0 0.00607309 0
0 0.00624094 0
0 0.00634775 0
0 0.00628672 0
0 0.0055848 0
0 0.00427253 0
0 0.00299077 0
0 0.00198367 0
1.5259e-05 0.00134279 0
0.00462348 0.000793469 0
0.0107271 0.000350958 0
0.0174716 0 0
0.0247044 0 0
0.0323644 0 0
0.0404212 0 0
0.0492561 0 0
0.0580148 0 0
0.0691539 0 0
0.081651 0 0
0.0949264 0 0
0.109606 0 0
0.125216 0 0
0.142504 0 0
0.16112 0 0
0.181308 0 0
0.203281 0 0
0.227039 0 0
0.252964 0 0
0.281147 0 0
0.311147 0 0
0.343618 0 0
0.37818 0 0
0.417487 0 0
0.461204 0 0
0.510124 0 0
0.564965 0 0
0.622034 0 0
0.681682 0 0
0.740475 0 0
0.795331 0 0
0.846448 0 0
0.890898 0 0
0.931914 0 0
0.966598 0 0
0.998917 0 0
1 0 0
1 0 0
1 0 0
1 0 0
1 0 0
1 0 0
1 0 0
1 0 0
1 0 0
1 0 0
1 0 0
1 0 0
1 0 0
1 0 0
1 0 0
1 0 0
1 0 0
1 0 0
1 0 0
1 0 0
0 0.0115663 0
0 0.0116884 0
0 0.0118715 0
0 0.0118715 0
0 0.0114595 0
0 0.0102846 0
0 0.00865187 0
0 0.00723278 0
0 0.00607309 0
0.00299077 0.0052491 0
0.00895705 0.00456245 0
0.0157473 0.00384527 0
0.0231785 0.00323491 0
0.0309911 0.00257877 0
0.0393225 0.00201419 0
0.0482185 0.00143435 0
0.0573129 0.000854505 0
0.0690013 0.000198367 0
0.0816052 0 0
0.0952621 0 0
0.110063 0 0
0.12604 0 0
0.143603 0 0
0.162295 0 0
0.182956 0 0
0.204959 0 0
0.229236 0 0
0.255329 0 0
0.283909 0 0
0.314504 0 0
0.347127 0 0
0.382544 0 0
0.422171 0 0
0.466361 0 0
0.515923 0 0
0.570657 0 0
0.628504 0 0
0.687953 0 0
0.74757 0 0
0.802731 0 0
0.853712 0 0
0.898634 0 0
0.939147 0 0
0.974197 0 0
1 0 0
1 0 0
1 0 0
1 0 0
1 0 0
1 0 0
1 0 0
1 0 0
1 0 0
1 0 0
1 0 0
1 0 0
1 0 0
1 0 0
1 0 0
1 0 0
1 0 0
1 0 0
1 0 0
1 0 0
1 0 0
0 0.0175784 0
0 0.017792 0
0 0.0179141 0
0 0.0180514 0
0 0.0178531 0
0 0.016907 0
0 0.0153811 0
0 0.0135958 0
0 0.0121157 0
0.00122072 0.0109255 0
0.00700389 0.00994888 0
0.0137942 0.00914015 0
0.0212253 0.00828565 0
0.0292821 0.00750744 0
0.0377661 0.00668345 0
0.046952 0.0059205 0
0.0568246 0.00511177 0
0.0687877 0.00402838 0
0.0818799 0.00289921 0
0.0956741 0.00166323 0
0.110857 0.000427253 0
0.127108 0 0
0.144701 0 0
0.163821 0 0
0.184558 0 0
0.207126 0 0
0.231815 0 0
0.258213 0 0
0.287404 0 0
0.318105 0 0
0.351507 0 0
0.387091 0 0
0.427146 0 0
0.471992 0 0
0.521614 0 0
0.577417 0 0
0.635599 0 0
0.695872 0 0
0.755886 0 0
0.810681 0 0
0.86215 0 0
0.906386 0 0
0.947158 0 0
0.981796 0 0
1 0 0
1 0 0
1 0 0
1 0 0
1 0 0
1 0 0
1 0 0
1 0 0
1 0 0
1 0 0
1 0 0
1 0 0
1 0 0
1 0 0
1 0 0
1 0 0
1 0 0
1 0 0
1 0 0
1 0 0
1 0 0
0 0.0241703 0
0 0.0243229 0
0 0.0245518 0
0 0.0247501 0
0 0.0246281 0
0 0.0240635 0
0 0.0227207 0
0 0.0209506 0
0 0.0191653 0
0 0.0175326 0
0.00476081 0.0162661 0
0.0115358 0.0151827 0
0.0190127 0.0142824 0
0.0271763 0.0133822 0
0.0358434 0.0124056 0
0.0451362 0.0115053 0
0.0558938 0.0104067 0
0.068513 0.00915541 0
0.0819257 0.00772107 0
0.0961776 0.00619516 0
0.111666 0.00451667 0
0.128038 0.00270085 0
0.146151 0.000885023 0
0.165454 0 0
0.186725 0 0
0.209674 0 0
0.23447 0 0
0.261524 0 0
0.29073 0 0
0.322148 0 0
0.355749 0 0
0.391913 0 0
0.432776 0 0
0.477852 0 0
0.528649 0 0
0.584802 0 0
0.643549 0 0
0.704326 0 0
0.763882 0 0
0.819196 0 0
0.870085 0 0
0.914839 0 0
0.955612 0 0
0.989914 0 0
1 0 0
1 0 0
1 0 0
1 0 0
1 0 0
1 0 0
1 0 0
1 0 0
1 0 0
1 0 0
1 0 0
1 0 0
1 0 0
1 0 0
1 0 0
1 0 0
1 0 0
1 0 0
1 0 0
1 0 0
1 0 0
0 0.0312352 0
0 0.0314031 0
0 0.0316625 0
0 0.0318151 0
0 0.0318914 0
0 0.0314946 0
0 0.0305486 0
0 0.0289311 0
0 0.0269474 0
0 0.0250858 0
0.00213626 0.0234226 0
0.0090486 0.0220951 0
0.0166629 0.0210117 0
0.0247654 0.0199435 0
0.0336156 0.0189059 0
0.0429847 0.0177768 0
0.0545815 0.0165408 0
0.0677348 0.0150301 0
0.0818341 0.0134127 0
0.0966812 0.0116884 0
0.112474 0.00968948 0
0.129458 0.00759899 0
0.147768 0.00523384 0
0.167559 0.0027924 0
0.189197 0.000442512 0
0.212192 0 0
0.237568 0 0
0.264698 0 0
0.294759 0 0
0.326757 0 0
0.36083 0 0
0.397818 0 0
0.438865 0 0
0.484962 0 0
0.535912 0 0
0.592554 0 0
0.651881 0 0
0.712444 0 0
0.772885 0 0
0.828122 0 0
0.879499 0 0
0.924285 0 0
0.96437 0 0
0.998917 0 0
1 0 0
1 0 0
1 0 0
1 0 0
1 0 0
1 0 0
1 0 0
1 0 0
1 0 0
1 0 0
1 0 0
1 0 0
1 0 0
1 0 0
1 0 0
1 0 0
1 0 0
1 0 0
1 0 0
1 0 0
1 0 0
0 0.0387274 0
0 0.0389868 0
0 0.0391699 0
0 0.0394446 0
0 0.0395209 0
0 0.0393988 0
0 0.0387884 0
0 0.0374151 0
0 0.0355993 0
0 0.0334936 0
0 0.0315862 0
0.00596628 0.0299077 0
0.0137484 0.0284123 0
0.0220798 0.0272221 0
0.0308843 0.0260319 0
0.0404669 0.0248875 0
0.0527047 0.0235142 0
0.0665446 0.0218051 0
0.0814221 0.0199741 0
0.0967727 0.0179446 0
0.113329 0.0157626 0
0.130587 0.0133364 0
0.149462 0.0106661 0
0.16965 0.00779736 0
0.191455 0.00463874 0
0.215183 0.00154116 0
0.240803 0 0
0.268772 0 0
0.299382 0 0
0.331563 0 0
0.366522 0 0
0.403494 0 0
0.445457 0 0
0.491722 0 0
0.543404 0 0
0.600931 0 0
0.660304 0 0
0.721965 0 0
0.78233 0 0
0.837781 0 0
0.88922 0 0
0.93312 0 0
0.973388 0 0
1 0 0
1 0 0
1 0 0
1 0 0
1 0 0
1 0 0
1 0 0
1 0 0
1 0 0
1 0 0
1 0 0
1 0 0
