public/luts/LAG_BLUE-HOUR.cube
TITLE "Generated by Resolve"
LUT_3D_SIZE 9
0 0 0
0.00758373 0 0
0.0682536 0 0
0.178424 0 0
0.399176 0 0
0.81474 0 0
1 0 0
1 0 0
1 0 0
0 0.00607309 0
1.5259e-05 0.00134279 0
0.0580148 0 0
0.181308 0 0
0.417487 0 0
0.846448 0 0
1 0 0
1 0 0
1 0 0
0 0.0640116 0
0 0.0654154 0
0.0431373 0.0492409 0
0.199664 0.0236362 0
0.46743 0 0
0.916884 0 0
1 0 0
1 0 0
1 0 0
0 0.191775 0
0 0.209277 0
0 0.208087 0
0.171786 0.174578 0
0.514168 0.10837 0
0.979767 0 0
1 0 0
1 0 0
1 0 0
0 0.467002 0
0 0.513787 0
0 0.550774 0
0 0.513909 0
0.44152 0.441627 0
0.992859 0.329564 0
1 0.329412 0
1 0.403174 0
1 0.495537 0
0 0.896635 0
0 0.949691 0
0 0.998764 0
0 1 0
0 0.976608 0
0.870039 0.885695 0
1 0.891798 0
1 0.917052 0
1 0.93814 0
0 1 0
0 1 0
0 1 0
0 1 0
0 1 0
0.837324 1 0
1 1 0
1 1 0
1 1 0
0 1 0
0 1 0
0 1 0
0 1 0
0 1 0
0.809537 1 0
1 1 0
1 1 0
1 1 0
0 1 0
0 1 0
0 1 0
0 1 0
0 1 0
0.764309 1 0
0.990082 1 0
1 1 0
1 1 0
0 0 0.000534066
0.00244144 0 0
0.0604105 0 0
0.170275 0 0
0.390478 0 0
0.806821 0 0
1 0 0
1 0 0
1 0 0
0 0 0
0 0 0
0.0499275 0 0
0.174502 0 0
0.412284 0 0
0.844587 0 0
1 0 0
1 0 0
1 0 0
0 0.049012 0.00299077
0 0.0494545 3.0518e-05
0.0368048 0.0417334 0
0.189227 0.0195621 0
0.45861 0 0
0.912612 0 0
1 0 0
1 0 0
1 0 0
0 0.177249 0.000335698
0 0.19411 0
0 0.210117 0
0.168109 0.17641 0
0.507912 0.113832 0
0.973983 0 0
1 0 0
1 0 0
1 0 0
0 0.45594 0
0 0.50222 0
0 0.548959 0
0 0.537072 0
0.441688 0.454856 0
0.993225 0.351415 0
1 0.361563 0
1 0.439231 0
1 0.530877 0
0 0.891752 0
0 0.94641 0
0 1 0
0 1 0
0 1 0
0.875013 0.903304 0
1 0.906416 0
1 0.927062 0
1 0.944823 0
0 1 0
0 1 0
0 1 0
0 1 0
0 1 0
0.833188 1 0
1 1 0
1 1 0
1 1 0
0 1 0
0 1 0
0 1 0
0 1 0
0 1 0
0.798428 1 0
0.999695 1 0
1 1 0
1 1 0
0 1 0.224399
0 1 0.173709
0 1 0.0783093
0 1 0
0 1 0
0.74612 1 0
0.986389 1 0
1 1 0
1 1 0
0 0 0.0469673
0 0 0.0459907
0.0522774 0 0.0375525
0.157092 0 0.0330968
0.37145 0 0.0193027
0.787366 0 0
1 0 0
1 0 0
1 0 0
0 0 0.0336004
0 0 0.0404212
0.0406348 0 0.0348058
0.162768 0 0.0309453
0.400793 0 0.015671
0.836378 0 0
1 0 0
1 0 0
1 0 0
0 0.0411231 0.0354925
0 0.0368963 0.0347906
0.0292363 0.0328222 0.0343175
0.180179 0.0137484 0.0301823
0.453864 0 0.012604
0.912642 0 0
1 0 0
1 0 0
1 0 0
0 0.167422 0.0401923
0 0.176822 0.047425
0 0.19324 0.0374609
0.162219 0.177218 0.00419623
0.494453 0.120394 0
0.967056 0 0
1 0 0
1 0 0
1 0 0
0 0.441855 0.019913
0 0.482887 0.0139467
0 0.528817 0
0 0.55317 0
0.439292 0.467674 0
0.988739 0.373968 0
1 0.393744 0
1 0.471351 0
1 0.558175 0
0 0.881071 0
0 0.937636 0
0 0.996262 0
0 1 0
0 1 0
0.876951 0.917815 0
1 0.916838 0
1 0.933776 0
1 0.949096 0
0 1 0
0 1 0.029099
0 1 0.0416571
0 1 0
0 1 0
0.824659 1 0
1 1 0
1 1 0
1 1 0
0 1 0.345434
0 1 0.338048
0 1 0.29308
0 1 0.140276
0 1 0
0.781308 1 0
0.995682 1 0
1 1 0
1 1 0
0 1 0.503731
0 1 0.473533
0 1 0.416266
0 1 0.271962
0 1 0
0.720851 1 0
0.980865 1 0
1 1 0
1 1 0
0 0 0.16878
0 0 0.178744
0.0328679 0 0.158267
0.139498 0 0.134279
0.342947 0 0.117723
0.746609 0 0.0741894
1 0 0.0380102
1 0 0.0214847
1 0 0.0162661
0 0 0.151873
0 0 0.169116
0.0182193 0 0.171862
0.142977 0 0.141085
0.369039 0 0.126955
0.802518 0 0.0838483
1 0 0.0546426
1 0 0.0491798
1 0 0.0582895
0 0.02533 0.139116
0 0.0198215 0.14963
0.00360113 0.00849927 0.17322
0.15906 0 0.159426
0.427237 0 0.152361
0.894102 0 0.11046
1 0 0.094255
1 0 0.105241
1 0 0.128634
0 0.153964 0.151995
0 0.161532 0.159884
0 0.168383 0.166857
0.143709 0.158984 0.163912
0.471138 0.104173 0.155276
0.956085 0 0.110002
1 0 0.101503
1 0 0.122255
1 0 0.161639
0 0.425528 0.161456
0 0.457954 0.183429
0 0.487343 0.205631
0 0.510018 0.179187
0.423667 0.469444 0.0623789
0.968429 0.386664 0.020676
1 0.408698 0.0319829
1 0.482933 0.0870375
1 0.561318 0.148089
0 0.858259 0.137835
0 0.911864 0.186023
0 0.967956 0.22446
0 1 0.188357
0 1 0
0.868986 0.922103 0
1 0.915618 0
1 0.928389 0
1 0.941649 0
0 1 0.370886
0 1 0.45037
0 1 0.489387
0 1 0.436347
0 1 0.213886
0.800122 1 0
1 1 0
1 1 0
1 1 0
0 1 0.650874
0 1 0.665034
0 1 0.651957
0 1 0.572747
0 1 0.366979
0.742596 1 0
0.985718 1 0
1 1 0
1 1 0
0 1 0.767102
0 1 0.761975
0 1 0.737697
0 1 0.658473
0 1 0.471015
0.674327 1 0
0.967651 1 0
1 1 0
1 1 0
0 0 0.427512
0 0 0.449119
0 0 0.444739
0.0968338 0 0.37319
0.30454 0 0.324361
0.69839 0 0.279881
0.978698 0 0.262867
1 0 0.263188
1 0 0.272404
0 0 0.406317
0 0 0.434989
0 0 0.453849
0.0939651 0 0.403632
0.330312 0 0.347951
0.753811 0 0.310491
1 0 0.306233
1 0 0.321828
1 0 0.347112
0 0 0.376928
0 0 0.413718
0 0 0.454459
0.0972763 0 0.459861
0.386923 0 0.399268
0.847028 0 0.372976
1 0 0.383963
1 0 0.415015
1 0 0.455482
0 0.109972 0.366949
0 0.117662 0.388373
0 0.119371 0.417685
0.0426337 0.082002 0.466148
0.426368 0.0133516 0.438743
0.917906 0 0.424674
1 0 0.444999
1 0 0.487343
1 0 0.546487
0 0.396582 0.404303
0 0.430259 0.434287
0 0.457694 0.457496
0 0.456977 0.455879
0.386603 0.430472 0.443198
0.938781 0.352071 0.43621
1 0.368002 0.478004
1 0.437339 0.542275
1 0.508431 0.601877
0 0.83061 0.406867
0 0.881422 0.468345
0 0.930648 0.540871
0 0.95433 0.591012
0 0.961975 0.557336
0.843122 0.89781 0.33106
1 0.885573 0.360037
1 0.894911 0.392142
1 0.904662 0.419272
0 1 0.652506
0 1 0.727764
0 1 0.78024
0 1 0.794034
0 1 0.717159
0.735286 1 0.355169
0.986435 1 0.296986
1 1 0.316106
1 1 0.336233
0 1 0.848508
0 1 0.869963
0 1 0.882048
0 1 0.871229
0 1 0.804181
0.675822 1 0.489525
0.961883 1 0.290318
1 1 0.290379
1 1 0.305531
0 1 0.920302
0 1 0.928389
0 1 0.930327
0 1 0.913649
0 1 0.853758
0.641443 1 0.607828
0.936873 1 0.331228
1 1 0.275471
1 1 0.28452
0 0 0.850355
0 0 0.871077
0 0 0.879393
0 0 0.843091
0.220539 0 0.739971
0.626612 0 0.659129
0.920012 0 0.644327
1 0 0.64889
1 0 0.663447
0 0 0.832166
0 0 0.858396
0 0 0.878752
0 0 0.868879
0.244175 0 0.780453
0.686168 0 0.703548
0.984604 0 0.702464
1 0 0.721553
1 0 0.750317
0 0 0.806149
0 0 0.844511
0 0 0.881025
0 0 0.901625
0.297505 0 0.849165
0.78468 0 0.776562
1 0 0.786908
1 0 0.815778
1 0 0.851087
0 0 0.75845
0 0 0.804974
0 0 0.854597
0 0 0.897902
0.318318 0 0.902754
0.858625 0 0.828489
1 0 0.845304
1 0 0.881346
1 0 0.923873
0 0.319005 0.762554
0 0.360449 0.795453
0 0.398917 0.825223
0 0.401999 0.846342
0.211261 0.353216 0.889113
0.883741 0.250217 0.860197
1 0.268406 0.890593
1 0.350011 0.926604
1 0.428168 0.951919
0 0.780102 0.772305
0 0.834699 0.816052
0 0.888914 0.859159
0 0.917037 0.882963
0.0544442 0.896864 0.87483
0.791897 0.826764 0.835828
0.992126 0.815656 0.844755
1 0.822766 0.855863
1 0.83154 0.865446
0 1 0.901823
0 1 0.931151
0 1 0.94757
0 1 0.950393
0.114397 1 0.933059
0.715694 0.989853 0.884108
0.948745 0.969436 0.811704
1 0.962448 0.819242
1 0.961669 0.825986
0 1 0.972534
0 1 0.978821
0 1 0.981994
0 1 0.979446
0.169131 1 0.968261
0.702037 1 0.921508
0.904524 1 0.830472
0.996078 1 0.805371
1 1 0.812055
0 1 0.997742
0 1 1
0 1 1
0 1 0.998245
0.169986 1 0.989471
0.705196 1 0.950408
0.883497 1 0.885237
0.982437 1 0.80679
1 1 0.801862
0 0 1
0 0 1
0 0 1
0 0 1
0.153765 0 0.969299
0.583383 0 0.884245
0.885588 0 0.867369
1 0 0.870771
1 0 0.881102
0 0 1
0 0 1
0 0 1
0 0 1
0.178408 0 0.997711
0.649851 0 0.920729
0.957916 0 0.913191
1 0 0.925231
1 0 0.942535
0 0 0.996796
0 0 1
0 0 1
0 0 1
0.235279 0 1
0.75671 0 0.971313
1 0 0.969207
1 0 0.984482
1 0 1
0 0 0.964263
0 0 0.995361
0 0 1
0 0 1
0.249073 0 1
0.836561 0 1
1 0 1
1 0 1
1 0 1
0 0.280049 0.938613
0 0.328191 0.962219
0 0.370718 0.984527
0 0.383856 1
0.108309 0.34844 1
0.867292 0.218463 1
1 0.262608 1
1 0.352895 1
1 0.432303 1
0 0.773342 0.928939
0 0.833906 0.953262
0 0.890227 0.973571
0 0.922698 0.984039
0 0.906294 0.978836
0.737118 0.822873 0.971008
0.974487 0.800504 0.963317
1 0.806745 0.967666
1 0.814252 0.972671
0 1 0.986526
0 1 0.997879
0 1 1
0 1 1
0.176974 1 0.990341
0.759777 0.96965 0.960555
0.93402 0.945434 0.948119
0.998795 0.9402 0.949294
1 0.939345 0.950668
0 1 1
0 1 1
0 1 1
0 1 1
0.274235 1 0.999283
0.766461 1 0.975708
0.907515 0.999359 0.962188
0.984131 0.992828 0.940139
1 0.989517 0.942107
0 1 1
0 1 1
0 1 1
0 1 1
0.307774 1 1
0.770565 1 0.991379
0.898405 1 0.976257
0.96437 1 0.950698
1 1 0.936492
0 0 1
0 0 1
0 0 1
0 0 1
0.104662 0 1
0.557137 0 1
0.863111 0 0.991852
1 0 0.991836
1 0 0.997879
0 0 1
0 0 1
0 0 1
0 0 1
0.133013 0 1
0.630777 0 1
0.943023 0 1
1 0 1
1 0 1
0 0 1
0 0 1
0 0 1
0 0 1
0.195804 0 1
0.745342 0 1
1 0 1
1 0 1
1 0 1
0 0 1
0 0 1
0 0 1
0 0 1
0.206516 0 1
0.827741 0 1
1 0 1
1 0 1
1 0 1
0 0.273259 1
0 0.327932 1
0 0.375067 1
0 0.398733 1
0.0260014 0.380468 1
0.854826 0.245853 1
1 0.291539 1
1 0.380728 1
1 0.451164 1
0 0.785824 1
0 0.850217 1
0 0.905043 1
0 0.933577 1
0 0.919738 1
0.707286 0.834257 1
0.964721 0.798856 1
1 0.805905 1
1 0.813748 1
0 1 1
0 1 1
0 1 1
0 1 1
0.145724 1 1
0.7346 0.972396 0.996185
0.914611 0.943404 0.993332
0.992264 0.934951 0.990234
1 0.933867 0.991028
0 1 1
0 1 1
0 1 1
0 1 1
0.29305 1 1
0.783993 1 0.99852
0.922179 0.992111 0.989349
0.979355 0.984634 0.985885
1 0.98201 0.986068
0 1 1
0 1 1
0 1 1
0 1 1
0.34786 1 1
0.804471 1 1
0.920897 1 0.996216
0.968383 1 0.99205
1 1 0.982452
0 0 1
0 0 1
0 0 1
0 0 1
0.0596628 0 1
0.53547 0 1
0.846815 0 1
1 0 1
1 0 1
0 0 1
0 0 1
0 0 1
0 0 1
0.09308 0 1
0.615457 0 1
0.93402 0 1
1 0 1
1 0 1
0 0 1
0 0 1
0 0 1
0 0 1
0.161593 0 1
0.734752 0 1
1 0 1
1 0 1
1 0 1
0 0 1
0 0 1
0 0 1
0 0 1
0.167987 0 1
0.816129 0 1
1 0 1
1 0 1
1 0 1
0 0.286076 1
0 0.345037 1
0 0.396323 1
0 0.427787 1
0 0.423117 1
0.838621 0.298161 1
1 0.327245 1
1 0.412421 1
1 0.474968 1
0 0.806683 1
0 0.870542 1
0 0.922957 1
0 0.946059 1
0 0.931945 1
0.67921 0.849653 1
0.950423 0.808026 1
1 0.80824 1
1 0.816175 1
0 1 1
0 1 1
0 1 1
0 1 1
0.00256352 1 1
0.68838 0.977951 1
0.899001 0.946426 1
0.986496 0.93344 1
1 0.932403 1
0 1 1
0 1 1
0 1 1
0 1 1
0.254994 1 1
0.774731 1 1
0.908843 0.993515 1
0.970596 0.984054 1
1 0.979858 1
0 1 1
0 1 1
0 1 1
0 1 1
0.350591 1 1
0.818036 1 1
0.929808 1 1
0.975204 1 1
0.999664 1 1
