public/luts/LAG_EARTHY.cube
TITLE "Generated by Resolve"
LUT_3D_SIZE 5
0 0 0
0.0692302 0 0
0.411215 0 0
0.983841 0 0
1 0 0
0 0.0690166 0
0.0637217 0.0475013 0
0.497673 0 0
1 0 0
1 0 0
0 0.445716 0
0 0.48574 0
0.626596 0.419043 0
1 0.344564 0
1 0.383032 0
0 1 0
0 1 0
0.522805 1 0
1 0.977279 0
1 0.973556 0
0 1 0
0 1 0
0.515404 1 0
1 1 0
1 1 0
0 0 0.0504921
0.0801251 0 0.0457008
0.439002 0 0.00915541
1 0 0
1 0 0
0 0.0521401 0.0309606
0.0389715 0.041474 0.0339818
0.495003 0 0.00975052
1 0 0
1 0 0
0 0.467582 0
0 0.520088 0
0.591516 0.454032 0
1 0.394858 0
1 0.426719 0
0 1 0
0 1 0
0.450019 1 0
1 0.989136 0
1 0.98233 0
0 1 0
0 1 0
0.418708 1 0
1 1 0
1 1 0
0 0 0.410895
0.0273442 0 0.409201
0.504463 0 0.341573
1 0 0.247318
1 0 0.200931
0 0 0.402502
0 0 0.428321
0.568505 0 0.401266
1 0 0.353353
1 0 0.370108
0 0.433845 0.332799
0 0.488716 0.387762
0.486259 0.440742 0.39678
1 0.375265 0.387121
1 0.387915 0.406714
0 1 0.215366
0 1 0.266545
0.210559 1 0.23621
0.997971 0.957534 0.394995
1 0.94966 0.439704
0 1 0.189319
0 1 0.22649
0.174777 1 0.175357
0.974044 1 0.329824
1 1 0.499062
0 0 0.942107
0 0 0.941268
0.445457 0 0.892989
1 0 0.837812
1 0 0.802899
0 0 0.942031
0 0 0.964141
0.52929 0 0.952743
1 0 0.936431
1 0 0.934051
0 0.285176 0.910048
0 0.353902 0.946166
0.437537 0.297932 0.9449
1 0.148241 0.930968
1 0.204303 0.92015
0 0.992477 0.873243
0 1 0.898924
0 0.969009 0.884657
0.935668 0.897719 0.871046
1 0.891066 0.86804
0 1 0.874495
0 1 0.890745
0 1 0.860334
0.90576 1 0.837842
1 1 0.903578
0 0 1
0 0 1
0.406806 0 1
1 0 1
1 0 1
0 0 1
0 0 1
0.517632 0 1
1 0 1
1 0 1
0 0.219638 1
0 0.315541 1
0.42858 0.253773 1
1 0.064744 1
1 0.0522469 1
0 0.968139 1
0 0.986801 1
0 0.944335 1
0.927214 0.871687 1
1 0.855528 1
0 1 1
0 1 1
0 1 1
0.880507 1 0.995209
1 0.999832 0.993637
