public/luts/LAG_EARTHY.cube
TITLE "Generated by Resolve"
LUT_3D_SIZE 65
0 0 0
0 0 0
0 0 0
0 0 0
0 0 0
0 0 0
0 0 0
0.00172427 0 0
0.00657664 0 0
0.012314 0 0
0.0188296 0 0
0.0259861 0 0
0.0336614 0 0
0.0420233 0 0
0.0511025 0 0
0.0601663 0 0
0.0692302 0 0
0.0785687 0 0
0.0908064 0 0
0.104128 0 0
0.118608 0 0
0.13431 0 0
0.151385 0 0
0.16994 0 0
0.189899 0 0
0.211597 0 0
0.234836 0 0
0.259968 0 0
0.286748 0 0
0.315343 0 0
0.3458 0 0
0.377554 0 0
0.411215 0 0
0.445991 0 0
0.482094 0 0
0.519234 0 0
0.55671 0 0
0.594949 0 0
0.63299 0 0
0.671183 0 0
0.709102 0 0
0.746075 0 0
0.78265 0 0
0.818433 0 0
0.853895 0 0
0.888106 0 0
0.921233 0 0
0.953353 0 0
0.983841 0 0
1 0 0
1 0 0
1 0 0
1 0 0
1 0 0
1 0 0
1 0 0
1 0 0
1 0 0
1 0 0
1 0 0
1 0 0
1 0 0
1 0 0
1 0 0
1 0 0
0 0 0
0 0 0
0 0 0
0 0 0
0 0 0
0 0 0
0 0 0
0.000793469 0 0
0.00521859 0 0
0.0108034 0 0
0.0171511 0 0
0.0240635 0 0
0.031693 0 0
0.0398566 0 0
0.0489662 0 0
0.0580453 0 0
0.067216 0 0
0.0767834 0 0
0.0890211 0 0
0.102556 0 0
0.117021 0 0
0.132906 0 0
0.150103 0 0
0.168566 0 0
0.188785 0 0
0.210346 0 0
0.233845 0 0
0.259052 0 0
0.285786 0 0
0.314504 0 0
0.344671 0 0
0.37673 0 0
0.410147 0 0
0.445014 0 0
0.481224 0 0
0.517983 0 0
0.555901 0 0
0.593912 0 0
0.632258 0 0
0.670497 0 0
0.707973 0 0
0.745373 0 0
0.781476 0 0
0.817685 0 0
0.852979 0 0
0.887205 0 0
0.920684 0 0
0.952514 0 0
0.98352 0 0
1 0 0
1 0 0
1 0 0
1 0 0
1 0 0
1 0 0
1 0 0
1 0 0
1 0 0
1 0 0
1 0 0
1 0 0
1 0 0
1 0 0
1 0 0
1 0 0
0 0 0
0 0 0
0 0 0
0 0 0
0 0 0
0 0 0
0 0 0
0.000137331 0 0
0.00418097 0 0
0.00953689 0 0
0.0156252 0 0
0.0224765 0 0
0.0298924 0 0
0.0380102 0 0
0.0470588 0 0
0.0561685 0 0
0.0654154 0 0
0.0751354 0 0
0.0876478 0 0
0.101228 0 0
0.115969 0 0
0.132052 0 0
0.149248 0 0
0.168048 0 0
0.188266 0 0
0.210193 0 0
0.233875 0 0
0.258991 0 0
0.286152 0 0
0.314748 0 0
0.345388 0 0
0.377417 0 0
0.411154 0 0
0.446372 0 0
0.482429 0 0
0.519783 0 0
0.557626 0 0
0.595941 0 0
0.634577 0 0
0.672465 0 0
0.710475 0 0
0.747555 0 0
0.784268 0 0
0.820645 0 0
0.855848 0 0
0.890455 0 0
0.923568 0 0
0.95581 0 0
0.986557 0 0
1 0 0
1 0 0
1 0 0
1 0 0
1 0 0
1 0 0
1 0 0
1 0 0
1 0 0
1 0 0
1 0 0
1 0 0
1 0 0
1 0 0
1 0 0
1 0 0
0 0 0
0 0 0
0 0 0
0 0 0
0 0 0
0 0 0
0 0 0
1.5259e-05 0 0
0.00370794 0 0
0.00872816 0 0
0.0146792 0 0
0.0212558 0 0
0.0285801 0 0
0.0365606 0 0
0.0451972 0 0
0.0545968 0 0
0.063798 0 0
0.07393 0 0
0.0865034 0 0
0.100374 0 0
0.115297 0 0
0.131426 0 0
0.148959 0 0
0.167788 0 0
0.188357 0 0
0.210483 0 0
0.234134 0 0
0.259693 0 0
0.286793 0 0
0.315908 0 0
0.346807 0 0
0.379004 0 0
0.413123 0 0
0.448203 0 0
0.484871 0 0
0.522133 0 0
0.560296 0 0
0.598917 0 0
0.637324 0 0
0.675898 0 0
0.713848 0 0
0.751476 0 0
0.788388 0 0
0.824414 0 0
0.860105 0 0
0.894209 0 0
0.927718 0 0
0.959716 0 0
0.990478 0 0
1 0 0
1 0 0
1 0 0
1 0 0
1 0 0
1 0 0
1 0 0
1 0 0
1 0 0
1 0 0
1 0 0
1 0 0
1 0 0
1 0 0
1 0 0
1 0 0
0 0 0
0 0 0
0 0 0
0 0 0
0 0 0
0 0 0
0 0 0
4.57771e-05 0 0
0.00366217 0 0
0.00856031 0 0
0.0141909 0 0
0.0205844 0 0
0.0276951 0 0
0.0354009 0 0
0.0439612 0 0
0.0532235 0 0
0.062501 0 0
0.0730144 0 0
0.0857404 0 0
0.0998093 0 0
0.114763 0 0
0.131212 0 0
0.148775 0 0
0.167956 0 0
0.188739 0 0
0.21088 0 0
0.235004 0 0
0.260578 0 0
0.288228 0 0
0.317617 0 0
0.34847 0 0
0.381231 0 0
0.415213 0 0
0.450889 0 0
0.487511 0 0
0.525231 0 0
0.563867 0 0
0.602365 0 0
0.64152 0 0
0.680003 0 0
0.718349 0 0
0.756207 0 0
0.792676 0 0
0.829221 0 0
0.8645 0 0
0.899214 0 0
0.932845 0 0
0.964736 0 0
0.995758 0 0
1 0 0
1 0 0
1 0 0
1 0 0
1 0 0
1 0 0
1 0 0
1 0 0
1 0 0
1 0 0
1 0 0
1 0 0
1 0 0
1 0 0
1 0 0
1 0 0
0 0 0
0 0 0
0 0 0
0 0 0
0 0 0
0 0 0
0 0 0
0 0 0
0.00367742 0 0
0.00860609 0 0
0.0142367 0 0
0.0204623 0 0
0.0272679 0 0
0.0348211 0 0
0.0430915 0 0
0.0523079 0 0
0.0615091 0 0
0.072343 0 0
0.0853437 0 0
0.0994125 0 0
0.114687 0 0
0.131167 0 0
0.149111 0 0
0.168521 0 0
0.189349 0 0
0.211963 0 0
0.236103 0 0
0.262196 0 0
0.290105 0 0
0.319432 0 0
0.350866 0 0
0.383581 0 0
0.418265 0 0
0.454322 0 0
0.491218 0 0
0.529442 0 0
0.567926 0 0
0.607141 0 0
0.646097 0 0
0.684977 0 0
0.723598 0 0
0.761166 0 0
0.798367 0 0
0.83476 0 0
0.870634 0 0
0.905486 0 0
0.938674 0 0
0.970916 0 0
1 0 0
1 0 0
1 0 0
1 0 0
1 0 0
1 0 0
1 0 0
1 0 0
1 0 0
1 0 0
1 0 0
1 0 0
1 0 0
1 0 0
1 0 0
1 0 0
1 0 0
0 0 0
0 0 0
0 0 0
0 0 0
0 0 0
0 0 0
0 0 0
0 0 0
0.00337224 0 0
0.00854505 0 0
0.0143435 0 0
0.0205386 0 0
0.0273289 0 0
0.034638 0 0
0.042771 0 0
0.0517739 0 0
0.0607614 0 0
0.0722057 0 0
0.0851759 0 0
0.0995499 0 0
0.114992 0 0
0.131685 0 0
0.149844 0 0
0.169284 0 0
0.190555 0 0
0.213153 0 0
0.237781 0 0
0.264134 0 0
0.292058 0 0
0.322057 0 0
0.353521 0 0
0.387015 0 0
0.422095 0 0
0.458122 0 0
0.49572 0 0
0.533745 0 0
0.572931 0 0
0.612039 0 0
0.651606 0 0
0.690959 0 0
0.729458 0 0
0.767865 0 0
0.804883 0 0
0.841703 0 0
0.877653 0 0
0.911894 0 0
0.945464 0 0
0.977172 0 0
1 0 0
1 0 0
1 0 0
1 0 0
1 0 0
1 0 0
1 0 0
1 0 0
1 0 0
1 0 0
1 0 0
1 0 0
1 0 0
1 0 0
1 0 0
1 0 0
1 0 0
0 0.00294499 0
0 0.00239567 0
0 0.00163272 0
0 0.000793469 0
0 9.15541e-05 0
0 0 0
0 0 0
0 0 0
0.0027924 0 0
0.00813306 0 0
0.0140688 0 0
0.0205386 0 0
0.0273747 0 0
0.0347601 0 0
0.042771 0 0
0.0515297 0 0
0.0605173 0 0
0.0723735 0 0
0.0855879 0 0
0.100069 0 0
0.115526 0 0
0.132525 0 0
0.150668 0 0
0.170489 0 0
0.19176 0 0
0.214878 0 0
0.239826 0 0
0.266255 0 0
0.29485 0 0
0.32488 0 0
0.357046 0 0
0.390845 0 0
0.425834 0 0
0.462577 0 0
0.500114 0 0
0.53901 0 0
0.578698 0 0
0.618173 0 0
0.658289 0 0
0.697459 0 0
0.736675 0 0
0.774716 0 0
0.8121 0 0
0.849058 0 0
0.884611 0 0
0.919554 0 0
0.95288 0 0
0.985122 0 0
1 0 0
1 0 0
1 0 0
1 0 0
1 0 0
1 0 0
1 0 0
1 0 0
1 0 0
1 0 0
1 0 0
1 0 0
1 0 0
1 0 0
1 0 0
1 0 0
1 0 0
0 0.00805676 0
0 0.00737011 0
0 0.00640879 0
0 0.00538643 0
0 0.00424201 0
0 0.00318914 0
0 0.00231937 0
0 0.0016022 0
0.00205997 0.00102235 0
0.00735485 0.000488289 0
0.01355 9.15541e-05 0
0.0201724 0 0
0.0272984 0 0
0.0348669 0 0
0.0428931 0 0
0.0516823 0 0
0.0612039 0 0
0.0732738 0 0
0.0865339 0 0
0.100954 0 0
0.11667 0 0
0.133639 0 0
0.152178 0 0
0.172244 0 0
0.19382 0 0
0.217258 0 0
0.242267 0 0
0.269276 0 0
0.297856 0 0
0.328511 0 0
0.361028 0 0
0.394873 0 0
0.430747 0 0
0.467582 0 0
0.506111 0 0
0.545541 0 0
0.585138 0 0
0.625406 0 0
0.665202 0 0
0.705089 0 0
0.74403 0 0
0.782773 0 0
0.820615 0 0
0.857374 0 0
0.893736 0 0
0.928313 0 0
0.961959 0 0
0.994049 0 0
1 0 0
1 0 0
1 0 0
1 0 0
1 0 0
1 0 0
1 0 0
1 0 0
1 0 0
1 0 0
1 0 0
1 0 0
1 0 0
1 0 0
1 0 0
1 0 0
1 0 0
0 0.0139925 0
0 0.0131838 0
0 0.012192 0
0 0.011017 0
0 0.00981155 0
0 0.00852979 0
0 0.00733959 0
0 0.00636301 0
0.00120546 0.00546273 0
0.00639353 0.00471504 0
0.0126345 0.00399786 0
0.0194858 0.00329595 0
0.0268711 0.00270085 0
0.0345922 0.00210575 0
0.0429084 0.00161746 0
0.0517433 0.00109865 0
0.0622263 0.000564584 0
0.0744793 1.5259e-05 0
0.0877699 0 0
0.102464 0 0
0.11812 0 0
0.135439 0 0
0.154162 0 0
0.174258 0 0
0.196262 0 0
0.219654 0 0
0.245182 0 0
0.272206 0 0
0.301472 0 0
0.332616 0 0
0.365286 0 0
0.400046 0 0
0.435981 0 0
0.473716 0 0
0.512612 0 0
0.551843 0 0
0.592248 0 0
0.632395 0 0
0.673213 0 0
0.713649 0 0
0.753048 0 0
0.792279 0 0
0.829786 0 0
0.867185 0 0
0.902907 0 0
0.937697 0 0
0.971176 0 0
1 0 0
1 0 0
1 0 0
1 0 0
1 0 0
1 0 0
1 0 0
1 0 0
1 0 0
1 0 0
1 0 0
1 0 0
1 0 0
1 0 0
1 0 0
1 0 0
1 0 0
1 0 0
0 0.0203861 0
0 0.0196078 0
0 0.0184787 0
0 0.017319 0
0 0.0160372 0
0 0.0146487 0
0 0.0133211 0
0 0.0120546 0
0.000442512 0.0110323 0
0.00538643 0.010071 0
0.0115511 0.00918593 0
0.018555 0.00834669 0
0.0260624 0.00746166 0
0.0341039 0.00669871 0
0.0425727 0.00590524 0
0.0517281 0.00520333 0
0.063447 0.00430304 0
0.0760204 0.00328069 0
0.0897383 0.00222782 0
0.104479 0.00105287 0
0.12047 4.57771e-05 0
0.137881 0 0
0.156558 0 0
0.177035 0 0
0.199023 0 0
0.222995 0 0
0.248875 0 0
0.276387 0 0
0.306142 0 0
0.337377 0 0
0.37084 0 0
0.405539 0 0
0.442283 0 0
0.480461 0 0
0.519371 0 0
0.559747 0 0
0.60029 0 0
0.641642 0 0
0.68304 0 0
0.723262 0 0
0.763424 0 0
0.80209 0 0
0.840146 0 0
0.876905 0 0
0.91313 0 0
0.947967 0 0
0.98085 0 0
1 0 0
1 0 0
1 0 0
1 0 0
1 0 0
1 0 0
1 0 0
1 0 0
1 0 0
1 0 0
1 0 0
1 0 0
1 0 0
1 0 0
1 0 0
1 0 0
1 0 0
1 0 0
0 0.0273594 0
0 0.0264744 0
0 0.025391 0
0 0.0242161 0
0 0.0228733 0
0 0.0215 0
0 0.0199893 0
0 0.018616 0
0 0.0173495 0
0.00421149 0.0162051 0
0.0103609 0.0152132 0
0.017258 0.0141756 0
0.0249638 0.0132296 0
0.0332189 0.0122683 0
0.0420081 0.0113069 0
0.0521401 0.0103609 0
0.0644236 0.0091249 0
0.0777142 0.0078584 0
0.091722 0.00642405 0
0.10695 0.00495918 0
0.123171 0.00337224 0
0.140673 0.00166323 0
0.159762 0.000122072 0
0.18024 0 0
0.202777 0 0
0.22707 0 0
0.253086 0 0
0.281178 0 0
0.310887 0 0
0.342824 0 0
0.376303 0 0
0.411994 0 0
0.449424 0 0
0.487816 0 0
0.527977 0 0
0.568414 0 0
0.610025 0 0
0.651682 0 0
0.692668 0 0
0.733623 0 0
0.773342 0 0
0.812833 0 0
0.851118 0 0
0.888014 0 0
0.924315 0 0
0.95845 0 0
0.991608 0 0
1 0 0
1 0 0
1 0 0
1 0 0
1 0 0
1 0 0
1 0 0
1 0 0
1 0 0
1 0 0
1 0 0
1 0 0
1 0 0
1 0 0
1 0 0
1 0 0
1 0 0
1 0 0
0 0.0347448 0
0 0.0339055 0
0 0.0328069 0
0 0.0315404 0
0 0.0302586 0
0 0.0287938 0
0 0.0273136 0
0 0.0257877 0
0 0.0243534 0
0.00299077 0.0230869 0
0.00898756 0.0218814 0
0.0159762 0.0208133 0
0.0236667 0.0197299 0
0.0320287 0.0186313 0
0.0410925 0.0175479 0
0.0521401 0.0162509 0
0.0652628 0.0148013 0
0.079057 0.0131838 0
0.0939193 0.0115358 0
0.109773 0.00976577 0
0.126314 0.00782788 0
0.144396 0.00579843 0
0.163577 0.00355535 0
0.184573 0.00131228 0
0.207279 0 0
0.231556 0 0
0.258091 0 0
0.286229 0 0
0.316793 0 0
0.349294 0 0
0.383536 0 0
0.419944 0 0
0.457496 0 0
0.496925 0 0
0.536904 0 0
0.578241 0 0
0.620157 0 0
0.661616 0 0
0.703624 0 0
0.744381 0 0
0.785107 0 0
0.824842 0 0
0.862516 0 0
0.89987 0 0
0.93521 0 0
0.969528 0 0
1 0 0
1 0 0
1 0 0
1 0 0
1 0 0
1 0 0
1 0 0
1 0 0
1 0 0
1 0 0
1 0 0
1 0 0
1 0 0
1 0 0
1 0 0
1 0 0
1 0 0
1 0 0
1 0 0
0 0.04271 0
0 0.0418708 0
0 0.0406653 0
0 0.0394598 0
0 0.0381018 0
0 0.0367437 0
0 0.0352789 0
0 0.0336614 0
0 0.032166 0
0.00158694 0.0306706 0
0.00749218 0.0293736 0
0.0144045 0.0281224 0
0.0220951 0.0269169 0
0.030518 0.0257572 0
0.0396429 0.0244602 0
0.0518196 0.0230259 0
0.0656596 0.0213169 0
0.0803693 0.0194553 0
0.0960555 0.0175021 0
0.112459 0.0153506 0
0.12987 0.013138 0
0.148196 0.0106966 0
0.168002 0.0081178 0
0.189273 0.00534066 0
0.212177 0.00241093 0
0.23714 0 0
0.263798 0 0
0.292805 0 0
0.323888 0 0
0.356649 0 0
0.391684 0 0
0.427955 0 0
0.466392 0 0
0.505669 0 0
0.546746 0 0
0.588678 0 0
0.630579 0 0
0.673182 0 0
0.714916 0 0
0.756542 0 0
0.797223 0 0
0.836149 0 0
0.874235 0 0
0.910689 0 0
0.946395 0 0
0.980407 0 0
1 0 0
1 0 0
1 0 0
1 0 0
1 0 0
1 0 0
1 0 0
1 0 0
1 0 0
