public/luts/LAG_TRUE-TONE.cube
TITLE "Generated by Resolve"
LUT_3D_SIZE 9
0 0 0
0.0133669 0 0
0.0963455 0 0
0.277592 0 0
0.597391 0 0
0.946517 0 0
1 0 0
1 0 0
1 0 0
0 0.00660716 0
0 0.00183108 0
0.0780652 0 0
0.27129 0 0
0.609552 0 0
0.976394 0 0
1 0 0
1 0 0
1 0 0
0 0.072343 0
0 0.0699474 0
0.0483558 0.0629282 0
0.271748 0.0225681 0
0.647059 0 0
1 0 0
1 0 0
1 0 0
1 0 0
0 0.227924 0
0 0.244312 0
0 0.253483 0
0.210864 0.236057 0
0.622339 0.165469 0
1 0.0252384 0
1 0 0
1 0 0
1 0 0
0 0.534798 0
0 0.572839 0
0 0.599283 0
0 0.595529 0
0.512642 0.559884 0
0.934539 0.510765 0
1 0.495705 0
1 0.507561 0
1 0.527214 0
0 0.913802 0
0 0.947112 0
0 0.966812 0
0 0.960891 0
0.331441 0.930007 0
0.820691 0.890944 0
1 0.874205 0
1 0.873411 0
1 0.877363 0
0 1 0
0 1 0
0 1 0
0 1 0
0.22414 1 0
0.757809 1 0
0.973617 1 0
1 1 0
1 1 0
0 1 0
0 1 0
0 1 0
0 1 0
0.194293 1 0
0.736233 1 0
0.948013 1 0
1 1 0
1 1 0
0 1 0
0 1 0
0 1 0
0 1 0
0.183886 1 0
0.726848 1 0
0.937499 1 0
1 1 0
1 1 0
0 0 0.0018616
0.010605 0 0.00109865
0.0934462 0 0
0.275731 0 0
0.596429 0 0
0.946502 0 0
1 0 0
1 0 0
1 0 0
0 0.000564584 0
0 0 0
0.0753796 0 0
0.271763 0 0
0.615015 0 0
0.983337 0 0
1 0 0
1 0 0
1 0 0
0 0.0645304 0
0 0.0629892 0
0.0478218 0.0566567 0
0.277653 0.0158999 0
0.658671 0 0
1 0 0
1 0 0
1 0 0
1 0 0
0 0.229435 0
0 0.246784 0
0 0.257389 0
0.217212 0.239765 0
0.635157 0.167483 0
1 0.0293889 0
1 0 0
1 0 0
1 0 0
0 0.545571 0
0 0.584482 0
0 0.611399 0
0 0.607324 0
0.52372 0.570016 0
0.942504 0.521737 0
1 0.507454 0
1 0.519203 0
1 0.538155 0
0 0.924147 0
0 0.956512 0
0 0.975235 0
0 0.968277 0
0.343633 0.935912 0
0.827085 0.896529 0
1 0.879515 0
1 0.877668 0
1 0.881422 0
0 1 0
0 1 0
0 1 0
0 1 0
0.238331 1 0
0.763348 1 0
0.975036 1 0
1 1 0
1 1 0
0 1 0
0 1 0
0 1 0
0 1 0
0.206867 1 0
0.740749 1 0
0.949371 1 0
1 1 0
1 1 0
0 1 0
0 1 0
0 1 0
0 1 0
0.194949 1 0
0.730938 1 0
0.938842 1 0
1 1 0
1 1 0
0 0 0.0663005
0.00605783 0 0.0649577
0.0879072 0 0.0579538
0.270314 0 0.0380713
0.590402 0 0.00813306
0.942 0 0
1 0 0
1 0 0
1 0 0
0 0 0.0585641
0 0 0.0570077
0.0699474 0 0.0511788
0.268681 0 0.0335393
0.615869 0 0.00495918
0.986725 0 0
1 0 0
1 0 0
1 0 0
0 0.0516823 0.038468
0 0.0504768 0.0424811
0.0441138 0.0441138 0.0441138
0.279911 0.00598154 0.0323644
0.665019 0 0.0037232
1 0 0
1 0 0
1 0 0
1 0 0
0 0.226474 0.00102235
0 0.245136 0.00238041
0 0.25655 0.00321965
0.220295 0.238773 0
0.64358 0.164782 0
1 0.0257267 0
1 0 0
1 0 0
1 0 0
0 0.550454 0
0 0.590738 0
0 0.617777 0
0 0.613306 0
0.530816 0.575158 0
0.94699 0.52665 0
1 0.512154 0
1 0.522118 0
1 0.540734 0
0 0.928985 0
0 0.961028 0
0 0.978821 0
0 0.970642 0
0.349905 0.937697 0
0.829664 0.89749 0
1 0.879774 0
1 0.877272 0
1 0.8804 0
0 1 0
0 1 0
0 1 0
0 1 0
0.241718 1 0
0.764172 1 0
0.974563 1 0
1 1 0
1 1 0
0 1 0
0 1 0
0 1 0
0 1 0
0.206516 1 0
0.740215 1 0
0.948272 1 0
1 1 0
1 1 0
0 1 0
0 1 0
0 1 0
0 1 0
0.192248 1 0
0.729671 1 0
0.937621 1 0
1 1 0
1 1 0
0 0 0.2421
0 0 0.241108
0.0681468 0 0.230793
0.254475 0 0.20412
0.574182 0 0.165911
0.928817 0 0.121263
1 0 0.0880293
1 0 0.0732891
1 0 0.0725261
0 0 0.237125
0 0 0.237095
0.0487678 0 0.230457
0.2551 0 0.210086
0.605447 0 0.180468
0.98117 0 0.148363
1 0 0.133532
1 0 0.137179
1 0 0.150286
0 0.00526436 0.217792
0 0.00247196 0.23032
0.0239261 0 0.238575
0.269734 0 0.230671
0.659586 0 0.208759
1 0 0.185458
1 0 0.183047
1 0 0.197375
1 0 0.218982
0 0.201801 0.180056
0 0.21912 0.199451
0 0.229587 0.213184
0.210452 0.210452 0.210452
0.640421 0.129396 0.191791
1 0 0.170336
1 0 0.169604
1 0 0.183673
1 0 0.203555
0 0.539269 0.0897078
0 0.578729 0.110307
0 0.604852 0.124971
0 0.599207 0.121172
0.526101 0.560311 0.0958419
0.94342 0.509926 0.0600748
1 0.493156 0.0471351
1 0.500908 0.0540627
1 0.517205 0.0680095
0 0.920806 0
0 0.951034 0
0 0.967361 0
0 0.958389 0
0.340139 0.924956 0
0.82356 0.88368 0
1 0.864149 0
1 0.860639 0
1 0.862837 0
0 1 0
0 1 0
0 1 0
0 1 0
0.22121 1 0
0.754421 1 0
0.968215 1 0
1 1 0
1 1 0
0 1 0
0 1 0
0 1 0
0 1 0
0.176699 1 0
0.728023 1 0
0.940917 1 0
1 1 0
1 1 0
0 1 0
0 1 0
0 1 0
0 1 0
0.157046 1 0
0.716152 1 0
0.929519 1 0
1 1 0
1 1 0
0 0 0.555673
0 0 0.554498
0.0101015 0 0.540002
0.218311 0 0.503487
0.545861 0 0.458091
0.907698 0 0.417762
1 0 0.396063
1 0 0.392767
1 0 0.40119
0 0 0.551385
0 0 0.553429
0 0 0.546593
0.220905 0 0.522988
0.583795 0 0.494774
0.966506 0 0.474937
1 0 0.474907
1 0 0.489174
1 0 0.51107
0 0 0.533684
0 0 0.556405
0 0 0.570947
0.236866 0 0.565026
0.641001 0 0.549203
1 0 0.53994
1 0 0.550988
1 0 0.573938
1 0 0.601801
0 0.102159 0.501564
0 0.116426 0.534951
0 0.124163 0.558129
0.17319 0.0956588 0.559335
0.623209 0 0.550072
1 0 0.54464
1 0 0.557275
1 0 0.579187
1 0 0.603326
0 0.493034 0.453315
0 0.530083 0.48986
0 0.554437 0.514916
0 0.547158 0.51664
0.505516 0.505516 0.505516
0.929229 0.449668 0.495598
1 0.427924 0.501152
1 0.432807 0.514763
1 0.446891 0.52903
0 0.887098 0.408942
0 0.914458 0.446799
0 0.928618 0.469734
0 0.918791 0.465141
0.308125 0.884474 0.444846
0.805798 0.841459 0.424521
1 0.819669 0.419318
1 0.814603 0.423728
1 0.815503 0.429496
0 1 0.42118
0 1 0.455375
0 1 0.470115
0 1 0.453681
0.168521 1 0.419898
0.732006 1 0.387823
0.952499 1 0.374258
1 0.993866 0.372396
1 0.990662 0.373053
0 1 0.452979
0 1 0.477684
0 1 0.483085
0 1 0.457877
0.105821 1 0.415442
0.702205 1 0.375952
0.923552 1 0.35761
1 1 0.352132
1 1 0.350103
0 1 0.469703
0 1 0.488548
0 1 0.488853
0 1 0.458762
0.0738842 1 0.411872
0.688365 1 0.368551
0.911192 1 0.348455
0.999985 1 0.342275
1 1 0.34023
0 0 0.866133
0 0 0.865202
0 0 0.853422
0.161273 0 0.822705
0.509407 0 0.783734
0.881773 0 0.750408
1 0 0.735485
1 0 0.736385
1 0 0.747143
0 0 0.863478
0 0 0.866011
0 0 0.861936
0.167208 0 0.845014
0.55584 0 0.824537
0.947875 0 0.810819
1 0 0.813306
1 0 0.826398
1 0 0.84448
0 0 0.854536
0 0 0.874586
0 0 0.886748
0.188266 0 0.882658
0.618036 0 0.872023
1 0 0.86598
1 0 0.874159
1 0 0.890639
1 0 0.908888
0 0 0.833051
0 0 0.861219
0 0 0.879499
0.115602 0 0.880674
0.601312 0 0.874052
0.997787 0 0.87013
1 0 0.877958
1 0 0.89221
1 0 0.906661
0 0.413306 0.800031
0 0.45359 0.829938
0 0.480171 0.848676
0 0.471748 0.849744
0.478477 0.424613 0.84152
0.911223 0.360204 0.834012
1 0.333333 0.836713
1 0.338567 0.84506
1 0.353994 0.853315
0 0.835172 0.7738
0 0.86276 0.8009
0 0.876509 0.815457
0 0.865995 0.812116
0.265812 0.829328 0.797711
0.783429 0.783429 0.783429
1 0.759747 0.779416
1 0.753796 0.781704
1 0.754162 0.784848
0 1 0.782544
0 1 0.803388
0 1 0.811276
0 1 0.800534
0.0956588 1 0.778561
0.705333 0.975006 0.757595
0.932494 0.951965 0.748699
1 0.942428 0.747143
1 0.938842 0.747219
0 1 0.799146
0 1 0.813214
0 1 0.815839
0 1 0.80032
0.00538643 1 0.77377
0.672694 1 0.748684
0.902144 1 0.73724
0.99324 1 0.733669
1 1 0.732189
0 1 0.807111
0 1 0.817655
0 1 0.817731
0 1 0.799573
0 1 0.770565
0.657511 1 0.743633
0.88896 1 0.731243
0.981079 1 0.727504
1 1 0.726253
0 0 1
0 0 1
0 0 1
0.113603 0 1
0.482322 0 0.98587
0.863142 0 0.964523
1 0 0.955291
1 0 0.956115
1 0 0.962661
0 0 1
0 0 1
0 0 1
0.12752 0 1
0.53994 0 1
0.938643 0 1
1 0 1
1 0 1
1 0 1
0 0 1
0 0 1
0 0 1
0.159716 0 1
0.609598 0 1
1 0 1
1 0 1
1 0 1
1 0 1
0 0 1
0 0 1
0 0 1
0.0794842 0 1
0.594095 0 1
0.992737 0 1
1 0 1
1 0 1
1 0 1
0 0.357504 0.990539
0 0.406653 1
0 0.437247 1
0 0.428962 1
0.466621 0.376913 1
0.902983 0.305653 0.995224
1 0.277455 0.993118
1 0.284123 0.994659
1 0.301579 0.996994
0 0.803891 0.959411
0 0.833967 0.970397
0 0.848783 0.975677
0 0.837125 0.972885
0.244022 0.797803 0.963226
0.771466 0.74876 0.952056
0.990051 0.724315 0.947295
1 0.718135 0.94667
1 0.718517 0.947265
0 1 0.949645
0 1 0.958068
0 1 0.960769
0 1 0.954742
0.0486915 0.985855 0.941619
0.690639 0.944732 0.927626
0.920882 0.920882 0.920882
1 0.91107 0.918822
1 0.907164 0.918059
0 1 0.950866
0 1 0.956451
0 1 0.957244
0 1 0.949065
0 1 0.933745
0.656641 1 0.917922
0.889784 1 0.909941
0.982284 0.990662 0.907042
1 0.986557 0.905699
0 1 0.952255
0 1 0.956588
0 1 0.956298
0 1 0.946853
0 1 0.930144
0.640574 1 0.913344
0.876173 1 0.904906
0.969848 1 0.902007
1 1 0.900984
0 0 1
0 0 1
0 0 1
0.0847181 0 1
0.467872 0 1
0.854353 0 1
1 0 1
1 0 1
1 0 1
0 0 1
0 0 1
0 0 1
0.109697 0 1
0.5364 0 1
0.938155 0 1
1 0 1
1 0 1
1 0 1
0 0 1
0 0 1
0 0 1
0.151705 0 1
0.612436 0 1
1 0 1
1 0 1
1 0 1
1 0 1
0 0 1
0 0 1
0 0 1
0.0691081 0 1
0.597955 0 1
0.994781 0 1
1 0 1
1 0 1
1 0 1
0 0.337621 1
0 0.392813 1
0 0.426383 1
0 0.417212 1
0.466651 0.361959 1
0.902281 0.287419 1
1 0.259098 1
1 0.266163 1
1 0.282994 1
0 0.794339 1
0 0.825132 1
0 0.84033 1
0 0.827451 1
0.239139 0.786221 1
0.768292 0.735546 1
0.98584 0.710323 1
1 0.703746 1
1 0.703426 1
0 1 1
0 1 1
0 1 1
0 1 1
0.03122 0.973739 1
0.685573 0.931563 0.996521
0.91606 0.907195 0.990753
1 0.897215 0.988434
1 0.893202 0.987503
0 1 1
0 1 1
0 1 1
0 1 1
0 1 0.997452
0.650294 1 0.986282
0.884535 0.987396 0.980026
0.977447 0.977447 0.977447
1 0.973251 0.976333
0 1 1
0 1 1
0 1 1
0 1 1
0 1 0.99379
0.633799 1 0.981964
0.870817 1 0.975448
0.964858 1 0.972793
1 1 0.971908
0 0 1
0 0 1
0 0 1
0.0687419 0 1
0.46067 0 1
0.851926 0 1
1 0 1
1 0 1
1 0 1
0 0 1
0 0 1
0 0 1
0.105135 0 1
0.539345 0 1
0.942031 0 1
1 0 1
1 0 1
1 0 1
0 0 1
0 0 1
0 0 1
0.15433 0 1
0.620233 0 1
1 0 1
1 0 1
1 0 1
1 0 1
0 0 1
0 0 1
0 0 1
0.072755 0 1
0.606409 0 1
0.99971 0 1
1 0 1
1 0 1
1 0 1
0 0.337881 1
0 0.395331 1
0 0.430625 1
0 0.420615 1
0.471824 0.363241 1
0.90457 0.287358 1
1 0.259159 1
1 0.265995 1
1 0.281376 1
0 0.79501 1
0 0.825757 1
0 0.840864 1
0 0.826658 1
0.240848 0.783536 1
0.76846 0.731914 1
0.984482 0.706233 1
1 0.699336 1
1 0.698589 1
0 1 1
0 1 1
0 1 1
0 1 1
0.0288243 0.969421 1
0.684306 0.926497 1
0.914305 0.901793 1
1 0.891585 1
1 0.887556 1
0 1 1
0 1 1
0 1 1
0 1 1
0 1 1
0.647959 1 1
0.882429 0.98201 1
0.975387 0.971908 1
1 0.967742 1
0 1 1
0 1 1
0 1 1
0 1 1
0 1 1
0.631159 1 1
0.868711 1 1
0.96289 1 1
1 1 1
