public/luts/LAG_BLUE-HOUR.cube
TITLE "Generated by Resolve"
LUT_3D_SIZE 5
0 0 0
0.0682536 0 0
0.399176 0 0
1 0 0
1 0 0
0 0.0640116 0
0.0431373 0.0492409 0
0.46743 0 0
1 0 0
1 0 0
0 0.467002 0
0 0.550774 0
0.44152 0.441627 0
1 0.329412 0
1 0.495537 0
0 1 0
0 1 0
0 1 0
1 1 0
1 1 0
0 1 0
0 1 0
0 1 0
0.990082 1 0
1 1 0
0 0 0.0469673
0.0522774 0 0.0375525
0.37145 0 0.0193027
1 0 0
1 0 0
0 0.0411231 0.0354925
0.0292363 0.0328222 0.0343175
0.453864 0 0.012604
1 0 0
1 0 0
0 0.441855 0.019913
0 0.528817 0
0.439292 0.467674 0
1 0.393744 0
1 0.558175 0
0 1 0
0 1 0.0416571
0 1 0
1 1 0
1 1 0
0 1 0.503731
0 1 0.416266
0 1 0
0.980865 1 0
1 1 0
0 0 0.427512
0 0 0.444739
0.30454 0 0.324361
0.978698 0 0.262867
1 0 0.272404
0 0 0.376928
0 0 0.454459
0.386923 0 0.399268
1 0 0.383963
1 0 0.455482
0 0.396582 0.404303
0 0.457694 0.457496
0.386603 0.430472 0.443198
1 0.368002 0.478004
1 0.508431 0.601877
0 1 0.652506
0 1 0.78024
0 1 0.717159
0.986435 1 0.296986
1 1 0.336233
0 1 0.920302
0 1 0.930327
0 1 0.853758
0.936873 1 0.331228
1 1 0.28452
0 0 1
0 0 1
0.153765 0 0.969299
0.885588 0 0.867369
1 0 0.881102
0 0 0.996796
0 0 1
0.235279 0 1
1 0 0.969207
1 0 1
0 0.280049 0.938613
0 0.370718 0.984527
0.108309 0.34844 1
1 0.262608 1
1 0.432303 1
0 1 0.986526
0 1 1
0.176974 1 0.990341
0.93402 0.945434 0.948119
1 0.939345 0.950668
0 1 1
0 1 1
0.307774 1 1
0.898405 1 0.976257
1 1 0.936492
0 0 1
0 0 1
0.0596628 0 1
0.846815 0 1
1 0 1
0 0 1
0 0 1
0.161593 0 1
1 0 1
1 0 1
0 0.286076 1
0 0.396323 1
0 0.423117 1
1 0.327245 1
1 0.474968 1
0 1 1
0 1 1
0.00256352 1 1
0.899001 0.946426 1
1 0.932403 1
0 1 1
0 1 1
0.350591 1 1
0.929808 1 1
0.999664 1 1
