public/luts/LAG_EARTHY.cube
TITLE "Generated by Resolve"
LUT_3D_SIZE 9
0 0 0
0.00657664 0 0
0.0692302 0 0
0.189899 0 0
0.411215 0 0
0.709102 0 0
0.983841 0 0
1 0 0
1 0 0
0 0.00805676 0
0.00205997 0.00102235 0
0.0612039 0 0
0.19382 0 0
0.430747 0 0
0.74403 0 0
1 0 0
1 0 0
1 0 0
0 0.0690166 0
0 0.0605173 0
0.0637217 0.0475013 0
0.231739 0.0189364 0
0.497673 0 0
0.83154 0 0
1 0 0
1 0 0
1 0 0
0 0.196216 0
0 0.202502 0
0.00399786 0.200473 0
0.253986 0.174823 0
0.595697 0.104555 0
0.92578 0 0
1 0 0
1 0 0
1 0 0
0 0.445716 0
0 0.470069 0
0 0.48574 0
0.164294 0.467933 0
0.626596 0.419043 0
0.98468 0.361166 0
1 0.344564 0
1 0.35874 0
1 0.383032 0
0 0.800717 0
0 0.831479 0
0 0.851057 0
0 0.835935 0
0.572534 0.790066 0
0.95378 0.746395 0
1 0.732174 0
1 0.736202 0
1 0.747036 0
0 1 0
0 1 0
0 1 0
0 1 0
0.522805 1 0
0.912978 0.994034 0
1 0.977279 0
1 0.972305 0
1 0.973556 0
0 1 0
0 1 0
0 1 0
0 1 0
0.510536 1 0
0.90042 1 0
1 1 0
1 1 0
1 1 0
0 1 0
0 1 0
0 1 0
0 1 0
0.515404 1 0
0.902861 1 0
1 1 0
1 1 0
1 1 0
0 0 0.00146487
0.0103151 0 0.00105287
0.0732891 0 0
0.194491 0 0
0.417182 0 0
0.71574 0 0
0.989792 0 0
1 0 0
1 0 0
0 0.00199893 0
0 0 0
0.0531167 0 0
0.191745 0 0
0.433219 0 0
0.750378 0 0
1 0 0
1 0 0
1 0 0
0 0.0624094 0
0 0.0576028 0
0.0525978 0.0448005 0
0.216175 0.0208133 0
0.491188 0 0
0.833738 0 0
1 0 0
1 0 0
1 0 0
0 0.198474 0
0 0.207477 0
0 0.209232 0
0.241627 0.182559 0
0.577127 0.120073 0
0.910613 0.00805676 0
1 0 0
1 0 0
1 0 0
0 0.457908 0
0 0.484886 0
0 0.50396 0
0.132601 0.486091 0
0.612146 0.437919 0
0.972381 0.385565 0
1 0.371405 0
1 0.385611 0
1 0.408133 0
0 0.816312 0
0 0.847532 0
0 0.868193 0
0 0.854734 0
0.552239 0.808454 0
0.942107 0.764889 0
1 0.749798 0
1 0.752377 0
1 0.763073 0
0 1 0
0 1 0
0 1 0
0 1 0
0.49395 1 0
0.902083 1 0
1 0.984863 0
1 0.978943 0
1 0.979812 0
0 1 0
0 1 0
0 1 0
0 1 0
0.473823 1 0
0.89015 1 0
1 1 0
1 1 0
1 1 0
0 1 0
0 1 0
0 1 0
0 1 0
0.474418 1 0
0.891814 1 0
1 1 0
1 1 0
1 1 0
0 0 0.0504921
0.00698863 0 0.0502785
0.0801251 0 0.0457008
0.217884 0 0.0301823
0.439002 0 0.00915541
0.733989 0 0
1 0 0
1 0 0
1 0 0
0 0 0.0430152
0 0 0.0424201
0.0608988 0 0.038941
0.202319 0 0.0255894
0.445258 0 0.00805676
0.765515 0 0
1 0 0
1 0 0
1 0 0
0 0.0521401 0.0309606
0 0.0483864 0.032517
0.0389715 0.041474 0.0339818
0.209918 0.0185245 0.0280156
0.495003 0 0.00975052
0.842435 0 0
1 0 0
1 0 0
1 0 0
0 0.19765 0.00077821
0 0.209735 0.00077821
0 0.216892 0.00151064
0.225406 0.189258 0.0150454
0.550851 0.136049 0.00375372
0.897475 0.0251926 0
1 0 0
1 0 0
1 0 0
0 0.467582 0
0 0.497597 0
0 0.520088 0
0.0813611 0.504311 0
0.591516 0.454032 0
0.952941 0.40618 0
1 0.394858 0
1 0.406348 0
1 0.426719 0
0 0.82916 0
0 0.861204 0
0 0.882704 0
0 0.871107 0
0.522469 0.823667 0
0.92636 0.779431 0
1 0.76321 0
1 0.765087 0
1 0.775326 0
0 1 0
0 1 0
0 1 0
0 1 0
0.450019 1 0
0.887388 1 0
1 0.989136 0
1 0.982116 0
1 0.98233 0
0 1 0
0 1 0
0 1 0
0 1 0
0.420233 1 0
0.875303 1 0
1 1 0
1 1 0
1 1 0
0 1 0
0 1 0
0 1 0
0 1 0
0.418708 1 0
0.87512 1 0
1 1 0
1 1 0
1 1 0
0 0 0.176501
0 0 0.177874
0.0675975 0 0.173587
0.229709 0 0.153994
0.49366 0 0.114946
0.787427 0 0.0673686
1 0 0.0239109
1 0 0.000503548
1 0 0
0 0 0.1729
0 0 0.174075
0.0465248 0 0.171832
0.22388 0 0.154437
0.49395 0 0.117754
0.804028 0 0.0791333
1 0 0.0459144
1 0 0.0273442
1 0 0.0229038
0 0.0198215 0.163409
0 0.0156405 0.169909
0.0246433 0.00993362 0.175616
0.231937 0 0.167529
0.522072 0 0.139864
0.862715 0 0.114015
1 0 0.0961318
1 0 0.0929732
1 0 0.101122
0 0.181292 0.131609
0 0.192996 0.14519
0 0.201755 0.156924
0.192523 0.182712 0.160128
0.525765 0.131563 0.145937
0.890654 0.0099794 0.123735
1 0 0.11078
1 0 0.11194
1 0 0.121859
0 0.464652 0.0416114
0 0.496788 0.053666
0 0.522347 0.0617075
0 0.514931 0.0635996
0.548531 0.457938 0.117433
0.909545 0.416709 0.113542
1 0.404288 0.0899214
1 0.410269 0.0813764
1 0.425925 0.0822309
0 0.832868 0
0 0.865278 0
0 0.88719 0
0 0.879164 0
0.456855 0.830091 0
0.894224 0.780377 0.00105287
1 0.763607 0.0400092
1 0.766506 0.0454566
1 0.775982 0.0284733
0 1 0
0 1 0
0 1 0
0 1 0
0.352239 1 0
0.85658 1 0
1 0.982971 0
1 0.974319 0.014435
1 0.973877 0.0501411
0 1 0
0 1 0
0 1 0
0 1 0
0.313542 1 0
0.842481 1 0
1 1 0
1 1 0
1 1 0.0695659
0 1 0
0 1 0
0 1 0
0 1 0
0.315938 1 0
0.837812 1 0
0.997345 1 0
1 1 0
1 1 0.0707256
0 0 0.410895
0 0 0.413764
0.0273442 0 0.409201
0.2065 0 0.382345
0.504463 0 0.341573
0.846143 0 0.290639
1 0 0.247318
1 0 0.217426
1 0 0.200931
0 0 0.409277
0 0 0.412894
0.00868238 0 0.411688
0.200824 0 0.391165
0.519463 0 0.357168
0.873716 0 0.315007
1 0 0.286305
1 0 0.274144
1 0 0.274403
0 0 0.402502
0 0 0.416327
0 0 0.428321
0.209796 0 0.423819
0.568505 0 0.401266
0.927047 0 0.367758
1 0 0.353353
1 0 0.356817
1 0 0.370108
0 0.118227 0.376684
0 0.127108 0.402029
0 0.133059 0.423667
0.163287 0.110323 0.427222
0.566171 0.0108339 0.41265
0.916701 0 0.388205
1 0 0.390173
1 0 0.403571
1 0 0.421561
0 0.433845 0.332799
0 0.464271 0.362463
0 0.488716 0.387762
0 0.485023 0.393942
0.486259 0.440742 0.39678
0.868086 0.399969 0.385458
1 0.375265 0.387121
1 0.375525 0.39617
1 0.387915 0.406714
0 0.813764 0.262089
0 0.845029 0.293873
0 0.866789 0.31751
0 0.862913 0.312749
0.343359 0.824292 0.304768
0.84538 0.760342 0.381888
1 0.744671 0.401236
1 0.74905 0.393042
1 0.755657 0.38819
0 1 0.215366
0 1 0.248569
0 1 0.266545
0 1 0.252842
0.210559 1 0.23621
0.804379 0.986847 0.314595
0.997971 0.957534 0.394995
1 0.948425 0.436927
1 0.94966 0.439704
0 1 0.201633
0 1 0.229526
0 1 0.242069
0 1 0.224079
0.16466 1 0.19881
0.780423 1 0.247837
0.978607 1 0.370672
1 1 0.443503
1 1 0.487327
0 1 0.189319
0 1 0.214893
0 1 0.22649
0 1 0.207218
0.174777 1 0.175357
0.7729 1 0.198856
0.974044 1 0.329824
1 1 0.434852
1 1 0.499062
0 0 0.71368
0 0 0.716991
0 0 0.712612
0.157931 0 0.685863
0.476509 0 0.64271
0.846967 0 0.600229
1 0 0.562478
1 0 0.530983
1 0 0.508171
0 0 0.713268
0 0 0.717922
0 0 0.717708
0.150973 0 0.699336
0.495567 0 0.667567
0.884596 0 0.639185
1 0 0.617807
1 0 0.60267
1 0 0.594919
0 0 0.710384
0 0 0.727321
0 0 0.741985
0.161364 0 0.739574
0.548867 0 0.722438
0.947723 0 0.70518
1 0 0.692683
1 0 0.687526
1 0 0.68983
0 0 0.69192
0 0 0.72079
0 0 0.744274
0.108827 0 0.749325
0.54873 0 0.741466
0.957427 0 0.729
1 0 0.718242
1 0 0.718486
1 0 0.727367
0 0.363729 0.662928
0 0.394324 0.696361
0 0.419059 0.723003
0 0.414115 0.730312
0.458427 0.368399 0.724773
0.897353 0.296101 0.711009
1 0.282704 0.700679
1 0.289296 0.708309
1 0.304051 0.718196
0 0.768902 0.632578
0 0.798764 0.666133
0 0.81883 0.690623
0 0.81445 0.695293
0.264317 0.781094 0.684367
0.786313 0.728679 0.683787
1 0.712932 0.678141
1 0.709911 0.68098
1 0.713329 0.684611
0 1 0.628717
0 1 0.658442
0 1 0.676677
0 1 0.671199
0.0650034 1 0.644419
0.729107 0.958984 0.634363
0.96553 0.92108 0.697063
1 0.915312 0.709789
1 0.91783 0.702251
0 1 0.635004
0 1 0.657832
0 1 0.669398
0 1 0.654246
0 1 0.62182
0.701442 1 0.607965
0.947356 1 0.675853
1 1 0.730327
1 1 0.753399
0 1 0.633692
0 1 0.652018
0 1 0.659403
0 1 0.63975
0 1 0.606699
0.699336 1 0.591028
0.939773 1 0.64097
1 1 0.724956
1 1 0.770062
0 0 0.942107
0 0 0.944183
0 0 0.941268
0.0999619 0 0.923613
0.445457 0 0.892989
0.827588 0 0.8607
1 0 0.837812
1 0 0.819089
1 0 0.802899
0 0 0.941787
0 0 0.945281
0 0 0.945647
0.093843 0 0.934264
0.469566 0 0.914061
0.872145 0 0.894072
1 0 0.884352
1 0 0.878004
1 0 0.872328
0 0 0.942031
0 0 0.95407
0 0 0.964141
0.113161 0 0.963027
0.52929 0 0.952743
0.93962 0 0.940093
1 0 0.936431
1 0 0.935393
1 0 0.934051
0 0 0.931502
0 0 0.950637
0 0 0.965164
0.0512245 0 0.968261
0.529961 0 0.96289
0.951141 0 0.953475
1 0 0.951232
1 0 0.949462
1 0 0.947158
0 0.285176 0.910048
0 0.323888 0.93109
0 0.353902 0.946166
0 0.350011 0.949981
0.437537 0.297932 0.9449
0.891722 0.203891 0.935927
1 0.148241 0.930968
1 0.16556 0.924086
1 0.204303 0.92015
0 0.726802 0.882856
0 0.759014 0.902007
0 0.780713 0.914931
0 0.775982 0.916503
0.231937 0.740276 0.908461
0.771756 0.687251 0.897093
1 0.659632 0.887572
1 0.665446 0.881453
1 0.671458 0.882414
0 0.992477 0.873243
0 1 0.889296
0 1 0.898924
0 0.999359 0.896696
0 0.969009 0.884657
0.684337 0.926482 0.869795
0.935668 0.897719 0.871046
1 0.892332 0.868269
1 0.891066 0.86804
0 1 0.874189
0 1 0.886625
0 1 0.893996
0 1 0.888685
0 1 0.872053
0.652934 1 0.850553
0.915633 0.998123 0.851804
1 0.981933 0.884352
1 0.98056 0.887831
0 1 0.874495
0 1 0.885191
0 1 0.890745
0 1 0.882307
0 1 0.860334
0.651331 1 0.838468
0.90576 1 0.837842
0.994812 1 0.877729
1 1 0.903578
0 0 1
0 0 1
0 0 1
0.052491 0 1
0.422034 0 1
0.813184 0 1
1 0 1
1 0 0.995239
1 0 0.988952
0 0 1
0 0 1
0 0 1
0.0508583 0 1
0.452461 0 1
0.865049 0 1
1 0 1
1 0 1
1 0 1
0 0 1
0 0 1
0 0 1
0.0837873 0 1
0.519463 0 1
0.937148 0 1
1 0 1
1 0 1
1 0 1
0 0 1
0 0 1
0 0 1
0.0189975 0 1
0.523262 0 1
0.948913 0 1
1 0 1
1 0 1
1 0 1
0 0.236255 1
0 0.285298 1
0 0.322164 1
0 0.319112 1
0.429145 0.262379 1
0.885954 0.157321 1
1 0.0842603 1
1 0.0710765 1
1 0.10486 1
0 0.705715 1
0 0.740246 1
0 0.763806 1
0 0.758633 1
0.215869 0.721111 1
0.763958 0.666056 1
1 0.631464 0.99649
1 0.62208 0.992569
1 0.633265 0.986664
0 0.974334 0.987442
0 0.986313 0.993011
0 0.992554 0.996262
0 0.982803 0.994217
0 0.951125 0.986145
0.6757 0.907378 0.975479
0.930755 0.879271 0.969253
1 0.870298 0.964263
1 0.872557 0.961547
0 1 0.980346
0 1 0.985245
0 1 0.987961
0 1 0.984909
0 1 0.975464
0.639658 1 0.963775
0.895369 0.982391 0.956741
0.990356 0.970947 0.958206
1 0.969299 0.956756
0 1 0.978469
0 1 0.983047
0 1 0.985412
0 1 0.981506
0 1 0.970596
0.628855 1 0.957061
0.885924 1 0.948272
0.983444 1 0.951949
1 1 0.965469
0 0 1
0 0 1
0 0 1
0.0236362 0 1
0.406806 0 1
0.804517 0 1
1 0 1
1 0 1
1 0 1
0 0 1
0 0 1
0 0 1
0.0281071 0 1
0.444495 0 1
0.863111 0 1
1 0 1
1 0 1
1 0 1
0 0 1
0 0 1
0 0 1
0.0720226 0 1
0.517632 0 1
0.937865 0 1
1 0 1
1 0 1
1 0 1
0 0 1
0 0 1
0 0 1
0.00988785 0 1
0.524346 0 1
0.949767 0 1
1 0 1
1 0 1
1 0 1
0 0.219638 1
0 0.274769 1
0 0.315541 1
0 0.312825 1
0.42858 0.253773 1
0.884474 0.145281 1
1 0.064744 1
1 0.0431373 1
1 0.0522469 1
0 0.701106 1
0 0.736507 1
0 0.760678 1
0 0.754681 1
0.210117 0.715465 1
0.761242 0.65951 1
1 0.624231 1
1 0.610574 1
1 0.60824 1
0 0.968139 1
0 0.980423 1
0 0.986801 1
0 0.976745 1
0 0.944335 1
0.672282 0.900023 1
0.927214 0.871687 1
1 0.858442 1
1 0.855528 1
0 1 1
0 1 1
0 1 1
0 1 1
0 1 1
0.63621 0.99913 1
0.892226 0.974487 1
0.988968 0.963287 0.997513
1 0.961227 0.995422
0 1 1
0 1 1
0 1 1
0 1 1
0 1 1
0.627207 1 1
0.880507 1 0.995209
0.975235 1 0.992447
1 0.999832 0.993637
