public/luts/LAG_TRUE-TONE.cube
TITLE "Generated by Resolve"
LUT_3D_SIZE 5
0 0 0
0.0963455 0 0
0.597391 0 0
1 0 0
1 0 0
0 0.072343 0
0.0483558 0.0629282 0
0.647059 0 0
1 0 0
1 0 0
0 0.534798 0
0 0.599283 0
0.512642 0.559884 0
1 0.495705 0
1 0.527214 0
0 1 0
0 1 0
0.22414 1 0
0.973617 1 0
1 1 0
0 1 0
0 1 0
0.183886 1 0
0.937499 1 0
1 1 0
0 0 0.0663005
0.0879072 0 0.0579538
0.590402 0 0.00813306
1 0 0
1 0 0
0 0.0516823 0.038468
0.0441138 0.0441138 0.0441138
0.665019 0 0.0037232
1 0 0
1 0 0
0 0.550454 0
0 0.617777 0
0.530816 0.575158 0
1 0.512154 0
1 0.540734 0
0 1 0
0 1 0
0.241718 1 0
0.974563 1 0
1 1 0
0 1 0
0 1 0
0.192248 1 0
0.937621 1 0
1 1 0
0 0 0.555673
0.0101015 0 0.540002
0.545861 0 0.458091
1 0 0.396063
1 0 0.40119
0 0 0.533684
0 0 0.570947
0.641001 0 0.549203
1 0 0.550988
1 0 0.601801
0 0.493034 0.453315
0 0.554437 0.514916
0.505516 0.505516 0.505516
1 0.427924 0.501152
1 0.446891 0.52903
0 1 0.42118
0 1 0.470115
0.168521 1 0.419898
0.952499 1 0.374258
1 0.990662 0.373053
0 1 0.469703
0 1 0.488853
0.0738842 1 0.411872
0.911192 1 0.348455
1 1 0.34023
0 0 1
0 0 1
0.482322 0 0.98587
1 0 0.955291
1 0 0.962661
0 0 1
0 0 1
0.609598 0 1
1 0 1
1 0 1
0 0.357504 0.990539
0 0.437247 1
0.466621 0.376913 1
1 0.277455 0.993118
1 0.301579 0.996994
0 1 0.949645
0 1 0.960769
0.0486915 0.985855 0.941619
0.920882 0.920882 0.920882
1 0.907164 0.918059
0 1 0.952255
0 1 0.956298
0 1 0.930144
0.876173 1 0.904906
1 1 0.900984
0 0 1
0 0 1
0.46067 0 1
1 0 1
1 0 1
0 0 1
0 0 1
0.620233 0 1
1 0 1
1 0 1
0 0.337881 1
0 0.430625 1
0.471824 0.363241 1
1 0.259159 1
1 0.281376 1
0 1 1
0 1 1
0.0288243 0.969421 1
0.914305 0.901793 1
1 0.887556 1
0 1 1
0 1 1
0 1 1
0.868711 1 1
1 1 1
