public/luts/LAG_TRUE-TONE.cube
TITLE "Generated by Resolve"
LUT_3D_SIZE 65
0 0 0
0 0 0
0 0 0
0 0 0
0 0 0
0 0 0
0.00141909 0 0
0.00680552 0 0
0.0133669 0 0
0.0208591 0 0
0.0291752 0 0
0.0384833 0 0
0.0487526 0 0
0.0595407 0 0
0.0703593 0 0
0.0816663 0 0
0.0963455 0 0
0.112505 0 0
0.130297 0 0
0.149599 0 0
0.170962 0 0
0.194095 0 0
0.219593 0 0
0.247654 0 0
0.277592 0 0
0.310155 0 0
0.344884 0 0
0.382208 0 0
0.421637 0 0
0.463249 0 0
0.506737 0 0
0.551415 0 0
0.597391 0 0
0.64387 0 0
0.690303 0 0
0.736721 0 0
0.781521 0 0
0.825696 0 0
0.867536 0 0
0.908019 0 0
0.946517 0 0
0.98201 0 0
1 0 0
1 0 0
1 0 0
1 0 0
1 0 0
1 0 0
1 0 0
1 0 0
1 0 0
1 0 0
1 0 0
1 0 0
1 0 0
1 0 0
1 0 0
1 0 0
1 0 0
1 0 0
1 0 0
1 0 0
1 0 0
1 0 0
1 0 0
0 0 0
0 0 0
0 0 0
0 0 0
0 0 0
0 0 0
0.000137331 0 0
0.00492866 0 0
0.0111086 0 0
0.0184482 0 0
0.026566 0 0
0.0356298 0 0
0.0456855 0 0
0.056733 0 0
0.0677806 0 0
0.0791028 0 0
0.0939803 0 0
0.110277 0 0
0.128023 0 0
0.147555 0 0
0.168841 0 0
0.192172 0 0
0.217762 0 0
0.245655 0 0
0.275898 0 0
0.308263 0 0
0.343343 0 0
0.380789 0 0
0.420203 0 0
0.462043 0 0
0.505257 0 0
0.550393 0 0
0.596155 0 0
0.642832 0 0
0.689525 0 0
0.735683 0 0
0.78114 0 0
0.825284 0 0
0.867658 0 0
0.908354 0 0
0.946578 0 0
0.982544 0 0
1 0 0
1 0 0
1 0 0
1 0 0
1 0 0
1 0 0
1 0 0
1 0 0
1 0 0
1 0 0
1 0 0
1 0 0
1 0 0
1 0 0
1 0 0
1 0 0
1 0 0
1 0 0
1 0 0
1 0 0
1 0 0
1 0 0
1 0 0
0 0 0
0 0 0
0 0 0
0 0 0
0 0 0
0 0 0
0 0 0
0.00294499 0 0
0.0087892 0 0
0.0158694 0 0
0.0237125 0 0
0.0327001 0 0
0.0425269 0 0
0.0537728 0 0
0.0649882 0 0
0.0763561 0 0
0.091371 0 0
0.107637 0 0
0.125612 0 0
0.145083 0 0
0.166583 0 0
0.190005 0 0
0.215473 0 0
0.243656 0 0
0.273762 0 0
0.306462 0 0
0.34165 0 0
0.378836 0 0
0.418647 0 0
0.460182 0 0
0.503822 0 0
0.548806 0 0
0.594888 0 0
0.641947 0 0
0.688487 0 0
0.735348 0 0
0.780728 0 0
0.825208 0 0
0.867826 0 0
0.908156 0 0
0.946899 0 0
0.98262 0 0
1 0 0
1 0 0
1 0 0
1 0 0
1 0 0
1 0 0
1 0 0
1 0 0
1 0 0
1 0 0
1 0 0
1 0 0
1 0 0
1 0 0
1 0 0
1 0 0
1 0 0
1 0 0
1 0 0
1 0 0
1 0 0
1 0 0
1 0 0
0 0 0
0 0 0
0 0 0
0 0 0
0 0 0
0 0 0
0 0 0
0.00134279 0 0
0.00675975 0 0
0.0135042 0 0
0.0212253 0 0
0.0299687 0 0
0.0397345 0 0
0.0509957 0 0
0.0622873 0 0
0.0738537 0 0
0.0888991 0 0
0.105425 0 0
0.1234 0 0
0.14313 0 0
0.164797 0 0
0.188174 0 0
0.213977 0 0
0.242084 0 0
0.272511 0 0
0.305348 0 0
0.340337 0 0
0.377951 0 0
0.417578 0 0
0.459678 0 0
0.503624 0 0
0.548775 0 0
0.595285 0 0
0.642161 0 0
0.689311 0 0
0.735973 0 0
0.781643 0 0
0.826413 0 0
0.868803 0 0
0.90988 0 0
0.948638 0 0
0.984955 0 0
1 0 0
1 0 0
1 0 0
1 0 0
1 0 0
1 0 0
1 0 0
1 0 0
1 0 0
1 0 0
1 0 0
1 0 0
1 0 0
1 0 0
1 0 0
1 0 0
1 0 0
1 0 0
1 0 0
1 0 0
1 0 0
1 0 0
1 0 0
0 0 0
0 0 0
0 0 0
0 0 0
0 0 0
0 0 0
0 0 0
0.000106813 0 0
0.00480659 0 0
0.0113375 0 0
0.0187686 0 0
0.0274205 0 0
0.0370336 0 0
0.048188 0 0
0.0597238 0 0
0.0713359 0 0
0.0866712 0 0
0.10338 0 0
0.121538 0 0
0.141451 0 0
0.163088 0 0
0.186801 0 0
0.212528 0 0
0.240986 0 0
0.271595 0 0
0.304341 0 0
0.339879 0 0
0.377478 0 0
0.417731 0 0
0.460166 0 0
0.50396 0 0
0.549737 0 0
0.595972 0 0
0.643473 0 0
0.690517 0 0
0.737728 0 0
0.783948 0 0
0.828656 0 0
0.8719 0 0
0.912902 0 0
0.951995 0 0
0.988418 0 0
1 0 0
1 0 0
1 0 0
1 0 0
1 0 0
1 0 0
1 0 0
1 0 0
1 0 0
1 0 0
1 0 0
1 0 0
1 0 0
1 0 0
1 0 0
1 0 0
1 0 0
1 0 0
1 0 0
1 0 0
1 0 0
1 0 0
1 0 0
0 0 0
0 0 0
0 0 0
0 0 0
0 0 0
0 0 0
0 0 0
0 0 0
0.00308232 0 0
0.00920119 0 0
0.016495 0 0
0.0249638 0 0
0.0343786 0 0
0.0453346 0 0
0.057145 0 0
0.0690318 0 0
0.0845655 0 0
0.10135 0 0
0.119814 0 0
0.139742 0 0
0.161715 0 0
0.185428 0 0
0.211582 0 0
0.240299 0 0
0.270939 0 0
0.30428 0 0
0.339788 0 0
0.377981 0 0
0.418494 0 0
0.460746 0 0
0.505196 0 0
0.550881 0 0
0.598001 0 0
0.646021 0 0
0.693462 0 0
0.741283 0 0
0.78735 0 0
0.832746 0 0
0.875654 0 0
0.916915 0 0
0.956191 0 0
0.992325 0 0
1 0 0
1 0 0
1 0 0
1 0 0
1 0 0
1 0 0
1 0 0
1 0 0
1 0 0
1 0 0
1 0 0
1 0 0
1 0 0
1 0 0
1 0 0
1 0 0
1 0 0
1 0 0
1 0 0
1 0 0
1 0 0
1 0 0
1 0 0
0 0 0
0 0 0
0 0 0
0 0 0
0 0 0
0 0 0
0 0 0
0 0 0
0.00148013 0 0
0.00723278 0 0
0.0142977 0 0
0.0225376 0 0
0.0318914 0 0
0.0426337 0 0
0.0546578 0 0
0.0667582 0 0
0.0823835 0 0
0.0995041 0 0
0.118029 0 0
0.138354 0 0
0.160601 0 0
0.184588 0 0
0.211048 0 0
0.239811 0 0
0.27097 0 0
0.304234 0 0
0.340307 0 0
0.378805 0 0
0.419333 0 0
0.46247 0 0
0.507057 0 0
0.55378 0 0
0.601465 0 0
0.649424 0 0
0.697658 0 0
0.745129 0 0
0.791882 0 0
0.837095 0 0
0.880705 0 0
0.922545 0 0
0.961761 0 0
0.998749 0 0
1 0 0
1 0 0
1 0 0
1 0 0
1 0 0
1 0 0
1 0 0
1 0 0
1 0 0
1 0 0
1 0 0
1 0 0
1 0 0
1 0 0
1 0 0
1 0 0
1 0 0
1 0 0
1 0 0
1 0 0
1 0 0
1 0 0
1 0 0
0 0.00189212 0
0 0.00137331 0
0 0.000839246 0
0 0.000396735 0
0 7.62951e-05 0
0 0 0
0 0 0
0 0 0
0.00015259 0 0
0.00527962 0 0
0.0119936 0 0
0.0201114 0 0
0.029221 0 0
0.0399023 0 0
0.0519875 0 0
0.06421 0 0
0.0802167 0 0
0.0974594 0 0
0.116411 0 0
0.136995 0 0
0.159319 0 0
0.183749 0 0
0.210193 0 0
0.239429 0 0
0.270604 0 0
0.304555 0 0
0.341115 0 0
0.379797 0 0
0.421286 0 0
0.46453 0 0
0.510033 0 0
0.557107 0 0
0.604593 0 0
0.653407 0 0
0.701564 0 0
0.75021 0 0
0.797681 0 0
0.843458 0 0
0.887709 0 0
0.929305 0 0
0.9691 0 0
1 0 0
1 0 0
1 0 0
1 0 0
1 0 0
1 0 0
1 0 0
1 0 0
1 0 0
1 0 0
1 0 0
1 0 0
1 0 0
1 0 0
1 0 0
1 0 0
1 0 0
1 0 0
1 0 0
1 0 0
1 0 0
1 0 0
1 0 0
1 0 0
0 0.00660716 0
0 0.00593576 0
0 0.00521859 0
0 0.00460822 0
0 0.00399786 0
0 0.0034638 0
0 0.00292973 0
0 0.00234989 0
0 0.00183108 0
0.0033875 0.00125124 0
0.00982681 0.000717174 0
0.0176547 0.000167849 0
0.026688 0 0
0.0372625 0 0
0.0492866 0 0
0.0619059 0 0
0.0780652 0 0
0.0957198 0 0
0.1149 0 0
0.135576 0 0
0.158328 0 0
0.182849 0 0
0.209888 0 0
0.239582 0 0
0.27129 0 0
0.305791 0 0
0.342504 0 0
0.381994 0 0
0.423453 0 0
0.467521 0 0
0.513512 0 0
0.560739 0 0
0.609552 0 0
0.658717 0 0
0.708339 0 0
0.757717 0 0
0.805066 0 0
0.851621 0 0
0.895232 0 0
0.93724 0 0
0.976394 0 0
1 0 0
1 0 0
1 0 0
1 0 0
1 0 0
1 0 0
1 0 0
1 0 0
1 0 0
1 0 0
1 0 0
1 0 0
1 0 0
1 0 0
1 0 0
1 0 0
1 0 0
1 0 0
1 0 0
1 0 0
1 0 0
1 0 0
1 0 0
1 0 0
0 0.0123293 0
0 0.0115358 0
0 0.0107729 0
0 0.0100404 0
0 0.0093843 0
0 0.00874342 0
0 0.00808728 0
0 0.0074464 0
0 0.00675975 0
0.00157168 0.00607309 0
0.00755322 0.00534066 0
0.0151522 0.00451667 0
0.024033 0.00369268 0
0.0343786 0.00267033 0
0.0464027 0.00164797 0
0.059144 0.000564584 0
0.0757 0 0
0.0936141 0 0
0.112978 0 0
0.134157 0 0
0.157107 0 0
0.182269 0 0
0.209735 0 0
0.239628 0 0
0.271977 0 0
0.306462 0 0
0.343938 0 0
0.38352 0 0
0.426108 0 0
0.471077 0 0
0.517525 0 0
0.566262 0 0
0.615351 0 0
0.665736 0 0
0.71574 0 0
0.764691 0 0
0.812772 0 0
0.858854 0 0
0.903273 0 0
0.945495 0 0
0.98468 0 0
1 0 0
1 0 0
1 0 0
1 0 0
1 0 0
1 0 0
1 0 0
1 0 0
1 0 0
1 0 0
1 0 0
1 0 0
1 0 0
1 0 0
1 0 0
1 0 0
1 0 0
1 0 0
1 0 0
1 0 0
1 0 0
1 0 0
1 0 0
1 0 0
0 0.0186618 0
0 0.0178836 0
0 0.0169985 0
0 0.0162661 0
0 0.0155337 0
0 0.0148318 0
0 0.0141909 0
0 0.0134585 0
0 0.0127871 0
0.000106813 0.0120241 0
0.00534066 0.0112001 0
0.012665 0.0103151 0
0.0212406 0.00927749 0
0.0315099 0.00813306 0
0.0431373 0.00680552 0
0.0564279 0.00543221 0
0.0733654 0.00369268 0
0.0915389 0.00183108 0
0.111452 0.000137331 0
0.13283 0 0
0.156359 0 0
0.181811 0 0
0.209415 0 0
0.239933 0 0
0.272465 0 0
0.307988 0 0
0.346242 0 0
0.386847 0 0
0.430411 0 0
0.475715 0 0
0.523415 0 0
0.572076 0 0
0.622171 0 0
0.672953 0 0
0.722774 0 0
0.772885 0 0
0.820798 0 0
0.867933 0 0
0.912566 0 0
0.954131 0 0
0.993683 0 0
1 0 0
1 0 0
1 0 0
1 0 0
1 0 0
1 0 0
1 0 0
1 0 0
1 0 0
1 0 0
1 0 0
1 0 0
1 0 0
1 0 0
1 0 0
1 0 0
1 0 0
1 0 0
1 0 0
1 0 0
1 0 0
1 0 0
1 0 0
1 0 0
0 0.0257725 0
0 0.0248875 0
0 0.0240482 0
0 0.0233158 0
0 0.0225376 0
0 0.0218662 0
0 0.0211337 0
0 0.0204318 0
0 0.0196994 0
0 0.0188754 0
0.00303655 0.0180514 0
0.00987259 0.0170443 0
0.0182803 0.0160372 0
0.0283513 0.0148165 0
0.0399023 0.0134279 0
0.0534218 0.0119326 0
0.0706035 0.00985733 0
0.0892653 0.00762951 0
0.109285 0.00512703 0
0.131167 0.00256352 0
0.155001 0.000167849 0
0.180758 0 0
0.209186 0 0
0.240085 0 0
0.273747 0 0
0.310018 0 0
0.34873 0 0
0.390326 0 0
0.43389 0 0
0.480247 0 0
0.527901 0 0
0.577844 0 0
0.628702 0 0
0.679606 0 0
0.73077 0 0
0.780682 0 0
0.829541 0 0
0.876646 0 0
0.920424 0 0
0.962341 0 0
1 0 0
1 0 0
1 0 0
1 0 0
1 0 0
1 0 0
1 0 0
1 0 0
1 0 0
1 0 0
1 0 0
1 0 0
1 0 0
1 0 0
1 0 0
1 0 0
1 0 0
1 0 0
1 0 0
1 0 0
1 0 0
1 0 0
1 0 0
1 0 0
1 0 0
0 0.0335241 0
0 0.0327001 0
0 0.0318608 0
0 0.0310369 0
0 0.0303197 0
0 0.0295415 0
0 0.0288701 0
0 0.0281224 0
0 0.0273899 0
0 0.026627 0
0.000885023 0.025742 0
0.00717174 0.0248264 0
0.0152438 0.0237888 0
0.0250858 0.0225071 0
0.0365148 0.021088 0
0.049897 0.0193942 0
0.0675822 0.0172427 0
0.0864576 0.014725 0
0.107134 0.0119936 0
0.129564 0.00898756 0
0.153826 0.00563058 0
0.180438 0.00224308 0
0.209201 0 0
0.241032 0 0
0.275135 0 0
0.31162 0 0
0.351186 0 0
0.392889 0 0
0.43772 0 0
0.48481 0 0
0.533486 0 0
0.584298 0 0
0.635172 0 0
0.687221 0 0
0.737926 0 0
0.788617 0 0
0.837446 0 0
0.883833 0 0
0.928237 0 0
0.969406 0 0
1 0 0
1 0 0
1 0 0
1 0 0
1 0 0
1 0 0
1 0 0
1 0 0
1 0 0
1 0 0
1 0 0
1 0 0
1 0 0
1 0 0
1 0 0
1 0 0
1 0 0
1 0 0
1 0 0
1 0 0
1 0 0
1 0 0
1 0 0
1 0 0
1 0 0
0 0.042237 0
0 0.0414282 0
0 0.0404822 0
0 0.0397345 0
0 0.0389258 0
0 0.0382696 0
0 0.037644 0
0 0.0368963 0
0 0.0362554 0
0 0.0354162 0
0 0.034638 0
0.00416571 0.0336614 0
0.0117342 0.0325628 0
0.0213016 0.0313115 0
0.0324254 0.0297856 0
0.0455634 0.0281987 0
0.0639048 0.0259709 0
0.0834363 0.0234226 0
0.104692 0.0205386 0
0.127382 0.0171664 0
0.152361 0.0134279 0
0.179049 0.00923171 0
0.208484 0.00479133 0
0.24065 0.000518807 0
0.275044 0 0
0.31252 0 0
0.352346 0 0
0.395361 0 0
0.440848 0 0
0.488289 0 0
0.538003 0 0
0.588495 0 0
0.64036 0 0
0.691966 0 0
0.743664 0 0
0.794614 0 0
0.842939 0 0
0.89015 0 0
0.933837 0 0
0.975525 0 0
1 0 0
1 0 0
1 0 0
1 0 0
1 0 0
1 0 0
1 0 0
1 0 0
1 0 0
1 0 0
1 0 0
1 0 0
1 0 0
1 0 0
1 0 0
