public/luts/Neutral_Slog3_LUT.cube
TITLE "Netral_Slog3_LUT"
LUT_3D_SIZE 9
# MLUTS-Log3/Sony S-Gamut3.cine -> LA - Netral_Slog3_LUT/LA - Netral_Slog3_LUT, CineEI Shift 0.00, Black Level 0.99% IRE, Input 109% -> Output 100% - Created with LUTCalc v4.06 by Ben Turley February 2024
0.00098380 0.00086781 0.00076725
0.02617072 0.00120364 0.00216268
0.10561865 0.00475606 0.00550188
0.34003659 0.01508317 0.01714676
0.69914198 0.03190085 0.04613934
0.94597553 0.05204820 0.08532575
0.99864881 0.08760505 0.11697937
0.99864881 0.08764108 0.12557972
0.99864881 0.08764834 0.12769975
0.00234141 0.02574175 0.00267228
0.02085957 0.02263910 0.00231705
0.10249123 0.02737115 0.00503359
0.33946776 0.01896424 0.01612608
0.69948104 0.03192299 0.04616374
0.94603158 0.05205192 0.08534225
0.99864881 0.08760505 0.11698088
0.99864881 0.08764123 0.12557972
0.99864881 0.08764721 0.12769975
0.00973619 0.10643487 0.00971229
0.01244399 0.10353279 0.00932447
0.09160194 0.09738720 0.00993291
0.33369746 0.10773380 0.01717833
0.69824145 0.04680963 0.04243162
0.94612146 0.05205814 0.08536421
0.99864881 0.08760505 0.11698285
0.99864881 0.08764137 0.12557972
0.99864881 0.08764834 0.12769975
0.03017278 0.34356153 0.03008118
0.02983504 0.34032114 0.02974790
0.04413974 0.33489427 0.02923461
0.30136310 0.31851289 0.03207523
0.68106124 0.32661265 0.04284699
0.94420230 0.10466996 0.07296786
0.99864881 0.08760505 0.11699039
0.99864881 0.08764165 0.12558079
0.99864881 0.08764792 0.12769975
0.06362557 0.69126857 0.06342962
0.06344256 0.68988997 0.06325396
0.06313206 0.68745786 0.06294422
0.18629838 0.67955849 0.06272571
0.62605607 0.66115731 0.07122046
0.92592243 0.59113467 0.08090412
0.99873047 0.23367121 0.10913040
0.99864881 0.08764108 0.12558428
0.99864881 0.08764834 0.12769975
0.10499737 0.92896742 0.10488743
0.10495943 0.92874679 0.10484893
0.10488557 0.92831429 0.10477283
0.10756039 0.92686990 0.10452913
0.50189822 0.92344593 0.10696390
0.87195878 0.91364153 0.11351511
0.99915570 0.80782493 0.19968357
0.99910687 0.42583339 0.15192188
0.99864881 0.08764721 0.12769975
0.24262902 0.99992532 0.27102400
0.24237852 0.99991507 0.27059995
0.24192108 0.99989999 0.26982892
0.24056611 0.99985838 0.26745006
0.39630383 0.99988793 0.26508418
0.76025718 1.00019553 0.26558930
0.96918377 0.99997599 0.21258317
1.00105559 0.97460975 0.30247970
0.99922045 0.58522118 0.19867352
0.25451994 1.00012798 0.53131392
0.25616652 1.00012918 0.53106534
0.25974029 1.00013159 0.53065979
0.28767790 1.00015089 0.53013795
0.50223987 1.00035174 0.55080081
0.77346851 1.00080348 0.56099819
0.94271099 1.00116415 0.49216637
1.00013461 1.00125462 0.31717193
1.00120637 1.00125462 0.31589103
0.60509917 1.00060807 0.80850315
0.61658507 1.00062194 0.81026783
0.63323308 1.00064305 0.81294174
0.67452993 1.00069793 0.82016115
0.76832097 1.00084690 0.84015627
0.88793681 1.00109600 0.86801923
0.95928662 1.00129322 0.85806548
0.99749619 1.00135775 0.80531537
1.00121119 1.00125462 0.31832936
0.00173802 0.00053710 0.01929634
0.02488127 0.00123686 0.02094137
0.10491310 0.00476471 0.03157287
0.33962018 0.01508797 0.04795885
0.69903345 0.03190308 0.05558012
0.94598032 0.05204843 0.08532663
0.99864881 0.08760505 0.11697937
0.99864881 0.08764123 0.12557972
0.99864881 0.08764735 0.12769975
0.00198689 0.02167653 0.01951427
0.01780595 0.01792311 0.01803800
0.10152459 0.00806040 0.02344751
0.33641060 0.01502947 0.04668385
0.69928583 0.03192165 0.05670297
0.94603574 0.05205247 0.08534166
0.99864881 0.08760505 0.11698088
0.99864881 0.08764123 0.12557972
0.99864881 0.08764721 0.12769975
0.00944406 0.10431890 0.02480395
0.00948402 0.10071809 0.02316734
0.08827090 0.09500778 0.01172690
0.32380534 0.10505320 0.01821768
0.69659146 0.04471199 0.05060072
0.94612561 0.05205876 0.08536435
0.99864881 0.08760505 0.11698285
0.99864881 0.08764137 0.12557972
0.99864881 0.08764735 0.12769975
0.02996721 0.34166554 0.03055078
0.02963903 0.33868108 0.03011885
0.04272144 0.33325743 0.02909778
0.29922740 0.31726892 0.03191347
0.67897617 0.32656310 0.04280712
0.94418953 0.10482484 0.07286721
0.99864881 0.08760505 0.11699039
0.99864881 0.08764165 0.12558200
0.99864881 0.08764721 0.12769975
0.06339804 0.68961843 0.06321020
0.06323470 0.68832083 0.06304693
0.06292981 0.68589958 0.06274357
0.18509108 0.67808672 0.06253550
0.62546920 0.66023239 0.07107014
0.92589153 0.59134544 0.08092640
0.99873109 0.23439501 0.10914507
0.99864881 0.08764123 0.12558428
0.99864881 0.08764792 0.12769975
0.10484362 0.92814047 0.10473135
0.10480348 0.92790540 0.10469227
0.10472829 0.92747315 0.10461708
0.10726300 0.92602383 0.10437594
0.50100213 0.92265072 0.10681951
0.87183800 0.91319465 0.11343421
0.99915494 0.80790168 0.19969416
0.99910687 0.42595333 0.15195505
0.99864881 0.08764721 0.12769975
0.24004969 0.99983908 0.28016868
0.23979997 0.99983244 0.27966882
0.23933988 0.99981736 0.27866681
0.23797223 0.99977032 0.27551591
0.39314597 0.99979143 0.27148501
0.75957033 1.00010083 0.26792576
0.96912058 0.99993377 0.20980430
1.00105559 0.97462324 0.30248557
0.99922045 0.58525253 0.19868100
0.25467522 1.00013220 0.54143073
0.25625837 1.00013280 0.54119359
0.25980255 1.00013521 0.54080454
0.28754391 1.00015451 0.54031285
0.50299473 1.00035535 0.56223182
0.77499216 1.00080830 0.57484156
0.94279486 1.00116777 0.50963791
1.00005198 1.00125462 0.31748498
1.00120637 1.00125462 0.31589114
0.60474031 1.00060807 0.81090331
0.61623665 1.00062616 0.81264732
0.63289590 1.00064365 0.81528229
0.67418512 1.00070095 0.82236038
0.76809516 1.00084932 0.84186207
0.88852663 1.00109841 0.87047298
0.95945825 1.00129442 0.86096146
0.99740336 1.00136258 0.80974859
1.00120637 1.00125462 0.31844098
0.00223495 0.00195033 0.08566307
0.02981604 0.00226123 0.08455579
0.10217246 0.00518959 0.09087406
0.33808604 0.01531469 0.12265793
0.69832033 0.03201338 0.13938804
0.94591200 0.05205767 0.10286291
0.99864881 0.08760505 0.11698007
0.99864881 0.08764137 0.12557972
0.99864881 0.08764834 0.12769975
0.00221399 0.01513109 0.08503853
0.01993293 0.00391318 0.08506675
0.09822941 0.00566044 0.08912749
0.33732036 0.01529278 0.12311899
0.69862055 0.03203876 0.14217369
0.94596419 0.05206218 0.10366174
0.99864881 0.08760505 0.11698088
0.99864881 0.08764137 0.12557972
0.99864881 0.08764721 0.12769975
0.00875949 0.09470204 0.08800214
0.00865283 0.09039148 0.08559785
0.08012382 0.08159563 0.08319205
0.33445187 0.03316671 0.09874704
0.69474169 0.03252060 0.13468824
0.94536754 0.05202313 0.10330828
0.99864881 0.08760505 0.11698354
0.99864881 0.08764137 0.12557972
0.99864881 0.08764834 0.12769975
0.02941705 0.33610566 0.10138894
0.02910405 0.33307262 0.10018824
0.03032817 0.32763080 0.09671101
0.29305603 0.31192634 0.04597486
0.66590444 0.32380978 0.04842830
0.93926264 0.10772795 0.08124193
0.99864881 0.08760505 0.11699039
0.99864881 0.08764165 0.12558200
0.99864881 0.08764792 0.12769975
0.06274814 0.68561659 0.07656678
0.06258396 0.68426443 0.07565594
0.06229386 0.68184757 0.07411035
0.17886270 0.67402281 0.06279507
0.62274265 0.65720873 0.07100768
0.92195119 0.59451912 0.08089186
0.99873130 0.23557135 0.10917311
0.99864881 0.08764137 0.12558428
0.99864881 0.08764834 0.12769975
0.10445329 0.92638882 0.10648648
0.10441423 0.92615430 0.10625749
0.10434308 0.92573152 0.10589917
0.10651807 0.92426530 0.10501866
0.49912824 0.92090211 0.10651482
0.87134078 0.91173863 0.11316830
0.99914724 0.80798195 0.19969800
0.99910788 0.42614979 0.15200917
0.99864881 0.08764721 0.12769975
0.23583210 0.99969614 0.31112657
0.23554857 0.99968588 0.31043019
0.23502008 0.99966598 0.30920868
0.23347224 0.99961825 0.30543805
0.38802270 0.99962449 0.29755318
0.75841185 0.99991990 0.27711415
0.96907077 0.99978540 0.19988465
1.00105559 0.97464493 0.30249482
0.99922045 0.58530521 0.19869461
0.25491584 1.00014064 0.55737184
0.25639430 1.00014185 0.55716385
0.25988869 1.00014426 0.55682430
0.28729052 1.00016296 0.55645784
0.50463118 1.00036139 0.58044144
0.77759037 1.00081614 0.59668273
0.94296563 1.00117199 0.53815783
0.99990241 1.00125462 0.32100347
1.00120637 1.00125462 0.31589103
0.60414911 1.00061289 0.81487947
0.61566545 1.00062616 0.81657894
0.63234204 1.00064787 0.81913255
0.67361936 1.00070276 0.82593861
0.76772656 1.00085173 0.84464005
0.88917619 1.00110082 0.87408451
0.95974099 1.00129684 0.86554305
0.99724394 1.00136318 0.81697799
1.00120757 1.00125462 0.31878576
0.00718112 0.00672741 0.28169012
0.01376426 0.00672326 0.28053533
0.11567442 0.00809203 0.27966996
0.32986686 0.01693277 0.29691066
0.69405404 0.03310162 0.34983676
0.94487796 0.05239393 0.30051640
0.99864934 0.08788001 0.16155620
0.99864881 0.08764165 0.12557972
0.99864881 0.08764792 0.12769975
0.00709973 0.00686306 0.28162812
0.00998876 0.00671115 0.28056178
0.11076751 0.00794040 0.27970309
0.32873595 0.01688133 0.29696053
0.69434565 0.03313269 0.35094842
0.94492356 0.05240145 0.30191987
0.99864934 0.08788638 0.16241233
0.99864881 0.08764180 0.12557972
0.99864881 0.08764721 0.12769975
0.00779153 0.05494238 0.28011179
0.00763521 0.05209986 0.27901613
0.08336715 0.01559603 0.28271796
0.32155931 0.01951479 0.29393385
0.69266728 0.03307768 0.35138651
0.94498379 0.05241305 0.30403205
0.99864934 0.08789758 0.16389607
0.99864881 0.08764137 0.12557972
0.99864881 0.08764792 0.12769975
0.02789292 0.30645124 0.28869772
0.02760305 0.30283565 0.28675480
0.02819975 0.29611585 0.28348916
0.27181503 0.27500219 0.27809178
0.71186063 0.14439289 0.27087593
0.94510985 0.05910729 0.28777895
0.99864934 0.08786768 0.16029974
0.99864881 0.08764165 0.12558200
0.99864881 0.08764792 0.12769975
0.06139569 0.66858891 0.33361059
0.06123807 0.66733663 0.33265526
0.06096155 0.66510130 0.33120887
0.09019387 0.65977152 0.30870844
0.61225629 0.64257931 0.16489845
0.92573616 0.57866398 0.12366915
0.99873491 0.26835786 0.12882994
0.99864881 0.08764165 0.12558428
0.99864881 0.08764792 0.12769975
0.10364210 0.92018793 0.31675260
0.10359387 0.91992413 0.31584654
0.10350374 0.91943865 0.31450030
0.10330256 0.91780241 0.31054930
0.44807549 0.91913593 0.17544271
0.86778700 0.90587140 0.15553199
0.99862844 0.81238176 0.19519230
0.99910906 0.42674020 0.15217563
0.99864881 0.08764721 0.12769975
0.22423527 0.99940032 0.41632123
0.22389369 0.99939403 0.41583599
0.22321736 0.99938080 0.41498775
0.22127975 0.99934522 0.41159549
0.38368919 0.99932647 0.41516421
0.75725835 0.99941907 0.38194688
0.96870921 0.99922226 0.21167641
1.00105317 0.97470414 0.30252157
0.99922042 0.58546345 0.19873522
0.25535922 1.00016658 0.59795734
0.25654961 1.00016718 0.59779922
0.25984979 1.00016899 0.59753380
0.28618789 1.00018467 0.59734671
0.50218681 1.00038008 0.61900023
0.78525726 1.00083786 0.65272080
0.94367986 1.00119008 0.60899228
0.99950305 1.00126125 0.36216411
1.00120637 1.00125462 0.31589103
0.60241984 1.00062073 0.82646020
0.61399007 1.00063400 0.82796551
0.63072335 1.00065571 0.83019313
0.67213893 1.00071060 0.83605997
0.76665338 1.00085957 0.85263268
0.88985596 1.00110866 0.88301565
0.96060406 1.00130106 0.87801867
0.99675731 1.00136861 0.83634655
1.00122507 1.00127151 0.41791441
0.01545104 0.01425093 0.59732341
0.01544476 0.01424014 0.59695716
0.06473712 0.01447386 0.59656000
0.36437765 0.02158862 0.59818447
0.68055682 0.03648884 0.61455769
0.94075068 0.05389797 0.59559711
0.99868259 0.09377158 0.50964826
0.99865383 0.08901119 0.22358895
0.99864881 0.08764834 0.12769975
0.01543979 0.01423958 0.59697074
0.01542634 0.01423076 0.59667922
0.05659143 0.01441309 0.59632495
0.36252159 0.02152355 0.59814507
0.68083035 0.03651237 0.61497487
0.94080466 0.05390537 0.59600694
0.99868259 0.09378437 0.51016099
0.99865423 0.08901837 0.22397320
0.99864881 0.08764721 0.12769975
0.01512687 0.01433278 0.59546145
0.01511885 0.01420376 0.59519969
0.03889498 0.01424785 0.59489228
0.35410723 0.02118907 0.59686368
0.67841008 0.03637802 0.61447208
0.94089238 0.05391703 0.59667619
0.99868259 0.09380590 0.51101922
0.99865423 0.08903217 0.22469109
0.99864881 0.08764834 0.12769975
0.02503313 0.27276582 0.59282862
0.02479916 0.26751192 0.59242776
0.02446670 0.25848430 0.59189517
0.26316991 0.11777248 0.64310875
0.66518018 0.06563627 0.61360591
0.93816611 0.05458557 0.59674066
0.99868318 0.09386667 0.51366854
0.99865423 0.08907848 0.22722976
0.99864881 0.08764792 0.12769975
0.05885233 0.62460350 0.59914995
0.05871506 0.62316133 0.59860831
0.05847110 0.62056498 0.59775645
0.07687632 0.61309323 0.59590233
0.59087542 0.59202130 0.59328218
0.96175425 0.48104860 0.55588625
0.99871820 0.19215155 0.50083320
0.99865356 0.08892955 0.21924563
0.99864881 0.08764834 0.12769975
0.10185813 0.90246388 0.59590329
0.10180021 0.90211424 0.59570043
0.10169342 0.90147456 0.59544237
0.10134598 0.89934506 0.59481053
0.32445386 0.91138384 0.52919816
0.86422053 0.89183932 0.44922513
0.99879763 0.79875134 0.49880021
0.99914615 0.43937541 0.21432672
0.99864881 0.08764721 0.12769975
0.19330332 0.99923726 0.58921369
0.19295412 0.99922075 0.58903638
0.19242382 0.99918219 0.58876216
0.19085720 0.99900246 0.58790275
0.35314654 0.99922746 0.59224714
0.77129284 0.99905339 0.62150358
0.97013909 0.99849791 0.51481536
1.00105197 0.97243556 0.37654462
0.99922036 0.58593880 0.19885815
0.25661188 1.00022387 0.68878490
0.25706900 1.00022448 0.68869842
0.25945404 1.00022568 0.68853695
0.28359973 1.00024197 0.68845475
0.49007186 1.00042230 0.70246693
0.80570193 1.00088792 0.76012189
0.94665782 1.00122868 0.74069521
0.99922264 1.00130769 0.60393265
1.00120697 1.00125462 0.31658618
0.59803137 1.00063943 0.85096269
0.60972755 1.00065270 0.85206947
0.62660268 1.00067441 0.85370773
0.66854763 1.00072929 0.85853894
0.76396170 1.00087344 0.87417312
0.89166992 1.00112193 0.90328894
0.96313013 1.00131734 0.90672479
0.99590371 1.00138188 0.87891663
1.00128598 1.00131976 0.64937524
0.02433327 0.02300881 0.86256864
0.02433343 0.02300738 0.86252416
0.02523133 0.02300762 0.86249799
0.32313791 0.02629477 0.86393178
0.66611407 0.04162354 0.86825180
0.93307063 0.05655622 0.85361634
0.99873743 0.10289942 0.80058201
0.99872176 0.10049683 0.73885116
0.99867079 0.09183406 0.32564755
0.02432349 0.02299175 0.86209959
0.02431746 0.02299164 0.86209727
0.02441187 0.02299199 0.86209278
0.31779118 0.02618491 0.86356708
0.66572904 0.04159956 0.86822029
0.93311693 0.05656236 0.85370762
0.99873743 0.10290593 0.80070717
0.99872224 0.10050411 0.73901144
0.99867079 0.09183868 0.32576111
0.02429202 0.02295119 0.86098463
0.02429356 0.02295178 0.86098874
0.02429600 0.02295318 0.86102055
0.30296614 0.02588516 0.86250490
0.66230598 0.04136373 0.86763029
0.93318604 0.05657220 0.85385432
0.99873755 0.10291449 0.80091326
0.99872224 0.10051417 0.73927508
0.99867113 0.09184666 0.32596544
0.02470204 0.11120447 0.85723315
0.02461174 0.10842223 0.85717822
0.02459061 0.10382337 0.85714312
0.21060491 0.03527431 0.86498602
0.63899455 0.04186151 0.86417937
0.92982180 0.05625382 0.85362656
0.99873755 0.10294194 0.80153807
0.99872243 0.10054571 0.74006254
0.99867113 0.09187135 0.32663995
0.05549647 0.56743321 0.85766539
0.05537641 0.56599012 0.85759198
0.05516592 0.56343986 0.85750810
0.05937040 0.55290919 0.85975611
0.55108535 0.47919092 0.93025285
0.94080301 0.33096527 0.88507987
0.99874306 0.16352675 0.79815007
0.99872300 0.10063167 0.74217969
0.99867180 0.09195238 0.32880553
0.09902952 0.87116174 0.85396709
0.09897483 0.87076474 0.85397862
0.09887348 0.87004067 0.85404577
0.09853935 0.86761534 0.85436115
0.28006244 0.87187224 0.86545997
0.85598361 0.84841785 0.86105359
0.99853296 0.80002901 0.83445934
0.99909755 0.36759525 0.73394695
0.99867312 0.09221320 0.33559141
0.15530933 0.99338744 0.80237764
0.15505384 0.99329980 0.80246660
0.15462384 0.99314972 0.80260090
0.15327010 0.99266382 0.80299144
0.27978684 0.99432653 0.80399587
0.77800988 0.99519503 0.83346394
0.97694707 0.98965065 0.79771390
1.00094642 0.95613620 0.79269565
0.99922053 0.57745568 0.38147749
0.26107463 1.00033545 0.82397923
0.26119082 1.00033545 0.82397555
0.26273245 1.00033666 0.82395873
0.28139221 1.00034812 0.82403430
0.46103497 1.00049588 0.82996411
0.81789767 1.00095848 0.87393437
0.95509784 1.00128658 0.89323950
0.99776809 1.00137524 0.86123547
1.00127151 1.00086982 0.53684661
0.58961336 1.00067501 0.89875690
0.60146474 1.00068828 0.89961029
0.61844906 1.00070999 0.90093288
0.66120527 1.00076307 0.90453926
0.75851189 1.00090661 0.91509281
0.88996938 1.00114847 0.93417039
0.96888107 1.00134448 0.95086863
0.99514690 1.00140359 0.94121488
1.00136680 1.00138610 0.87054955
0.02921855 0.02798692 0.98156600
0.02922013 0.02798837 0.98158708
0.02922585 0.02799162 0.98162396
0.22640470 0.03025545 0.98226826
0.61255176 0.04618895 0.98478603
0.89404703 0.06965013 0.98768233
0.99880945 0.10902031 0.97072617
0.99881160 0.10885395 0.96304212
0.99878924 0.10745818 0.92667100
0.02920020 0.02796590 0.98128415
0.02920178 0.02796847 0.98132258
0.02920639 0.02797182 0.98137026
0.21680505 0.03004744 0.98202626
0.60953395 0.04572845 0.98461007
0.89406450 0.06965828 0.98768074
0.99880945 0.10902162 0.97074366
0.99881160 0.10885452 0.96306364
0.99878924 0.10745953 0.92670617
0.02915665 0.02792819 0.98075142
0.02916223 0.02793098 0.98079256
0.02916392 0.02793465 0.98084831
0.20056365 0.02962754 0.98149861
0.60294428 0.04487012 0.98420398
0.89331799 0.06952512 0.98758897
0.99880945 0.10902376 0.97077394
0.99881160 0.10885583 0.96309926
0.99878924 0.10746169 0.92676445
0.02877978 0.07769890 0.97909329
0.02872563 0.07400724 0.97912379
0.02863244 0.06611232 0.97916723
0.11933699 0.02986905 0.98036362
0.57785718 0.04339222 0.98277810
0.88444053 0.06685425 0.98654557
0.99880945 0.10902778 0.97086245
0.99881160 0.10885992 0.96320619
0.99878924 0.10746823 0.92693718
0.05430465 0.49008521 0.98031603
0.05419874 0.48853448 0.98031093
0.05400942 0.48575347 0.98031781
0.05429998 0.47510322 0.98103675
0.50100960 0.41574586 0.99493639
0.85419385 0.27557641 0.99255741
0.99874118 0.14442482 0.96776576
0.99881160 0.10887203 0.96352275
0.99878924 0.10748835 0.92745047
0.09723535 0.79559227 0.97911404
0.09717599 0.79508452 0.97914271
0.09706895 0.79419756 0.97917243
0.09672213 0.79128475 0.97931686
0.30162688 0.78532046 0.98795445
0.83313682 0.80846966 0.99358549
0.99794962 0.74768924 0.97185722
0.99911724 0.31970579 0.95734081
0.99879050 0.10754857 0.92892526
0.12264553 0.98188444 0.96885629
0.12259296 0.98178302 0.96901495
0.12250409 0.98160853 0.96930827
0.12224322 0.98106733 0.97011733
0.22669133 0.98277187 0.97506008
0.72443662 0.98596734 0.98580604
0.97539505 0.97016280 0.97857400
1.00067441 0.95411593 0.96730873
0.99922058 0.54231102 0.92239361
0.26277514 1.00034570 0.93574701
0.26290961 1.00034028 0.93581834
0.26442661 1.00033605 0.93592749
0.27978627 1.00032640 0.93630543
0.43602118 1.00038491 0.93930110
0.80459750 1.00066476 0.95436130
0.96609755 1.00043376 0.97420284
0.99758757 0.99962092 0.97254009
1.00139153 0.99619941 0.95931293
0.58067279 1.00071904 0.95416284
0.59332372 1.00073352 0.95447779
0.60978654 1.00075402 0.95492403
0.65304383 1.00080408 0.95618879
0.75234577 1.00094461 0.96081286
0.88611875 1.00118043 0.97038469
0.97304714 1.00136801 0.98261991
0.99549561 1.00141988 0.98466341
1.00032098 1.00142832 0.97735098
0.03130142 0.05650107 0.99561990
0.03125828 0.05605095 0.99561446
0.03117962 0.05523570 0.99560441
0.14469934 0.05011741 0.99590432
0.56605253 0.05165521 0.99810793
0.86557481 0.09120161 0.99867224
0.99857799 0.11033366 0.99883669
0.99882178 0.11038044 0.99883669
0.99882178 0.11038044 0.99883669
0.03157082 0.05952519 0.99565081
0.03154249 0.05918750 0.99564780
0.03148843 0.05855855 0.99564187
0.13275987 0.05524628 0.99588277
0.56071686 0.05442382 0.99807755
0.86276103 0.09071859 0.99866989
0.99857863 0.11033408 0.99883669
0.99882178 0.11038044 0.99883669
0.99882178 0.11038044 0.99883669
0.03209978 0.06679015 0.99570376
0.03206581 0.06631323 0.99569992
0.03200145 0.06541114 0.99569242
0.11339026 0.06203613 0.99584408
0.55176128 0.06122383 0.99803022
0.85772780 0.08988654 0.99866489
0.99857324 0.11033246 0.99883669
0.99882178 0.11038044 0.99883669
0.99882178 0.11038044 0.99883669
0.04087558 0.23740424 0.99689480
0.04063386 0.23328243 0.99685394
0.04019625 0.22660546 0.99678292
0.05912201 0.20529425 0.99743293
0.52398535 0.12911612 0.99831978
0.84478970 0.10375812 0.99865869
0.99836068 0.11028516 0.99883542
0.99882178 0.11038044 0.99883669
0.99882178 0.11038044 0.99883669
0.09360764 0.53695513 0.99868988
0.09329670 0.53579019 0.99868810
0.09273501 0.53375031 0.99868542
0.09098527 0.52704879 0.99867613
0.46757208 0.50788283 0.99872243
0.81307864 0.43776845 0.99892678
0.99507277 0.19843604 0.99892952
0.99882178 0.11038044 0.99883669
0.99882178 0.11038044 0.99883669
0.16568936 0.77686559 0.99922094
0.16560721 0.77639380 0.99922084
0.16548824 0.77553852 0.99922131
0.16511070 0.77279777 0.99922326
0.35232226 0.76740971 0.99924497
0.82501747 0.81809585 0.99920857
0.97921054 0.76574729 0.99921075
0.99917808 0.35877590 0.99894617
0.99882178 0.11038044 0.99883669
0.17667749 0.94773486 0.99920666
0.17708788 0.94745014 0.99920923
0.17774519 0.94699305 0.99921248
0.17947500 0.94562946 0.99922206
0.31646871 0.94253582 0.99924573
0.77909993 0.94932753 0.99920748
0.97004757 0.96522013 0.99926035
1.00054956 0.94780306 0.99717898
0.99921781 0.54098043 0.99844003
0.23881630 0.99969372 0.98742674
0.23875964 0.99966658 0.98758799
0.24039017 0.99962798 0.98784272
0.25481906 0.99955049 0.98862874
0.42028451 0.99944999 0.99103181
0.79350175 0.99932003 0.99569465
0.95825217 0.99902366 0.99885232
0.99773618 0.99678651 0.99818085
1.00135594 0.99492797 0.99656333
0.58376264 1.00075523 0.98514019
0.59531086 1.00076850 0.98526569
0.61007102 1.00078478 0.98543891
0.65326073 1.00083665 0.98596782
0.75199128 1.00097235 0.98749628
0.88458584 1.00118405 0.99097920
0.97166802 1.00131372 0.99512959
0.99657551 1.00125522 0.99767075
1.00018467 1.00106101 0.99714849
0.09268522 0.53642808 0.99868278
0.09229317 0.53507231 0.99868058
0.09160573 0.53277545 0.99867708
0.09833870 0.52461601 0.99866584
0.48460066 0.49861669 0.99872062
0.81676014 0.42641658 0.99890023
0.99551846 0.16615766 0.99887195
0.99882178 0.11038044 0.99883669
0.99882178 0.11038044 0.99883669
0.09545156 0.54673872 0.99869752
0.09514890 0.54553390 0.99869618
0.09462601 0.54351221 0.99869301
0.10045222 0.53602832 0.99868426
0.48379359 0.51343653 0.99873666
0.81592749 0.44803007 0.99893524
0.99500585 0.18226417 0.99888794
0.99882178 0.11038044 0.99883669
0.99882178 0.11038044 0.99883669
0.09898603 0.56132815 0.99871820
0.09872205 0.56024140 0.99871681
0.09827907 0.55841451 0.99871417
0.10271634 0.55200747 0.99870600
0.48268722 0.53817126 0.99876973
0.81505505 0.48184099 0.99899099
0.99426023 0.20672082 0.99892334
0.99882178 0.11038044 0.99883669
0.99882178 0.11038044 0.99883669
0.10789438 0.59981226 0.99880500
0.10769969 0.59886552 0.99880214
0.10736524 0.59725448 0.99879707
0.10773756 0.59214580 0.99878172
0.47689994 0.59035164 0.99889066
0.81424716 0.56476671 0.99912105
0.99077449 0.31815535 0.99905095
0.99882178 0.11038044 0.99883669
0.99882178 0.11038044 0.99883669
0.13795632 0.69089527 0.99912892
0.13763398 0.69016627 0.99912647
0.13706208 0.68885679 0.99912270
0.13541301 0.68481733 0.99911124
0.44011838 0.67997168 0.99917303
0.81779572 0.70951930 0.99924176
0.98445367 0.59118106 0.99923843
0.99883922 0.12897209 0.99885537
0.99882178 0.11038044 0.99883669
0.19242823 0.82877273 0.99920070
0.19230336 0.82835863 0.99920098
0.19209634 0.82766803 0.99920148
0.19144045 0.82557932 0.99920326
0.36055999 0.82249990 0.99919653
0.81917026 0.86029399 0.99933975
0.97201953 0.84866595 0.99957667
0.99921685 0.64178687 0.99921538
0.99882178 0.11067945 0.99883732
0.22691160 0.94541551 0.99952282
0.22700844 0.94514613 0.99952598
0.22716514 0.94471105 0.99953232
0.22758649 0.94346267 0.99954763
0.36500546 0.94115782 0.99967563
0.78831342 0.95040880 1.00032339
0.97015254 0.97048068 1.00086620
0.99914128 0.95697322 1.00087827
0.99921794 0.70376735 0.99921138
0.23754809 0.99849197 0.99900455
0.23960847 0.99838843 0.99902582
0.24464577 0.99812718 0.99905754
0.26296681 0.99728973 0.99917431
0.46786901 0.99560683 0.99919510
0.80695719 0.99452818 1.00045306
0.96391457 0.99491453 1.00096512
0.99705454 0.99636341 1.00112193
1.00133966 0.99475053 0.99945315
0.60583285 1.00078659 0.99473239
0.61447258 1.00079564 0.99477316
0.62869379 1.00081192 0.99483877
0.67019451 1.00085897 0.99504333
0.76277702 1.00097477 0.99566937
0.88724006 1.00113339 0.99756238
0.97119767 1.00115329 0.99921416
0.99595364 1.00057188 1.00082881
1.00000494 0.99950191 1.00030891
