public/luts/Neutral_Slog3_LUT.cube
TITLE "Netral_Slog3_LUT"
LUT_3D_SIZE 33
# MLUTS-Log3/Sony S-Gamut3.cine -> LA - Netral_Slog3_LUT/LA - Netral_Slog3_LUT, CineEI Shift 0.00, Black Level 0.99% IRE, Input 109% -> Output 100% - Created with LUTCalc v4.06 by Ben Turley February 2024
0.00098380 0.00086781 0.00076725
0.00545586 0.00074855 0.00098484
0.00983899 0.00062929 0.00120919
0.01831936 0.00088366 0.00165583
0.02617072 0.00120364 0.00216268
0.04086784 0.00175972 0.00279382
0.05393290 0.00243427 0.00340411
0.07880770 0.00346314 0.00435257
0.10561865 0.00475606 0.00550188
0.14580189 0.00657087 0.00715676
0.19723038 0.00875536 0.00939064
0.25845452 0.01134809 0.01217588
0.34003659 0.01508317 0.01714676
0.42343478 0.01934229 0.02220406
0.52010874 0.02353258 0.02792869
0.61369682 0.02708352 0.03589224
0.69914198 0.03190085 0.04613934
0.77947841 0.03784281 0.05319382
0.84354801 0.04362136 0.06144619
0.90435483 0.04818481 0.07441335
0.94597553 0.05204820 0.08532575
0.98148269 0.05510482 0.09459963
0.99476216 0.06455028 0.10353160
0.99741236 0.08057614 0.11131267
0.99864881 0.08760505 0.11697937
0.99864881 0.08761787 0.11981169
0.99864881 0.08762834 0.12233962
0.99864881 0.08763528 0.12406937
0.99864881 0.08764108 0.12557972
0.99864881 0.08764375 0.12633009
0.99864881 0.08764621 0.12703258
0.99864881 0.08764728 0.12736531
0.99864881 0.08764834 0.12769975
0.00095765 0.00510017 0.00113283
0.00420937 0.00449022 0.00086677
0.00862693 0.00435059 0.00108686
0.01653564 0.00527088 0.00130140
0.02493702 0.00575064 0.00175187
0.03918473 0.00635761 0.00233595
0.05306244 0.00700036 0.00297156
0.07764146 0.00692675 0.00398743
0.10512431 0.00740784 0.00517218
0.14528446 0.00788947 0.00689399
0.19710534 0.00875446 0.00910667
0.25841957 0.01135015 0.01200869
0.34019904 0.01509354 0.01713810
0.42360999 0.01935111 0.02220017
0.52023158 0.02353907 0.02793621
0.61381070 0.02708882 0.03590278
0.69919603 0.03190475 0.04614782
0.77952949 0.03784662 0.05319986
0.84356849 0.04362353 0.06145060
0.90437689 0.04818625 0.07441827
0.94598366 0.05204890 0.08533061
0.98148725 0.05510549 0.09460327
0.99476329 0.06455067 0.10353290
0.99741236 0.08057614 0.11131300
0.99864881 0.08760505 0.11697981
0.99864881 0.08761787 0.11981218
0.99864881 0.08762855 0.12233994
0.99864881 0.08763581 0.12406937
0.99864881 0.08764147 0.12557972
0.99864881 0.08764375 0.12633009
0.99864881 0.08764614 0.12703258
0.99864881 0.08764674 0.12736531
0.99864881 0.08764781 0.12769975
0.00093160 0.00930366 0.00151916
0.00417934 0.00869583 0.00123726
0.00746003 0.00811872 0.00096684
0.01511663 0.00899011 0.00117735
0.02359966 0.01004538 0.00139280
0.03720945 0.01069037 0.00192191
0.05216295 0.01125775 0.00254125
0.07611481 0.01118806 0.00353386
0.10448125 0.01069998 0.00479763
0.14446405 0.01051931 0.00659844
0.19669638 0.01016380 0.00881744
0.25827248 0.01134933 0.01176559
0.34016911 0.01509627 0.01694303
0.42379976 0.01936041 0.02219357
0.52041405 0.02354743 0.02793204
0.61392904 0.02709432 0.03591325
0.69931563 0.03191229 0.04615550
0.77958056 0.03785042 0.05320591
0.84361688 0.04362714 0.06146063
0.90440132 0.04818777 0.07442367
0.94600350 0.05205006 0.08533503
0.98149439 0.05510629 0.09460683
0.99476666 0.06455181 0.10353610
0.99741438 0.08057651 0.11131423
0.99864881 0.08760505 0.11698024
0.99864881 0.08761787 0.11981267
0.99864881 0.08762855 0.12234047
0.99864881 0.08763603 0.12406970
0.99864881 0.08764201 0.12557972
0.99864881 0.08764414 0.12633009
0.99864881 0.08764614 0.12703258
0.99864881 0.08764667 0.12736531
0.99864881 0.08764728 0.12769975
0.00155462 0.01769180 0.00207091
0.00410924 0.01665145 0.00186327
0.00739594 0.01595923 0.00156792
0.01344008 0.01493044 0.00157463
0.02222732 0.01617237 0.00180263
0.03520030 0.01822167 0.00216455
0.05095604 0.01915419 0.00277523
0.07446668 0.01996066 0.00364408
0.10363039 0.01975153 0.00485141
0.14325961 0.01785694 0.00659835
0.19607320 0.01622825 0.00875952
0.25776511 0.01485246 0.01157096
0.33992392 0.01508619 0.01640910
0.42364143 0.01935588 0.02191468
0.52053735 0.02355305 0.02793109
0.61403473 0.02709872 0.03591526
0.69937943 0.03191719 0.04616238
0.77963646 0.03785496 0.05321087
0.84363973 0.04362942 0.06146588
0.90442860 0.04818935 0.07443010
0.94601128 0.05205076 0.08533728
0.98150030 0.05510705 0.09460831
0.99476773 0.06455219 0.10353698
0.99741518 0.08057666 0.11131492
0.99864881 0.08760505 0.11698044
0.99864881 0.08761787 0.11981273
0.99864881 0.08762834 0.12234054
0.99864881 0.08763557 0.12406977
0.99864881 0.08764176 0.12557972
0.99864881 0.08764422 0.12633009
0.99864881 0.08764614 0.12703258
0.99864881 0.08764667 0.12736531
0.99864881 0.08764721 0.12769975
0.00234141 0.02574175 0.00267228
0.00479096 0.02501780 0.00246708
0.00732648 0.02437622 0.00225456
0.01336189 0.02350536 0.00226164
0.02085957 0.02263910 0.00231705
0.03326076 0.02440172 0.00269790
0.04947741 0.02590716 0.00308578
0.07229333 0.02666847 0.00396159
0.10249123 0.02737115 0.00503359
0.14165034 0.02623087 0.00672437
0.19531312 0.02384823 0.00879702
0.25704816 0.02176908 0.01155199
0.33946776 0.01896424 0.01612608
0.42333412 0.01934559 0.02148676
0.52036144 0.02354824 0.02763481
0.61414281 0.02710304 0.03591526
0.69948104 0.03192299 0.04616374
0.77968800 0.03785931 0.05321570
0.84368655 0.04363341 0.06147367
0.90445118 0.04819079 0.07443562
0.94603158 0.05205192 0.08534225
0.98150535 0.05510776 0.09460969
0.99477079 0.06455334 0.10353804
0.99741628 0.08057689 0.11131538
0.99864881 0.08760505 0.11698088
0.99864881 0.08761787 0.11981290
0.99864881 0.08762834 0.12234054
0.99864881 0.08763528 0.12406977
0.99864881 0.08764123 0.12557972
0.99864881 0.08764390 0.12633009
0.99864881 0.08764614 0.12703258
0.99864881 0.08764667 0.12736531
0.99864881 0.08764721 0.12769975
0.00359853 0.04056934 0.00377665
0.00447103 0.03928334 0.00364143
0.00693322 0.03810310 0.00343470
0.01271826 0.03680178 0.00336655
0.02020539 0.03566418 0.00342346
0.03062969 0.03406770 0.00357603
0.04771872 0.03671792 0.00399528
0.06948088 0.04038802 0.00460089
0.10071015 0.04183086 0.00565497
0.13951738 0.04244815 0.00706369
0.19422306 0.03981823 0.00906872
0.25602326 0.03301369 0.01147324
0.33879556 0.02695336 0.01557302
0.42277081 0.02442833 0.02090080
0.52006242 0.02353576 0.02705046
0.61398886 0.02709686 0.03529242
0.69956165 0.03192871 0.04617025
0.77975311 0.03786457 0.05322133
0.84371634 0.04363640 0.06147949
0.90448437 0.04819279 0.07444246
0.94604150 0.05205288 0.08534480
0.98151404 0.05510885 0.09461155
0.99477187 0.06455376 0.10353863
0.99741773 0.08057719 0.11131589
0.99864881 0.08760505 0.11698108
0.99864881 0.08761787 0.11981303
0.99864881 0.08762855 0.12234054
0.99864881 0.08763567 0.12406977
0.99864881 0.08764133 0.12557972
0.99864881 0.08764375 0.12633009
0.99864881 0.08764621 0.12703258
0.99864881 0.08764706 0.12736531
0.99864881 0.08764760 0.12769975
0.00503038 0.05404346 0.00506889
0.00533526 0.05330608 0.00496434
0.00623276 0.05261114 0.00483591
0.01200817 0.05190466 0.00475390
0.01932269 0.05105508 0.00470551
0.02972522 0.04988415 0.00485014
0.04561810 0.04871786 0.00503012
0.06625201 0.05145574 0.00566215
0.09888441 0.05386169 0.00641461
0.13644618 0.05448592 0.00769989
0.19290653 0.05461316 0.00953841
0.25425344 0.05157332 0.01176957
0.33791415 0.04181439 0.01527707
0.42197598 0.03403428 0.02025548
0.51947937 0.02786616 0.02648604
0.61370820 0.02708548 0.03435044
0.69938823 0.03191979 0.04570721
0.77981810 0.03787001 0.05322768
0.84377015 0.04364104 0.06148893
0.90451168 0.04819459 0.07444860
0.94606482 0.05205429 0.08535006
0.98151941 0.05510985 0.09461276
0.99477584 0.06455548 0.10353970
0.99741821 0.08057730 0.11131627
0.99864881 0.08760505 0.11698152
0.99864881 0.08761787 0.11981313
0.99864881 0.08762855 0.12234054
0.99864881 0.08763603 0.12406977
0.99864881 0.08764187 0.12557972
0.99864881 0.08764400 0.12633009
0.99864881 0.08764621 0.12703258
0.99864881 0.08764728 0.12736531
0.99864881 0.08764813 0.12769975
0.00717734 0.07962317 0.00716012
0.00723054 0.07835134 0.00707157
0.00749748 0.07705076 0.00697961
0.00973028 0.07573987 0.00689697
0.01654411 0.07428223 0.00683855
0.02778215 0.07248235 0.00682360
0.04344672 0.07061294 0.00698366
0.06171333 0.06786359 0.00725550
0.09584700 0.07285674 0.00793782
0.13201260 0.07942902 0.00890900
0.19030919 0.08077213 0.01064095
0.25095442 0.08094890 0.01254059
0.33615931 0.07148251 0.01602140
0.42041645 0.05711018 0.01977484
0.51826920 0.04819671 0.02505484
0.61284112 0.04180502 0.03206488
0.69913006 0.03190163 0.04466968
0.77968862 0.03785934 0.05273635
0.84382087 0.04364620 0.06149888
0.90456304 0.04819784 0.07445940
0.94608172 0.05205557 0.08535493
0.98153311 0.05511127 0.09461613
0.99477743 0.06455616 0.10354055
0.99742105 0.08057797 0.11131707
0.99864881 0.08760505 0.11698198
0.99864881 0.08761787 0.11981362
0.99864881 0.08762834 0.12234065
0.99864881 0.08763571 0.12406977
0.99864881 0.08764190 0.12557972
0.99864881 0.08764422 0.12633009
0.99864881 0.08764621 0.12703258
0.99864881 0.08764728 0.12736531
0.99864881 0.08764834 0.12769975
0.00973619 0.10643487 0.00971229
0.00965238 0.10576761 0.00963078
0.00970268 0.10507876 0.00954607
0.01036041 0.10435703 0.00942735
0.01244399 0.10353279 0.00932447
0.02493628 0.10231226 0.00927498
0.04013947 0.10107403 0.00926474
0.05887505 0.09938297 0.00959448
0.09160194 0.09738720 0.00993291
0.12599363 0.10174670 0.01085579
0.18709100 0.10699061 0.01202299
0.24585096 0.10768637 0.01409055
0.33369746 0.10773380 0.01717833
0.41802390 0.10051500 0.02063430
0.51633261 0.07904010 0.02410717
0.61145505 0.06277607 0.02907909
0.69824145 0.04680963 0.04243162
0.77946761 0.03784031 0.05198275
0.84369588 0.04363588 0.06066438
0.90461502 0.04820144 0.07447106
0.94612146 0.05205814 0.08536421
0.98154340 0.05511261 0.09461936
0.99478454 0.06455830 0.10354325
0.99742105 0.08057797 0.11131774
0.99864881 0.08760505 0.11698285
0.99864881 0.08761787 0.11981414
0.99864881 0.08762834 0.12234118
0.99864881 0.08763528 0.12406988
0.99864881 0.08764137 0.12557972
0.99864881 0.08764404 0.12633009
0.99864881 0.08764621 0.12703258
0.99864881 0.08764728 0.12736531
0.99864881 0.08764834 0.12769975
0.01312585 0.14847334 0.01308749
0.01302789 0.14729433 0.01299176
0.01293141 0.14614367 0.01289727
0.01316821 0.14497266 0.01279986
0.01394459 0.14362852 0.01270115
0.01927717 0.14175786 0.01260561
0.03272757 0.13976023 0.01256874
0.05476319 0.13677676 0.01257820
0.08587105 0.13335363 0.01295441
0.11875245 0.12875425 0.01352240
0.18159699 0.13846184 0.01499298
0.23898278 0.14906323 0.01674704
0.32922885 0.15084926 0.01954899
0.41429013 0.15026414 0.02212504
0.51289423 0.12925232 0.02510647
0.60900847 0.10815437 0.02808031
0.69648177 0.08500279 0.03737507
0.77835556 0.06090414 0.04898341
0.84347597 0.04361276 0.05910419
0.90445321 0.04819070 0.07286974
0.94615627 0.05206091 0.08537341
0.98156764 0.05511539 0.09462520
0.99478859 0.06455953 0.10354543
0.99742739 0.08057902 0.11131965
0.99864881 0.08760505 0.11698372
0.99864881 0.08761787 0.11981512
0.99864881 0.08762834 0.12234174
0.99864881 0.08763528 0.12407043
0.99864881 0.08764108 0.12557984
0.99864881 0.08764375 0.12633009
0.99864881 0.08764614 0.12703258
0.99864881 0.08764703 0.12736531
0.99864881 0.08764810 0.12769975
0.01855196 0.20046228 0.01849522
0.01844419 0.19966922 0.01838974
0.01833730 0.19886937 0.01828488
0.01823023 0.19804164 0.01817785
0.01848914 0.19714185 0.01806887
0.01983797 0.19598371 0.01793351
0.02445299 0.19476585 0.01781595
0.04817044 0.19295415 0.01776149
0.07656913 0.19076718 0.01776420
0.11202783 0.18788755 0.01838422
0.17362627 0.18400940 0.01920572
0.22891029 0.19113542 0.02075772
0.32311061 0.20025511 0.02244101
0.40655775 0.20097643 0.02475732
0.50839563 0.19885610 0.02683866
0.60508168 0.18430507 0.03001947
0.69352523 0.14318745 0.03385399
0.77638737 0.11215094 0.04352669
0.84237161 0.06919362 0.05564034
0.90417643 0.04817051 0.07008129
0.94599751 0.05205092 0.08372233
0.98158607 0.05511839 0.09463086
0.99479949 0.06456365 0.10354970
0.99742739 0.08057902 0.11132098
0.99864881 0.08760505 0.11698540
0.99864881 0.08761787 0.11981611
0.99864881 0.08762834 0.12234280
0.99864881 0.08763528 0.12407102
0.99864881 0.08764108 0.12558041
0.99864881 0.08764375 0.12633020
0.99864881 0.08764614 0.12703258
0.99864881 0.08764667 0.12736531
0.99864881 0.08764756 0.12769975
0.02403488 0.26357529 0.02395819
0.02393373 0.26255629 0.02386080
0.02382508 0.26144841 0.02375674
0.02372965 0.26043657 0.02366325
0.02362832 0.25934441 0.02356375
0.02421274 0.25812415 0.02345518
0.02523220 0.25669490 0.02333089
0.03425269 0.25428345 0.02321088
0.06070823 0.25056934 0.02315499
0.10615110 0.24616539 0.02327002
0.16382393 0.24016053 0.02405776
0.21852940 0.23383120 0.02478621
0.31389686 0.24812799 0.02617609
0.39745364 0.26181198 0.02778642
0.50118374 0.26104368 0.03038177
0.59944634 0.25743616 0.03362306
0.68863585 0.21939500 0.03734621
0.77306436 0.18939084 0.04119757
0.84029315 0.13663802 0.05076620
0.90263134 0.09321879 0.06345216
0.94574347 0.05203015 0.08071030
0.98144293 0.05510182 0.09300231
0.99480853 0.06456709 0.10355408
0.99743870 0.08058137 0.11132443
0.99864881 0.08760505 0.11698699
0.99864881 0.08761787 0.11981784
0.99864881 0.08762852 0.12234351
0.99864881 0.08763546 0.12407176
0.99864881 0.08764112 0.12558079
0.99864881 0.08764375 0.12633059
0.99864881 0.08764621 0.12703258
0.99864881 0.08764685 0.12736531
0.99864881 0.08764738 0.12769975
0.03017278 0.34356153 0.03008118
0.03009770 0.34279944 0.03000678
0.03000334 0.34186660 0.02991491
0.02992393 0.34112868 0.02983615
0.02983504 0.34032114 0.02974790
0.02973578 0.33941801 0.02965068
0.03028961 0.33837794 0.02954111
0.03275708 0.33681719 0.02938079
0.04413974 0.33489427 0.02923461
0.09031309 0.33215173 0.02926849
0.15110939 0.32880264 0.02948759
0.20963639 0.32418001 0.03049585
0.30136310 0.31851289 0.03207523
0.38391748 0.32903494 0.03447601
0.49095908 0.34023939 0.03706711
0.58962021 0.33896452 0.04019559
0.68106124 0.32661265 0.04284699
0.76745206 0.29602960 0.04600693
0.83661519 0.23504774 0.04772048
0.89972644 0.19131210 0.05517014
0.94420230 0.10466996 0.07296786
0.98120619 0.05506784 0.08957921
0.99469373 0.06452815 0.10157254
0.99743870 0.08058137 0.11132743
0.99864881 0.08760505 0.11699039
0.99864881 0.08761787 0.11981931
0.99864881 0.08762855 0.12234499
0.99864881 0.08763599 0.12407176
0.99864881 0.08764165 0.12558079
0.99864881 0.08764379 0.12633059
0.99864881 0.08764621 0.12703258
0.99864881 0.08764728 0.12736531
0.99864881 0.08764792 0.12769975
0.03931299 0.42573644 0.03918680
0.03923492 0.42502502 0.03910875
0.03915065 0.42424742 0.03902452
0.03907025 0.42351899 0.03894412
0.03898382 0.42272055 0.03885718
0.03888472 0.42183833 0.03875856
0.03876959 0.42080786 0.03864517
0.03990837 0.41938167 0.03848526
0.04289231 0.41742105 0.03826956
0.06031248 0.41506615 0.03815093
0.12157383 0.41076933 0.03831399
0.20229490 0.40613010 0.03883024
0.29037662 0.39918346 0.04045772
0.37068564 0.39249723 0.04217184
0.47768327 0.40675592 0.04449420
0.57860687 0.41973491 0.04653201
0.66988834 0.40651683 0.04833045
0.76052289 0.39099068 0.05023749
0.83089185 0.34812036 0.05188196
0.89587561 0.29821242 0.05312687
0.94163852 0.21028992 0.06163375
0.97987431 0.11560720 0.08222770
0.99454633 0.06733880 0.09780096
0.99729149 0.08326421 0.10891780
0.99864881 0.08760505 0.11699387
0.99864881 0.08761787 0.11982265
0.99864881 0.08762844 0.12234648
0.99864881 0.08763592 0.12407320
0.99864881 0.08764208 0.12558079
0.99864881 0.08764422 0.12633059
0.99864881 0.08764621 0.12703258
0.99864881 0.08764728 0.12736531
0.99864881 0.08764834 0.12769975
0.04824149 0.51897248 0.04814139
0.04820685 0.51852157 0.04810679
0.04815609 0.51777722 0.04805607
0.04811631 0.51725263 0.04801724
0.04806635 0.51652173 0.04796741
0.04801650 0.51582671 0.04791663
0.04795434 0.51492460 0.04785446
0.04786808 0.51372119 0.04776955
0.04860375 0.51206383 0.04765741
0.05467951 0.50998786 0.04750843
0.08573271 0.50762138 0.04742197
0.16912273 0.50428137 0.04770408
0.28096008 0.50061635 0.04838570
0.36309930 0.49466645 0.04957076
0.46250807 0.48855049 0.05124388
0.56371063 0.50026636 0.05264329
0.65841212 0.50020383 0.05404295
0.74952108 0.48827978 0.05563047
0.82300097 0.46379359 0.05707613
0.88987143 0.41650597 0.05872981
0.93752682 0.35506733 0.05935586
0.97793859 0.27590446 0.07146827
0.99369365 0.15854316 0.08935400
0.99729508 0.09519294 0.10209456
0.99864947 0.09513067 0.11164572
0.99864881 0.08761787 0.11982462
0.99864881 0.08762834 0.12234839
0.99864881 0.08763539 0.12407430
0.99864881 0.08764158 0.12558185
0.99864881 0.08764422 0.12633059
0.99864881 0.08764621 0.12703258
0.99864881 0.08764728 0.12736531
0.99864881 0.08764834 0.12769975
0.05479082 0.60926155 0.05468437
0.05476016 0.60884892 0.05465390
0.05472881 0.60842152 0.05462274
0.05469592 0.60799049 0.05459099
0.05466208 0.60754130 0.05455832
0.05462282 0.60701216 0.05451891
0.05458007 0.60642407 0.05447544
0.05451469 0.60554811 0.05441084
0.05443109 0.60441639 0.05432931
0.05897815 0.60286438 0.05422457
0.07675494 0.60067379 0.05408895
0.11695252 0.59817532 0.05414544
0.23525668 0.59474543 0.05469928
0.35527039 0.59106203 0.05541105
0.45330792 0.58489778 0.05680196
0.54873056 0.57867106 0.05834948
0.64275795 0.57860521 0.06036160
0.73834926 0.57853937 0.06266679
0.81128492 0.55618330 0.06491875
0.88264773 0.53158453 0.06726685
0.93125838 0.47915550 0.06823203
0.97388512 0.41564891 0.06870648
0.99166386 0.31656530 0.08127898
0.99626501 0.18598789 0.09607954
0.99865240 0.10633725 0.10521105
0.99864999 0.09763890 0.11387389
0.99864881 0.08762834 0.12235048
0.99864881 0.08763528 0.12407626
0.99864881 0.08764108 0.12558292
0.99864881 0.08764375 0.12633159
0.99864881 0.08764621 0.12703258
0.99864881 0.08764728 0.12736531
0.99864881 0.08764834 0.12769975
0.06362557 0.69126857 0.06342962
0.06359116 0.69104832 0.06339547
0.06353922 0.69059880 0.06334391
0.06349667 0.69033072 0.06330548
0.06344256 0.68988997 0.06325396
0.06339576 0.68955308 0.06320794
0.06333307 0.68902855 0.06314463
0.06324984 0.68840815 0.06306040
0.06313206 0.68745786 0.06294422
0.06297516 0.68623733 0.06278948
0.07030349 0.68454219 0.06259382
0.10358598 0.68218265 0.06245412
0.18629838 0.67955849 0.06272571
0.30881934 0.67574266 0.06387149
0.43514877 0.67227403 0.06594809
0.53194746 0.66628602 0.06835273
0.62605607 0.66115731 0.07122046
0.72340824 0.66109086 0.07408636
0.79951077 0.64793852 0.07676684
0.87236860 0.62392160 0.07897147
0.92592243 0.59113467 0.08090412
0.96977908 0.53672281 0.08172117
0.98990909 0.48012273 0.09733886
0.99643664 0.37597487 0.11011470
0.99873047 0.23367121 0.10913040
0.99867426 0.15531956 0.10777347
0.99866344 0.11881984 0.11643005
0.99864881 0.08763528 0.12407792
0.99864881 0.08764108 0.12558428
0.99864881 0.08764375 0.12633159
0.99864881 0.08764621 0.12703258
0.99864881 0.08764728 0.12736531
0.99864881 0.08764834 0.12769975
0.07615663 0.76918500 0.07594050
0.07612381 0.76898269 0.07590462
0.07609021 0.76878044 0.07586877
0.07604685 0.76854997 0.07582963
0.07600393 0.76833252 0.07579153
0.07595819 0.76807142 0.07574705
0.07591303 0.76781557 0.07570209
0.07583568 0.76736275 0.07562373
0.07574048 0.76681579 0.07552663
0.07559935 0.76598953 0.07538382
0.07541303 0.76492820 0.07519566
0.09933276 0.76351538 0.07507903
0.16851699 0.76162736 0.07511864
0.24652271 0.75947116 0.07562527
0.38117012 0.75678642 0.07756037
0.51439171 0.75368196 0.07956323
0.60884328 0.74845721 0.08214022
0.70737666 0.74315780 0.08471632
0.78322531 0.73175239 0.08726286
0.86062576 0.71902846 0.08969897
0.91588272 0.68633814 0.09145257
0.96373178 0.64946000 0.09298423
0.98545846 0.59899525 0.10553904
0.99508206 0.54477861 0.12429240
0.99897454 0.43420955 0.12670022
0.99875123 0.28775036 0.11190780
0.99868528 0.18448032 0.10974261
0.99866344 0.11882599 0.11782537
0.99864881 0.08764108 0.12558599
0.99864881 0.08764375 0.12633297
0.99864881 0.08764621 0.12703258
0.99864881 0.08764728 0.12736531
0.99864881 0.08764834 0.12769975
0.08772651 0.83013727 0.08752391
0.08771088 0.83005635 0.08750571
0.08767781 0.82985118 0.08747251
0.08765212 0.82974027 0.08744857
0.08761360 0.82952720 0.08741405
0.08758385 0.82938085 0.08738415
0.08754524 0.82914780 0.08734508
0.08749514 0.82889628 0.08729415
0.08741763 0.82843954 0.08721491
0.08731829 0.82791767 0.08711561
0.08717370 0.82710772 0.08697119
0.09018008 0.82606315 0.08679293
0.11482486 0.82471499 0.08669702
0.20027000 0.82285974 0.08696517
0.33969242 0.82117813 0.08833156
0.47409962 0.81834700 0.09018961
0.58285402 0.81582216 0.09241584
0.67907346 0.81027829 0.09439095
0.76653473 0.80620526 0.09637825
0.84462701 0.79225205 0.09811209
0.90573439 0.77139887 0.09993866
0.95531319 0.73821966 0.10131674
0.98349534 0.70589821 0.12081940
0.99495081 0.65411721 0.15363220
0.99923168 0.60439486 0.16225818
0.99915653 0.49875158 0.14871847
0.99888817 0.33875175 0.12418230
0.99871431 0.21256504 0.11512202
0.99868791 0.15068606 0.12353649
0.99864881 0.08764375 0.12633309
0.99864881 0.08764614 0.12703258
0.99864881 0.08764678 0.12736531
0.99864881 0.08764785 0.12769975
0.09709155 0.88731020 0.09695179
0.09708148 0.88724263 0.09693982
0.09707054 0.88716672 0.09692711
0.09705258 0.88706293 0.09691040
0.09703541 0.88697271 0.09689468
0.09701533 0.88684383 0.09687442
0.09699703 0.88673271 0.09685495
0.09696422 0.88652498 0.09682138
0.09692534 0.88629697 0.09678163
0.09686369 0.88591141 0.09672020
0.09678574 0.88547186 0.09664389
0.09894666 0.88478097 0.09654110
0.10555837 0.88393562 0.09641265
0.15386218 0.88282986 0.09650722
0.29547177 0.88168382 0.09733160
0.42851897 0.88018046 0.09830694
0.54149861 0.87827662 0.10004800
0.65117392 0.87592582 0.10187258
0.73966288 0.87209147 0.10392208
0.82825128 0.86828676 0.10550146
0.88893496 0.84732951 0.10696364
0.94717336 0.82501622 0.10845641
0.97529171 0.79093062 0.13331061
0.99310815 0.75756374 0.17672624
0.99923017 0.71624918 0.18650572
0.99922803 0.66970851 0.18116695
0.99924069 0.55221643 0.16505916
0.99896667 0.37389852 0.13387672
0.99873963 0.24302151 0.12063925
0.99868791 0.15068876 0.12425335
0.99864881 0.08764614 0.12703258
0.99864881 0.08764667 0.12736531
0.99864881 0.08764731 0.12769975
0.10499737 0.92896742 0.10488743
0.10498996 0.92893372 0.10487970
0.10498182 0.92887003 0.10487003
0.10497330 0.92883186 0.10486162
0.10495943 0.92874679 0.10484893
0.10494733 0.92869316 0.10483735
0.10493277 0.92859243 0.10482194
0.10491473 0.92850269 0.10480277
0.10488557 0.92831429 0.10477283
0.10484966 0.92812520 0.10473624
0.10479405 0.92779451 0.10468132
0.10472859 0.92742541 0.10461694
0.10756039 0.92686990 0.10452913
0.12715274 0.92613477 0.10448620
0.22651578 0.92543582 0.10487217
0.36891186 0.92436506 0.10558238
0.50189822 0.92344593 0.10696390
0.61278327 0.92160627 0.10836493
0.70809626 0.92010368 0.11000729
0.79291772 0.91641450 0.11167831
0.87195878 0.91364153 0.11351511
0.92956153 0.89001209 0.11542869
0.97084831 0.86782572 0.11709241
0.99007626 0.83641346 0.15601415
0.99915570 0.80782493 0.19968357
0.99920771 0.76948312 0.20662191
0.99919536 0.72958320 0.19994272
0.99922935 0.60743850 0.18270838
0.99910687 0.42583339 0.15192188
0.99879422 0.27556655 0.12890094
0.99871549 0.17698230 0.13161894
0.99864881 0.08764667 0.12736531
0.99864881 0.08764721 0.12769975
0.11150001 0.96590040 0.11138151
0.11149195 0.96587061 0.11137349
0.11148368 0.96583228 0.11136494
0.11147462 0.96579307 0.11135598
0.11146513 0.96575477 0.11134695
0.11145167 0.96569381 0.11133415
0.11143893 0.96564583 0.11132181
0.11141915 0.96554859 0.11130100
0.11139672 0.96545803 0.11127736
0.11135943 0.96527413 0.11123946
0.11131405 0.96509381 0.11119363
0.11125001 0.96477281 0.11113045
0.11117265 0.96446475 0.11105412
0.12897778 0.96391614 0.11102434
0.20564136 0.96342342 0.11124079
0.31277839 0.96266626 0.11172259
0.44536825 0.96199960 0.11334857
0.57410793 0.96096133 0.11511346
0.66706284 0.95966907 0.11735219
0.75792213 0.95806533 0.11985411
0.83720160 0.95549623 0.12252555
0.91260041 0.95346108 0.12540985
0.95346081 0.93117684 0.12770569
0.98655729 0.90938877 0.12977717
0.99792215 0.88353074 0.17808136
0.99922809 0.86114213 0.22157146
