public/luts/Neutral_Slog3_LUT.cube
TITLE "Netral_Slog3_LUT"
LUT_3D_SIZE 5
# MLUTS-Log3/Sony S-Gamut3.cine -> LA - Netral_Slog3_LUT/LA - Netral_Slog3_LUT, CineEI Shift 0.00, Black Level 0.99% IRE, Input 109% -> Output 100% - Created with LUTCalc v4.06 by Ben Turley February 2024
0.00098380 0.00086781 0.00076725
0.10561865 0.00475606 0.00550188
0.69914198 0.03190085 0.04613934
0.99864881 0.08760505 0.11697937
0.99864881 0.08764834 0.12769975
0.00973619 0.10643487 0.00971229
0.09160194 0.09738720 0.00993291
0.69824145 0.04680963 0.04243162
0.99864881 0.08760505 0.11698285
0.99864881 0.08764834 0.12769975
0.06362557 0.69126857 0.06342962
0.06313206 0.68745786 0.06294422
0.62605607 0.66115731 0.07122046
0.99873047 0.23367121 0.10913040
0.99864881 0.08764834 0.12769975
0.24262902 0.99992532 0.27102400
0.24192108 0.99989999 0.26982892
0.39630383 0.99988793 0.26508418
0.96918377 0.99997599 0.21258317
0.99922045 0.58522118 0.19867352
0.60509917 1.00060807 0.80850315
0.63323308 1.00064305 0.81294174
0.76832097 1.00084690 0.84015627
0.95928662 1.00129322 0.85806548
1.00121119 1.00125462 0.31832936
0.00223495 0.00195033 0.08566307
0.10217246 0.00518959 0.09087406
0.69832033 0.03201338 0.13938804
0.99864881 0.08760505 0.11698007
0.99864881 0.08764834 0.12769975
0.00875949 0.09470204 0.08800214
0.08012382 0.08159563 0.08319205
0.69474169 0.03252060 0.13468824
0.99864881 0.08760505 0.11698354
0.99864881 0.08764834 0.12769975
0.06274814 0.68561659 0.07656678
0.06229386 0.68184757 0.07411035
0.62274265 0.65720873 0.07100768
0.99873130 0.23557135 0.10917311
0.99864881 0.08764834 0.12769975
0.23583210 0.99969614 0.31112657
0.23502008 0.99966598 0.30920868
0.38802270 0.99962449 0.29755318
0.96907077 0.99978540 0.19988465
0.99922045 0.58530521 0.19869461
0.60414911 1.00061289 0.81487947
0.63234204 1.00064787 0.81913255
0.76772656 1.00085173 0.84464005
0.95974099 1.00129684 0.86554305
1.00120757 1.00125462 0.31878576
0.01545104 0.01425093 0.59732341
0.06473712 0.01447386 0.59656000
0.68055682 0.03648884 0.61455769
0.99868259 0.09377158 0.50964826
0.99864881 0.08764834 0.12769975
0.01512687 0.01433278 0.59546145
0.03889498 0.01424785 0.59489228
0.67841008 0.03637802 0.61447208
0.99868259 0.09380590 0.51101922
0.99864881 0.08764834 0.12769975
0.05885233 0.62460350 0.59914995
0.05847110 0.62056498 0.59775645
0.59087542 0.59202130 0.59328218
0.99871820 0.19215155 0.50083320
0.99864881 0.08764834 0.12769975
0.19330332 0.99923726 0.58921369
0.19242382 0.99918219 0.58876216
0.35314654 0.99922746 0.59224714
0.97013909 0.99849791 0.51481536
0.99922036 0.58593880 0.19885815
0.59803137 1.00063943 0.85096269
0.62660268 1.00067441 0.85370773
0.76396170 1.00087344 0.87417312
0.96313013 1.00131734 0.90672479
1.00128598 1.00131976 0.64937524
0.02921855 0.02798692 0.98156600
0.02922585 0.02799162 0.98162396
0.61255176 0.04618895 0.98478603
0.99880945 0.10902031 0.97072617
0.99878924 0.10745818 0.92667100
0.02915665 0.02792819 0.98075142
0.02916392 0.02793465 0.98084831
0.60294428 0.04487012 0.98420398
0.99880945 0.10902376 0.97077394
0.99878924 0.10746169 0.92676445
0.05430465 0.49008521 0.98031603
0.05400942 0.48575347 0.98031781
0.50100960 0.41574586 0.99493639
0.99874118 0.14442482 0.96776576
0.99878924 0.10748835 0.92745047
0.12264553 0.98188444 0.96885629
0.12250409 0.98160853 0.96930827
0.22669133 0.98277187 0.97506008
0.97539505 0.97016280 0.97857400
0.99922058 0.54231102 0.92239361
0.58067279 1.00071904 0.95416284
0.60978654 1.00075402 0.95492403
0.75234577 1.00094461 0.96081286
0.97304714 1.00136801 0.98261991
1.00032098 1.00142832 0.97735098
0.09268522 0.53642808 0.99868278
0.09160573 0.53277545 0.99867708
0.48460066 0.49861669 0.99872062
0.99551846 0.16615766 0.99887195
0.99882178 0.11038044 0.99883669
0.09898603 0.56132815 0.99871820
0.09827907 0.55841451 0.99871417
0.48268722 0.53817126 0.99876973
0.99426023 0.20672082 0.99892334
0.99882178 0.11038044 0.99883669
0.13795632 0.69089527 0.99912892
0.13706208 0.68885679 0.99912270
0.44011838 0.67997168 0.99917303
0.98445367 0.59118106 0.99923843
0.99882178 0.11038044 0.99883669
0.22691160 0.94541551 0.99952282
0.22716514 0.94471105 0.99953232
0.36500546 0.94115782 0.99967563
0.97015254 0.97048068 1.00086620
0.99921794 0.70376735 0.99921138
0.60583285 1.00078659 0.99473239
0.62869379 1.00081192 0.99483877
0.76277702 1.00097477 0.99566937
0.97119767 1.00115329 0.99921416
1.00000494 0.99950191 1.00030891
