public/luts/OPPENHEIMER.cube
TITLE "Generated by Resolve"
LUT_3D_SIZE 17
0.00576791 0.0149538 0.0302129
0.00576791 0.0149538 0.0302129
0.00576791 0.0149538 0.0302129
0.00581369 0.015259 0.030518
0.0481575 0.0141146 0.0485542
0.245563 0.0684672 0.0678874
0.480476 0.172976 0.134218
0.650858 0.240299 0.175189
0.795254 0.292836 0.206455
0.878859 0.32105 0.222354
0.903868 0.327413 0.226932
0.903868 0.327413 0.226932
0.903868 0.327413 0.226932
0.903868 0.327413 0.226932
0.903868 0.327413 0.226932
0.903868 0.327413 0.226932
0.903868 0.327413 0.226932
0.00576791 0.0149538 0.0302129
0.00576791 0.0149538 0.0302129
0.00576791 0.0149538 0.0302129
0.00581369 0.0151827 0.030457
0.0417945 0.0132601 0.0477302
0.191974 0.0526894 0.060502
0.442832 0.155581 0.121874
0.612253 0.225635 0.165957
0.761486 0.280461 0.199496
0.862684 0.316945 0.219501
0.903868 0.327413 0.226932
0.903868 0.327413 0.226932
0.903868 0.327413 0.226932
0.903868 0.327413 0.226932
0.903868 0.327413 0.226932
0.903868 0.327413 0.226932
0.903868 0.327413 0.226932
0.00576791 0.0149538 0.0302129
0.00576791 0.0149538 0.0302129
0.00576791 0.0149538 0.0302129
0.00576791 0.0149844 0.0302586
0.0270848 0.0130159 0.0444038
0.127367 0.0357061 0.0548867
0.407828 0.138766 0.110369
0.584848 0.215259 0.159792
0.740444 0.272999 0.195193
0.854856 0.314656 0.218051
0.903868 0.327413 0.226932
0.903868 0.327413 0.226932
0.903868 0.327413 0.226932
0.903868 0.327413 0.226932
0.903868 0.327413 0.226932
0.903868 0.327413 0.226932
0.903868 0.327413 0.226932
0.00576791 0.0149538 0.0302129
0.00576791 0.0149538 0.0302129
0.00576791 0.0149538 0.0302129
0.00576791 0.0149538 0.0302129
0.0150454 0.0142824 0.037995
0.0825513 0.0244907 0.0525521
0.370748 0.121477 0.0990768
0.562524 0.206714 0.155016
0.725597 0.267643 0.192248
0.84947 0.312856 0.217014
0.903197 0.32726 0.22681
0.903868 0.327413 0.226932
0.903868 0.327413 0.226932
0.903868 0.327413 0.226932
0.903868 0.327413 0.226932
0.903868 0.327413 0.226932
0.903868 0.327413 0.226932
0.00549325 0.0340276 0.0513619
0.00549325 0.0317693 0.0486152
0.00549325 0.0314031 0.048188
0.00549325 0.0297704 0.0462043
0.00549325 0.0249027 0.0392767
0.0584268 0.023209 0.0513313
0.29865 0.0897841 0.0790112
0.515343 0.18851 0.145693
0.68098 0.251713 0.183078
0.821759 0.302663 0.211688
0.894469 0.325032 0.225208
0.903868 0.327413 0.226932
0.903868 0.327413 0.226932
0.903868 0.327413 0.226932
0.903868 0.327413 0.226932
0.903868 0.327413 0.226932
0.903868 0.327413 0.226932
0.0219883 0.107805 0.127092
0.0200961 0.102419 0.12195
0.0206302 0.104662 0.124117
0.0207065 0.104906 0.124346
0.018265 0.0954757 0.115267
0.037705 0.0929122 0.105669
0.198123 0.109957 0.0702373
0.44358 0.193072 0.122118
0.616098 0.253742 0.163012
0.768734 0.305715 0.19646
0.868986 0.338323 0.216632
0.901564 0.343481 0.22327
0.901991 0.340246 0.224094
0.902174 0.339345 0.224353
0.902312 0.338598 0.224567
0.902342 0.337926 0.22472
0.902281 0.33875 0.224506
0.0803693 0.215274 0.229252
0.0770123 0.209247 0.223407
0.0795911 0.21387 0.227909
0.0815137 0.217319 0.23125
0.0763409 0.208103 0.222309
0.0754864 0.194018 0.207111
0.115648 0.196826 0.194629
0.365957 0.231342 0.0941176
0.542641 0.283497 0.136538
0.698711 0.334661 0.173724
0.829664 0.379904 0.19942
0.894163 0.39443 0.212894
0.89662 0.390845 0.214008
0.896895 0.388296 0.214405
0.897047 0.386572 0.214664
0.897246 0.385199 0.21474
0.897124 0.386007 0.214603
0.17026 0.329915 0.336751
0.163897 0.324498 0.332067
0.169757 0.329564 0.336461
0.174899 0.334112 0.340475
0.166476 0.326757 0.334051
0.151171 0.312779 0.321675
0.196902 0.300755 0.298589
0.298817 0.317281 0.256992
0.48217 0.349523 0.143923
0.636683 0.385382 0.147311
0.77612 0.424765 0.174472
0.869612 0.451209 0.195224
0.89456 0.451484 0.204883
0.894484 0.446296 0.205921
0.894423 0.443351 0.206516
0.894453 0.440543 0.206943
0.894484 0.441413 0.206882
0.292561 0.438102 0.431662
0.287068 0.432914 0.427039
0.293187 0.438666 0.432166
0.297368 0.442695 0.435752
0.290639 0.436255 0.43003
0.27454 0.421683 0.417197
0.298436 0.404471 0.392523
0.350515 0.406882 0.382025
0.438087 0.436851 0.299382
0.589471 0.455146 0.198505
0.73225 0.484733 0.182834
0.844968 0.511788 0.191821
0.89839 0.518853 0.199969
0.898039 0.510842 0.198642
0.897704 0.506676 0.198703
0.897368 0.502998 0.198566
0.897475 0.503853 0.198566
0.396841 0.543832 0.527596
0.391974 0.538628 0.52282
0.396292 0.543267 0.527077
0.399313 0.546593 0.530144
0.39266 0.539315 0.523445
0.378271 0.523323 0.508766
0.383001 0.504265 0.485512
0.42414 0.494316 0.465537
0.471382 0.5093 0.450706
0.547082 0.539345 0.350042
0.696727 0.548821 0.247532
0.8177 0.57731 0.222782
0.894606 0.588495 0.219379
0.907378 0.583185 0.225269
0.906538 0.577096 0.222492
0.905898 0.572427 0.220478
0.905943 0.573129 0.220783
0.481407 0.643442 0.619989
0.477272 0.638071 0.614969
0.47985 0.641398 0.618082
0.480598 0.642298 0.618906
0.474861 0.634897 0.611978
0.46183 0.617975 0.596185
0.453162 0.598032 0.575525
0.484871 0.581933 0.549752
0.520851 0.585901 0.543862
0.570397 0.604974 0.516258
0.648844 0.635584 0.39736
0.798627 0.638361 0.295659
0.892882 0.659754 0.26424
0.920241 0.662196 0.270802
0.9187 0.654047 0.265126
0.917525 0.649119 0.261875
0.917647 0.649729 0.262257
0.547341 0.73019 0.70042
0.543526 0.72517 0.695857
0.544747 0.726726 0.697246
0.544747 0.726726 0.697246
0.539406 0.719799 0.690944
0.527657 0.704173 0.676448
0.513802 0.685603 0.659113
0.540063 0.668086 0.6327
0.573617 0.663661 0.622614
0.611032 0.675792 0.615076
0.665019 0.697612 0.56997
0.74583 0.727443 0.445029
0.883925 0.724147 0.347478
0.944533 0.733074 0.324834
0.943542 0.725567 0.321172
0.941695 0.72015 0.316594
0.941848 0.720684 0.317006
0.595102 0.794018 0.759014
0.593194 0.791272 0.756512
0.593484 0.791775 0.75697
0.593317 0.791455 0.756649
0.590524 0.787625 0.75317
0.583886 0.778408 0.744717
0.572473 0.763256 0.730724
0.587045 0.747738 0.708858
0.622721 0.737804 0.692042
0.657526 0.743847 0.690867
0.698131 0.760662 0.675303
0.753841 0.784939 0.614389
0.834287 0.810575 0.490318
0.943297 0.805692 0.415717
0.96231 0.797391 0.396826
0.961654 0.792035 0.389532
0.961715 0.79234 0.390021
0.600839 0.802014 0.766476
0.600839 0.802014 0.766476
0.600839 0.802014 0.766476
0.600839 0.802014 0.766476
0.600839 0.802014 0.766476
0.600839 0.802014 0.766476
0.600839 0.802014 0.766476
0.614496 0.800397 0.760708
0.659083 0.797345 0.748226
0.695918 0.802762 0.749386
0.736919 0.819181 0.741115
0.785504 0.833265 0.718761
0.834638 0.858717 0.63975
0.904906 0.876402 0.5402
0.961334 0.871977 0.502785
0.961761 0.865522 0.493751
0.961746 0.865858 0.494179
0.600839 0.802014 0.766476
0.600839 0.802014 0.766476
0.600839 0.802014 0.766476
0.600839 0.802014 0.766476
0.600839 0.802014 0.766476
0.600839 0.802014 0.766476
0.600839 0.802014 0.766476
0.605112 0.802289 0.76556
0.649592 0.805005 0.75761
0.694911 0.814328 0.761273
0.745541 0.835706 0.769131
0.794034 0.858412 0.76614
0.846906 0.88452 0.73756
0.899138 0.912749 0.66186
0.95346 0.927626 0.603021
0.960708 0.924575 0.589746
0.960708 0.924575 0.589837
0.600839 0.802014 0.766476
0.600839 0.802014 0.766476
0.600839 0.802014 0.766476
0.600839 0.802014 0.766476
0.600839 0.802014 0.766476
0.600839 0.802014 0.766476
0.600839 0.802014 0.766476
0.602014 0.802106 0.766232
0.641093 0.804776 0.758618
0.686107 0.811353 0.759182
0.73521 0.83032 0.769909
0.780957 0.854292 0.764996
0.834745 0.877699 0.747097
0.88574 0.907759 0.686595
0.941146 0.930831 0.622858
0.962127 0.935363 0.610269
0.962127 0.935363 0.610269
0.600839 0.802014 0.766476
0.600839 0.802014 0.766476
0.600839 0.802014 0.766476
0.600839 0.802014 0.766476
0.600839 0.802014 0.766476
0.600839 0.802014 0.766476
0.600839 0.802014 0.766476
0.602472 0.802106 0.766125
0.641932 0.804761 0.758511
0.687007 0.811627 0.759365
0.735988 0.830747 0.769802
0.781811 0.854551 0.765011
0.835416 0.878065 0.746624
0.886488 0.908141 0.68542
0.941772 0.930968 0.622522
0.962127 0.935363 0.610269
0.962127 0.935363 0.610269
0.00576791 0.0149538 0.0302129
0.00576791 0.0149538 0.0302129
0.00576791 0.0149538 0.0302129
0.00581369 0.015259 0.030518
0.0489815 0.0142519 0.0486915
0.244846 0.0682078 0.0677195
0.479026 0.172335 0.133715
0.648646 0.239429 0.174624
0.793042 0.291981 0.205997
0.877638 0.320775 0.222141
0.903868 0.327413 0.226932
0.903868 0.327413 0.226932
0.903868 0.327413 0.226932
0.903868 0.327413 0.226932
0.903868 0.327413 0.226932
0.903868 0.327413 0.226932
0.903868 0.327413 0.226932
0.00576791 0.0149538 0.0302129
0.00576791 0.0149538 0.0302129
0.00576791 0.0149538 0.0302129
0.00581369 0.0151827 0.030457
0.0411536 0.0131838 0.047715
0.187869 0.0515602 0.0599832
0.440009 0.154253 0.120882
0.609659 0.224659 0.165347
0.758755 0.279484 0.198947
0.861479 0.316594 0.219226
0.903868 0.327413 0.226932
0.903868 0.327413 0.226932
0.903868 0.327413 0.226932
0.903868 0.327413 0.226932
0.903868 0.327413 0.226932
0.903868 0.327413 0.226932
0.903868 0.327413 0.226932
0.00576791 0.0149538 0.0302129
0.00576791 0.0149538 0.0302129
0.00576791 0.0149538 0.0302129
0.00576791 0.0149844 0.0302586
0.0262913 0.0130465 0.0442969
0.123018 0.034699 0.0546578
0.404578 0.137194 0.109361
0.581888 0.214099 0.159136
0.738018 0.272084 0.19472
0.853559 0.314214 0.217777
0.903868 0.327413 0.226932
0.903868 0.327413 0.226932
0.903868 0.327413 0.226932
0.903868 0.327413 0.226932
0.903868 0.327413 0.226932
0.903868 0.327413 0.226932
0.903868 0.327413 0.226932
0.00576791 0.0149538 0.0302129
0.00576791 0.0149538 0.0302129
0.00576791 0.0149538 0.0302129
0.00576791 0.0149538 0.0302129
0.0146029 0.0142824 0.037583
0.0812695 0.0240635 0.0523537
0.367437 0.119844 0.0980697
0.560128 0.205859 0.154482
0.723507 0.26688 0.191806
0.84831 0.31252 0.216754
0.902907 0.327199 0.226673
0.903868 0.327413 0.226932
0.903868 0.327413 0.226932
0.903868 0.327413 0.226932
0.903868 0.327413 0.226932
0.903868 0.327413 0.226932
0.903868 0.327413 0.226932
0.00549325 0.0334783 0.0506905
0.00549325 0.03122 0.0479744
0.00549325 0.0307774 0.0474403
0.00549325 0.0291447 0.0454566
0.00549325 0.0243534 0.0386664
0.0576181 0.0224765 0.0511482
0.295354 0.0878462 0.0779889
0.513298 0.187625 0.145068
0.679347 0.251087 0.182742
0.820478 0.302159 0.211398
0.893889 0.324895 0.225101
0.903868 0.327413 0.226932
0.903868 0.327413 0.226932
0.903868 0.327413 0.226932
0.903868 0.327413 0.226932
0.903868 0.327413 0.226932
0.903868 0.327413 0.226932
0.0212863 0.106325 0.125704
0.0196689 0.100771 0.120333
0.0203098 0.103151 0.122621
0.0203555 0.10341 0.122911
0.0180209 0.0943008 0.114122
0.0371099 0.0916457 0.104463
0.195056 0.108385 0.0699321
0.441917 0.191913 0.121843
0.614572 0.252537 0.162814
0.767727 0.304738 0.196368
0.868498 0.337514 0.216678
0.901686 0.342809 0.223453
0.902129 0.339574 0.224277
0.902296 0.338674 0.224537
0.902342 0.337926 0.22472
0.902449 0.337362 0.224826
0.902327 0.338064 0.224674
0.0796674 0.213993 0.228016
0.0761578 0.207706 0.221927
0.0784619 0.211948 0.226062
0.0804761 0.215534 0.229541
0.0753185 0.206302 0.220584
0.0744335 0.192355 0.205554
0.113069 0.195026 0.193408
0.363592 0.229358 0.0939803
0.541238 0.281941 0.136553
0.697429 0.333135 0.173541
0.828748 0.378607 0.199374
0.893278 0.393332 0.21268
0.896742 0.389944 0.21416
0.897002 0.387564 0.214557
0.897169 0.385748 0.214862
0.897292 0.384176 0.214984
0.897169 0.385 0.214786
0.168658 0.328557 0.335576
0.161654 0.322713 0.330571
0.167727 0.327749 0.33489
0.172763 0.332174 0.33875
0.164675 0.32517 0.332662
0.149432 0.311177 0.320241
0.193973 0.298955 0.2972
0.297078 0.31516 0.255039
0.480171 0.347326 0.143069
0.635157 0.383597 0.146914
0.774823 0.423133 0.174456
0.868986 0.449836 0.195346
0.894514 0.450401 0.205112
0.894453 0.445045 0.206165
0.894423 0.442115 0.206699
0.894453 0.439323 0.207111
0.894484 0.440192 0.207034
0.291539 0.437186 0.430854
0.285313 0.431327 0.42565
0.291112 0.436713 0.430426
0.295705 0.441093 0.434302
0.288777 0.434531 0.428473
0.272953 0.420188 0.415885
0.296117 0.402914 0.391363
0.347723 0.404807 0.380255
0.435981 0.434791 0.298283
0.587152 0.453025 0.197131
0.73022 0.482795 0.181994
0.843641 0.510002 0.191318
0.897566 0.517235 0.199115
0.897932 0.509606 0.198642
0.897581 0.505364 0.198611
0.897261 0.501488 0.198505
0.897353 0.502251 0.19855
0.395743 0.542687 0.526558
0.390509 0.536995 0.521324
0.394675 0.541527 0.525475
0.397421 0.544533 0.528252
0.391196 0.537697 0.52195
0.376638 0.521569 0.507179
0.380667 0.502647 0.484215
0.421942 0.492622 0.464027
0.468925 0.507149 0.449042
0.544686 0.537179 0.348318
0.694484 0.546838 0.246464
0.815427 0.575326 0.22211
0.89369 0.586908 0.218769
0.907164 0.581552 0.224537
0.906325 0.575479 0.221775
0.905562 0.570596 0.219776
0.905715 0.571405 0.220081
0.480644 0.642405 0.619013
0.476036 0.636484 0.613458
0.478325 0.639445 0.616251
0.479362 0.640711 0.617411
0.473518 0.633173 0.610361
0.46067 0.616449 0.594751
0.451072 0.596445 0.574228
0.482872 0.580026 0.548043
0.518883 0.583932 0.542275
0.567971 0.602945 0.514824
0.646586 0.633402 0.395804
0.796292 0.636255 0.294545
0.890715 0.657603 0.263172
0.919997 0.660624 0.269718
0.918318 0.652399 0.263966
0.917021 0.647105 0.260502
0.917174 0.647807 0.26099
0.546395 0.728969 0.699321
0.542275 0.723507 0.694331
0.543435 0.725048 0.695705
0.543404 0.725063 0.69575
0.538323 0.718334 0.689601
0.526619 0.702831 0.675227
0.512871 0.684245 0.657816
0.537987 0.666514 0.631464
0.571359 0.661631 0.620813
0.609018 0.673762 0.613352
0.66305 0.695415 0.568078
0.743618 0.725139 0.443061
0.882322 0.721965 0.345769
0.943786 0.731472 0.323415
0.942885 0.72372 0.3196
0.941146 0.718425 0.315053
0.941268 0.718868 0.315435
0.59469 0.793423 0.758465
0.592554 0.790433 0.755749
0.592752 0.790738 0.756024
0.592599 0.790539 0.75584
0.589914 0.786709 0.752331
0.583368 0.777676 0.74406
0.571527 0.762051 0.729641
0.585153 0.746197 0.707668
0.620966 0.736156 0.690608
0.655604 0.741787 0.689723
0.695842 0.758572 0.674846
0.751614 0.783017 0.614008
0.832258 0.808469 0.48896
0.942321 0.803906 0.41355
0.962112 0.795712 0.394568
0.961456 0.790066 0.386709
0.961456 0.790356 0.387228
0.600839 0.802014 0.766476
0.600839 0.802014 0.766476
0.600839 0.802014 0.766476
0.600839 0.802014 0.766476
0.600839 0.802014 0.766476
0.600839 0.802014 0.766476
0.600839 0.802014 0.766476
0.613748 0.80029 0.760784
0.657389 0.796521 0.7476
0.694392 0.801541 0.748287
0.734997 0.817426 0.7402
0.783078 0.831357 0.717601
0.832639 0.856992 0.638651
0.903319 0.874891 0.537575
0.96144 0.870207 0.500221
0.961761 0.863798 0.491279
0.961761 0.864027 0.49163
0.600839 0.802014 0.766476
0.600839 0.802014 0.766476
0.600839 0.802014 0.766476
0.600839 0.802014 0.766476
0.600839 0.802014 0.766476
0.600839 0.802014 0.766476
0.600839 0.802014 0.766476
0.604364 0.802289 0.765759
0.64863 0.805005 0.757748
0.694011 0.813993 0.761044
0.744518 0.835248 0.769192
0.793088 0.858152 0.766018
0.846082 0.883955 0.738552
0.897978 0.912139 0.663233
0.952865 0.926741 0.601968
0.960647 0.923354 0.587625
0.960632 0.923461 0.587793
0.600839 0.802014 0.766476
0.600839 0.802014 0.766476
0.600839 0.802014 0.766476
0.600839 0.802014 0.766476
0.600839 0.802014 0.766476
0.600839 0.802014 0.766476
0.600839 0.802014 0.766476
0.601205 0.802014 0.7664
0.639826 0.804715 0.75877
0.684977 0.811048 0.758999
0.733806 0.829511 0.770077
0.779263 0.853773 0.764935
0.833356 0.87686 0.748135
0.884169 0.906935 0.689281
0.939452 0.930343 0.623713
0.962127 0.935363 0.610269
0.962127 0.935363 0.610269
0.600839 0.802014 0.766476
0.600839 0.802014 0.766476
0.600839 0.802014 0.766476
0.600839 0.802014 0.766476
0.600839 0.802014 0.766476
0.600839 0.802014 0.766476
0.600839 0.802014 0.766476
0.601831 0.802106 0.766293
0.640757 0.804776 0.758679
0.68574 0.811231 0.759121
0.734691 0.83006 0.770001
0.780118 0.854032 0.764935
0.834058 0.877317 0.747677
0.884825 0.907301 0.688273
0.940093 0.93048 0.623377
0.962127 0.935363 0.610269
0.962127 0.935363 0.610269
0.00576791 0.0149538 0.0302129
0.00576791 0.0149538 0.0302129
0.00576791 0.0149538 0.0302129
0.00581369 0.015259 0.0305333
0.0486305 0.0141909 0.0486763
0.241642 0.0672007 0.0672007
0.47686 0.171359 0.133013
0.646784 0.238743 0.174136
0.791272 0.291371 0.205646
0.876844 0.320516 0.221942
0.903868 0.327413 0.226932
0.903868 0.327413 0.226932
0.903868 0.327413 0.226932
0.903868 0.327413 0.226932
0.903868 0.327413 0.226932
0.903868 0.327413 0.226932
0.903868 0.327413 0.226932
0.00576791 0.0149538 0.0302129
0.00576791 0.0149538 0.0302129
0.00576791 0.0149538 0.0302129
0.00579843 0.0151369 0.0304265
0.039826 0.0129702 0.0474708
0.181872 0.0499123 0.0594339
0.437064 0.152834 0.119936
0.607172 0.223713 0.164767
0.756924 0.278798 0.19855
0.860777 0.316426 0.219104
0.903868 0.327413 0.226932
0.903868 0.327413 0.226932
0.903868 0.327413 0.226932
0.903868 0.327413 0.226932
0.903868 0.327413 0.226932
0.903868 0.327413 0.226932
0.903868 0.327413 0.226932
0.00576791 0.0149538 0.0302129
0.00576791 0.0149538 0.0302129
0.00576791 0.0149538 0.0302129
0.00576791 0.0149538 0.0302129
0.0252842 0.0130159 0.0440986
0.119463 0.0338293 0.0544442
0.402029 0.135973 0.108568
0.580819 0.213672 0.158907
0.73756 0.271901 0.194675
0.853559 0.314214 0.217777
0.903777 0.327382 0.226917
0.903868 0.327413 0.226932
0.903868 0.327413 0.226932
0.903868 0.327413 0.226932
0.903868 0.327413 0.226932
0.903868 0.327413 0.226932
0.903868 0.327413 0.226932
0.00576791 0.0149538 0.0302129
0.00576791 0.0149538 0.0302129
0.00576791 0.0149538 0.0302129
0.00576791 0.0149538 0.0302129
0.0142519 0.014374 0.0373693
0.0810712 0.0239414 0.0523537
0.367605 0.119905 0.0981003
0.560616 0.205966 0.154635
0.724437 0.267231 0.192004
0.849042 0.312749 0.216938
0.902998 0.327214 0.226688
0.903868 0.327413 0.226932
0.903868 0.327413 0.226932
0.903868 0.327413 0.226932
0.903868 0.327413 0.226932
0.903868 0.327413 0.226932
0.903868 0.327413 0.226932
0.00549325 0.033402 0.0505989
0.00549325 0.0310369 0.0477455
0.00549325 0.0308537 0.0475166
0.00549325 0.0294194 0.0458228
0.00549325 0.0247959 0.0391394
0.0581369 0.0231785 0.0513466
0.297887 0.0888228 0.0786297
0.51487 0.188266 0.145541
0.681346 0.251804 0.183154
0.82208 0.3028 0.211734
0.894759 0.325093 0.225269
0.903868 0.327413 0.226932
0.903868 0.327413 0.226932
0.903868 0.327413 0.226932
0.903868 0.327413 0.226932
0.903868 0.327413 0.226932
0.903868 0.327413 0.226932
0.0217746 0.107393 0.126726
0.0199283 0.101762 0.121294
0.0205386 0.104173 0.123644
0.0207218 0.104784 0.124224
0.0183566 0.0955978 0.115389
0.0383612 0.0934768 0.105959
0.198245 0.110307 0.0702373
0.444144 0.193744 0.122332
0.617243 0.254322 0.163317
0.770031 0.306355 0.19675
0.869657 0.33872 0.216678
0.901534 0.343633 0.223224
0.901946 0.340475 0.224002
0.902144 0.339498 0.224308
0.902281 0.33875 0.224506
0.902342 0.337926 0.22472
0.902281 0.33875 0.224506
0.0806592 0.215778 0.22974
0.0770428 0.209384 0.22356
0.0795148 0.213733 0.227771
0.0814832 0.217319 0.23125
0.0764935 0.208362 0.222553
0.0759594 0.194522 0.207584
0.115114 0.197574 0.195773
0.367086 0.231891 0.0941939
0.54406 0.284276 0.136843
0.700343 0.335256 0.17406
0.830488 0.38024 0.199603
0.893233 0.394232 0.212619
0.896635 0.390753 0.214038
0.896895 0.388296 0.214481
0.897063 0.386481 0.214771
0.897215 0.384741 0.214969
0.897185 0.385672 0.214832
0.171313 0.330938 0.337697
0.164172 0.324712 0.33225
0.169924 0.329671 0.336553
0.175219 0.33434 0.340673
0.16701 0.327199 0.334417
0.152895 0.313283 0.321874
0.197513 0.301091 0.298833
0.300099 0.317891 0.256413
0.482643 0.349813 0.14435
0.637583 0.385657 0.147417
0.776776 0.424903 0.174609
0.86981 0.450904 0.1953
0.89456 0.451225 0.204944
0.894408 0.445838 0.205966
0.894392 0.442618 0.206683
0.89453 0.439673 0.207126
0.894453 0.440543 0.206943
0.293843 0.439368 0.432807
0.28751 0.433387 0.427482
0.293217 0.438804 0.432303
0.297749 0.443046 0.436057
0.290867 0.436484 0.430228
0.274693 0.421805 0.417304
0.298344 0.404685 0.392798
0.35021 0.406851 0.382071
0.43772 0.436469 0.298955
0.589044 0.454536 0.197711
0.731853 0.483955 0.182483
0.844556 0.51104 0.191623
0.89752 0.517968 0.199344
0.897948 0.510262 0.198672
0.897597 0.505913 0.198688
0.897261 0.501945 0.198535
0.897368 0.502815 0.198535
0.397635 0.544762 0.52845
0.392294 0.538842 0.522988
0.396155 0.543145 0.526955
0.399084 0.546258 0.529809
0.392462 0.539101 0.523247
0.37792 0.522972 0.508446
0.382071 0.503929 0.485344
0.423316 0.493797 0.465095
0.470192 0.508324 0.45008
0.545892 0.538262 0.349264
0.695811 0.547921 0.246983
0.816571 0.576318 0.222553
0.894118 0.587655 0.219394
0.90721 0.582162 0.224842
0.906371 0.576181 0.22208
0.905684 0.571115 0.219898
0.905745 0.571817 0.220188
0.481697 0.643778 0.620295
0.477073 0.637736 0.614618
0.47924 0.640589 0.617304
0.480156 0.641718 0.618341
0.474342 0.634302 0.611444
0.461418 0.61738 0.595605
0.452125 0.597482 0.575158
0.483772 0.581094 0.54905
0.519677 0.584772 0.542992
0.568917 0.603769 0.515526
0.647517 0.634256 0.396414
0.79704 0.637003 0.29514
0.891096 0.658198 0.263615
0.920073 0.661158 0.270008
0.918441 0.65301 0.264454
0.917174 0.647807 0.26099
0.917372 0.648325 0.261265
0.547021 0.72987 0.70016
0.542931 0.724376 0.695109
0.543847 0.725612 0.696254
0.544015 0.725841 0.696452
0.538842 0.719112 0.690333
0.52723 0.703731 0.676081
0.513634 0.685039 0.658518
0.538827 0.667308 0.632136
0.572229 0.662455 0.62153
0.609689 0.674449 0.614023
0.663813 0.696269 0.568704
0.74464 0.725841 0.443946
0.882811 0.722606 0.346258
0.943893 0.731945 0.324041
0.943069 0.724361 0.320241
0.941238 0.718776 0.315312
0.941375 0.719142 0.315694
0.594919 0.793835 0.758877
0.592706 0.790646 0.755947
0.593011 0.79115 0.75639
0.59292 0.790951 0.756222
0.590234 0.787137 0.752712
0.58378 0.778103 0.744411
0.572 0.762722 0.730266
0.58584 0.746975 0.708354
0.621485 0.736721 0.691112
0.656184 0.742428 0.690089
0.696513 0.759182 0.674983
0.752239 0.78352 0.61387
0.833021 0.808942 0.489494
0.942336 0.804257 0.414481
0.962127 0.796094 0.395132
0.961456 0.790341 0.387121
0.961517 0.790646 0.387503
0.600839 0.802014 0.766476
0.600839 0.802014 0.766476
0.600839 0.802014 0.766476
0.600839 0.802014 0.766476
0.600839 0.802014 0.766476
0.600839 0.802014 0.766476
0.600839 0.802014 0.766476
0.614389 0.800992 0.76141
0.657801 0.796704 0.747738
0.694865 0.801968 0.748699
0.735332 0.817761 0.740429
0.783795 0.831922 0.718059
0.833082 0.857435 0.638972
0.903655 0.875303 0.537865
0.961349 0.870542 0.500786
0.961685 0.864134 0.491646
0.961669 0.864256 0.491814
0.600839 0.802014 0.766476
0.600839 0.802014 0.766476
0.600839 0.802014 0.766476
0.600839 0.802014 0.766476
0.600839 0.802014 0.766476
0.600839 0.802014 0.766476
0.600839 0.802014 0.766476
0.604944 0.802274 0.765576
0.648737 0.805005 0.757717
0.694011 0.813993 0.761044
0.744671 0.835294 0.769192
0.793194 0.858152 0.766003
0.846326 0.884123 0.738293
0.898711 0.913054 0.664393
0.953155 0.927001 0.602167
0.960616 0.923659 0.588129
0.960616 0.923659 0.58822
0.600839 0.802014 0.766476
0.600839 0.802014 0.766476
0.600839 0.802014 0.766476
0.600839 0.802014 0.766476
0.600839 0.802014 0.766476
0.600839 0.802014 0.766476
0.600839 0.802014 0.766476
0.600839 0.802014 0.766476
0.639719 0.804715 0.758785
0.684901 0.811032 0.758999
0.733669 0.829465 0.770123
0.779263 0.853773 0.764935
0.833204 0.876814 0.748302
0.88397 0.906798 0.689555
0.9393 0.930327 0.62385
0.962127 0.935363 0.610269
0.962127 0.935363 0.610269
0.600839 0.802014 0.766476
0.600839 0.802014 0.766476
0.600839 0.802014 0.766476
0.600839 0.802014 0.766476
0.600839 0.802014 0.766476
0.600839 0.802014 0.766476
0.600839 0.802014 0.766476
0.601205 0.802014 0.7664
0.64065 0.804776 0.758709
0.685588 0.811215 0.759121
0.734447 0.829892 0.770031
0.780026 0.854032 0.76495
0.833875 0.87718 0.747738
0.884703 0.907195 0.688487
0.939864 0.930465 0.623545
0.962127 0.935363 0.610269
0.962127 0.935363 0.610269
0.00549325 0.0173342 0.0349889
0.00549325 0.0168612 0.0341802
0.00549325 0.0162051 0.0330053
0.00549325 0.0164492 0.033051
0.0475624 0.0141909 0.0493019
0.235904 0.0653849 0.066331
0.472892 0.169512 0.131701
0.64213 0.236957 0.173037
0.787289 0.289845 0.204791
0.875013 0.320104 0.221622
0.903868 0.327413 0.226932
0.903868 0.327413 0.226932
0.903868 0.327413 0.226932
