public/luts/OPPENHEIMER.cube
TITLE "Generated by Resolve"
LUT_3D_SIZE 9
0.00576791 0.0149538 0.0302129
0.00576791 0.0149538 0.0302129
0.0481575 0.0141146 0.0485542
0.480476 0.172976 0.134218
0.795254 0.292836 0.206455
0.903868 0.327413 0.226932
0.903868 0.327413 0.226932
0.903868 0.327413 0.226932
0.903868 0.327413 0.226932
0.00576791 0.0149538 0.0302129
0.00576791 0.0149538 0.0302129
0.0270848 0.0130159 0.0444038
0.407828 0.138766 0.110369
0.740444 0.272999 0.195193
0.903868 0.327413 0.226932
0.903868 0.327413 0.226932
0.903868 0.327413 0.226932
0.903868 0.327413 0.226932
0.00549325 0.0340276 0.0513619
0.00549325 0.0314031 0.048188
0.00549325 0.0249027 0.0392767
0.29865 0.0897841 0.0790112
0.68098 0.251713 0.183078
0.894469 0.325032 0.225208
0.903868 0.327413 0.226932
0.903868 0.327413 0.226932
0.903868 0.327413 0.226932
0.0803693 0.215274 0.229252
0.0795911 0.21387 0.227909
0.0763409 0.208103 0.222309
0.115648 0.196826 0.194629
0.542641 0.283497 0.136538
0.829664 0.379904 0.19942
0.89662 0.390845 0.214008
0.897047 0.386572 0.214664
0.897124 0.386007 0.214603
0.292561 0.438102 0.431662
0.293187 0.438666 0.432166
0.290639 0.436255 0.43003
0.298436 0.404471 0.392523
0.438087 0.436851 0.299382
0.73225 0.484733 0.182834
0.89839 0.518853 0.199969
0.897704 0.506676 0.198703
0.897475 0.503853 0.198566
0.481407 0.643442 0.619989
0.47985 0.641398 0.618082
0.474861 0.634897 0.611978
0.453162 0.598032 0.575525
0.520851 0.585901 0.543862
0.648844 0.635584 0.39736
0.892882 0.659754 0.26424
0.9187 0.654047 0.265126
0.917647 0.649729 0.262257
0.595102 0.794018 0.759014
0.593484 0.791775 0.75697
0.590524 0.787625 0.75317
0.572473 0.763256 0.730724
0.622721 0.737804 0.692042
0.698131 0.760662 0.675303
0.834287 0.810575 0.490318
0.96231 0.797391 0.396826
0.961715 0.79234 0.390021
0.600839 0.802014 0.766476
0.600839 0.802014 0.766476
0.600839 0.802014 0.766476
0.600839 0.802014 0.766476
0.649592 0.805005 0.75761
0.745541 0.835706 0.769131
0.846906 0.88452 0.73756
0.95346 0.927626 0.603021
0.960708 0.924575 0.589837
0.600839 0.802014 0.766476
0.600839 0.802014 0.766476
0.600839 0.802014 0.766476
0.600839 0.802014 0.766476
0.641932 0.804761 0.758511
0.735988 0.830747 0.769802
0.835416 0.878065 0.746624
0.941772 0.930968 0.622522
0.962127 0.935363 0.610269
0.00576791 0.0149538 0.0302129
0.00576791 0.0149538 0.0302129
0.0486305 0.0141909 0.0486763
0.47686 0.171359 0.133013
0.791272 0.291371 0.205646
0.903868 0.327413 0.226932
0.903868 0.327413 0.226932
0.903868 0.327413 0.226932
0.903868 0.327413 0.226932
0.00576791 0.0149538 0.0302129
0.00576791 0.0149538 0.0302129
0.0252842 0.0130159 0.0440986
0.402029 0.135973 0.108568
0.73756 0.271901 0.194675
0.903777 0.327382 0.226917
0.903868 0.327413 0.226932
0.903868 0.327413 0.226932
0.903868 0.327413 0.226932
0.00549325 0.033402 0.0505989
0.00549325 0.0308537 0.0475166
0.00549325 0.0247959 0.0391394
0.297887 0.0888228 0.0786297
0.681346 0.251804 0.183154
0.894759 0.325093 0.225269
0.903868 0.327413 0.226932
0.903868 0.327413 0.226932
0.903868 0.327413 0.226932
0.0806592 0.215778 0.22974
0.0795148 0.213733 0.227771
0.0764935 0.208362 0.222553
0.115114 0.197574 0.195773
0.54406 0.284276 0.136843
0.830488 0.38024 0.199603
0.896635 0.390753 0.214038
0.897063 0.386481 0.214771
0.897185 0.385672 0.214832
0.293843 0.439368 0.432807
0.293217 0.438804 0.432303
0.290867 0.436484 0.430228
0.298344 0.404685 0.392798
0.43772 0.436469 0.298955
0.731853 0.483955 0.182483
0.89752 0.517968 0.199344
0.897597 0.505913 0.198688
0.897368 0.502815 0.198535
0.481697 0.643778 0.620295
0.47924 0.640589 0.617304
0.474342 0.634302 0.611444
0.452125 0.597482 0.575158
0.519677 0.584772 0.542992
0.647517 0.634256 0.396414
0.891096 0.658198 0.263615
0.918441 0.65301 0.264454
0.917372 0.648325 0.261265
0.594919 0.793835 0.758877
0.593011 0.79115 0.75639
0.590234 0.787137 0.752712
0.572 0.762722 0.730266
0.621485 0.736721 0.691112
0.696513 0.759182 0.674983
0.833021 0.808942 0.489494
0.962127 0.796094 0.395132
0.961517 0.790646 0.387503
0.600839 0.802014 0.766476
0.600839 0.802014 0.766476
0.600839 0.802014 0.766476
0.600839 0.802014 0.766476
0.648737 0.805005 0.757717
0.744671 0.835294 0.769192
0.846326 0.884123 0.738293
0.953155 0.927001 0.602167
0.960616 0.923659 0.58822
0.600839 0.802014 0.766476
0.600839 0.802014 0.766476
0.600839 0.802014 0.766476
0.600839 0.802014 0.766476
0.64065 0.804776 0.758709
0.734447 0.829892 0.770031
0.833875 0.87718 0.747738
0.939864 0.930465 0.623545
0.962127 0.935363 0.610269
0.00549325 0.0360723 0.0670024
0.00549325 0.0343633 0.0641489
0.0224155 0.045304 0.0971084
0.467247 0.149325 0.136934
0.779736 0.285985 0.210498
0.903868 0.327413 0.226932
0.903868 0.327413 0.226932
0.903868 0.327413 0.226932
0.903868 0.327413 0.226932
0.00549325 0.0301213 0.0570535
0.00549325 0.0276799 0.052903
0.010605 0.0287175 0.0591592
0.390585 0.125551 0.108766
0.730007 0.26923 0.193164
0.903685 0.327367 0.226886
0.903868 0.327413 0.226932
0.903868 0.327413 0.226932
0.903868 0.327413 0.226932
0.00549325 0.0327306 0.0517586
0.00549325 0.0304723 0.0487373
0.00549325 0.0239719 0.0391546
0.291539 0.0856336 0.0767834
0.678752 0.250874 0.182559
0.893889 0.324895 0.225101
0.903868 0.327413 0.226932
0.903868 0.327413 0.226932
0.903868 0.327413 0.226932
0.0793317 0.213352 0.22739
0.0784314 0.21181 0.22591
0.0757763 0.207065 0.221302
0.113985 0.197086 0.195544
0.54406 0.284184 0.136797
0.830518 0.37998 0.199634
0.896696 0.390265 0.214099
0.897154 0.385824 0.214908
0.897231 0.384665 0.215
0.293416 0.438895 0.432364
0.29279 0.438331 0.431861
0.290486 0.436149 0.429923
0.298085 0.404562 0.392721
0.437354 0.436072 0.298711
0.73077 0.482979 0.182025
0.897276 0.516899 0.198932
0.89749 0.504875 0.198672
0.897261 0.501488 0.198505
0.480308 0.641962 0.618601
0.477867 0.63888 0.615732
0.473228 0.632822 0.610056
0.450721 0.596338 0.574182
0.51838 0.583444 0.541863
0.64567 0.632685 0.39527
0.889586 0.65658 0.262806
0.91809 0.65156 0.263539
0.916899 0.64651 0.260121
0.594079 0.792508 0.757641
0.592218 0.789914 0.755245
0.589593 0.786297 0.751949
0.571099 0.761624 0.72929
0.619806 0.735088 0.689662
0.694453 0.757229 0.674525
0.831174 0.806973 0.488487
0.961944 0.794522 0.393027
0.961257 0.788663 0.384802
0.600839 0.802014 0.766476
0.600839 0.802014 0.766476
0.600839 0.802014 0.766476
0.600839 0.802014 0.766476
0.647593 0.804944 0.757839
0.743709 0.834852 0.769223
0.844984 0.883085 0.738506
0.951888 0.925841 0.601038
0.960662 0.922133 0.585351
0.600839 0.802014 0.766476
0.600839 0.802014 0.766476
0.600839 0.802014 0.766476
0.600839 0.802014 0.766476
0.6392 0.804715 0.758846
0.732967 0.829068 0.770245
0.832349 0.876295 0.748867
0.938094 0.929976 0.624399
0.962127 0.935363 0.610269
0.00549325 0.172366 0.245945
0.00549325 0.174807 0.24892
0.00549325 0.18323 0.256626
0.414267 0.159411 0.390967
0.75761 0.271778 0.350805
0.916899 0.292195 0.324132
0.917861 0.286748 0.305608
0.918059 0.285115 0.29836
0.917967 0.286564 0.305043
0.00549325 0.157549 0.227985
0.00549325 0.148836 0.217365
0.00549325 0.143328 0.208972
0.330037 0.132174 0.336233
0.713985 0.244877 0.299062
0.917662 0.284703 0.294865
0.917586 0.283253 0.283818
0.917449 0.282979 0.281422
0.917586 0.283406 0.285237
0.00549325 0.121492 0.181537
0.00549325 0.117586 0.176883
0.00549325 0.109102 0.166888
0.2327 0.106508 0.279789
0.668284 0.222293 0.261997
0.901366 0.282673 0.275181
0.9149 0.290013 0.273167
0.914687 0.290761 0.272404
0.91487 0.290318 0.272862
0.0249638 0.228962 0.268772
0.0243534 0.227756 0.267567
0.0222324 0.223331 0.262974
0.0773175 0.199252 0.225788
0.51368 0.266423 0.215549
0.819471 0.365225 0.250248
0.898192 0.38056 0.254231
0.898573 0.375921 0.250294
0.898711 0.374655 0.249027
0.268482 0.434821 0.439368
0.268452 0.434195 0.438437
0.266377 0.43183 0.436057
0.273136 0.395895 0.392294
0.419043 0.418662 0.308888
0.715831 0.467231 0.183047
0.894224 0.506447 0.198047
0.896788 0.495277 0.198032
0.896452 0.491707 0.197574
0.466682 0.631388 0.612467
0.464973 0.627909 0.608545
0.460716 0.6215 0.601999
0.434836 0.583627 0.563806
0.504005 0.567742 0.531258
0.629496 0.617395 0.38555
0.877882 0.644511 0.256718
0.915801 0.64065 0.256443
0.915053 0.635142 0.253162
0.588693 0.785061 0.75082
0.587091 0.782773 0.748714
0.584375 0.779034 0.745281
0.56321 0.751171 0.719646
0.606378 0.723308 0.679484
0.681483 0.744488 0.662745
0.818357 0.7953 0.482643
0.960357 0.784817 0.380255
0.95874 0.778912 0.373587
0.600839 0.802014 0.766476
0.600839 0.802014 0.766476
0.600839 0.802014 0.766476
0.600839 0.802014 0.766476
0.642969 0.804837 0.758404
0.739162 0.832486 0.769512
0.839261 0.879377 0.740398
0.946715 0.919432 0.593088
0.960632 0.915206 0.572778
0.600839 0.802014 0.766476
0.600839 0.802014 0.766476
0.600839 0.802014 0.766476
0.600839 0.802014 0.766476
0.63447 0.80441 0.759731
0.727245 0.826398 0.769848
0.827115 0.873137 0.752636
0.932174 0.928405 0.627771
0.962127 0.935363 0.610269
0.00549325 0.320592 0.433814
0.00549325 0.322606 0.436515
0.00549325 0.32282 0.43592
0.272435 0.34725 0.525399
0.711986 0.275914 0.644404
0.916167 0.312383 0.641428
0.916106 0.309621 0.615839
0.916045 0.308385 0.604837
0.915938 0.309438 0.613306
0.00549325 0.309453 0.418677
0.00549325 0.302647 0.409567
0.00549325 0.294896 0.39881
0.187854 0.329015 0.448081
0.667491 0.259251 0.60795
0.909926 0.308064 0.612726
0.915633 0.308354 0.593317
0.915465 0.308644 0.588464
0.915694 0.308293 0.593866
0.00549325 0.272419 0.368811
0.00549325 0.270253 0.366125
0.00549325 0.263355 0.357656
0.108965 0.303181 0.39942
0.623819 0.242786 0.571115
0.894804 0.303166 0.580499
0.914107 0.31078 0.561852
0.913863 0.311574 0.557443
0.913893 0.311345 0.55845
0.00549325 0.306172 0.390585
0.00549325 0.306325 0.390936
0.00549325 0.303029 0.38706
0.00756847 0.275212 0.348119
0.479561 0.263081 0.453941
0.813352 0.349874 0.446662
0.91133 0.357778 0.41648
0.912535 0.349203 0.402808
0.912978 0.346685 0.39855
0.141939 0.471794 0.536355
0.141283 0.471092 0.535561
0.137728 0.468528 0.532906
0.150256 0.42858 0.482063
0.402304 0.412009 0.412467
0.683864 0.440787 0.369818
0.895125 0.488197 0.365728
0.901717 0.475776 0.349783
0.90135 0.472602 0.34641
0.418875 0.646708 0.659937
0.416464 0.642466 0.65539
0.411872 0.635721 0.648478
0.38471 0.595728 0.607416
0.50312 0.566522 0.551705
0.610925 0.597635 0.486763
0.87361 0.622293 0.34406
0.919463 0.621454 0.32047
0.918364 0.615961 0.314382
0.559014 0.798032 0.787594
0.55668 0.79379 0.783078
0.553933 0.788464 0.777356
0.53434 0.755322 0.743252
0.586358 0.72108 0.692363
0.673228 0.729381 0.679423
0.800275 0.779477 0.523354
0.957336 0.773312 0.408209
0.955428 0.767193 0.397864
0.585275 0.81648 0.797909
0.58616 0.815808 0.796551
0.587259 0.814969 0.794812
0.590845 0.811872 0.788251
0.630381 0.811337 0.774273
0.735988 0.830152 0.777081
0.829282 0.870161 0.74992
0.937743 0.909316 0.588312
0.960494 0.905165 0.558694
0.586404 0.815671 0.796231
0.587762 0.814557 0.793973
0.589166 0.813352 0.79147
0.592599 0.810208 0.784772
0.62359 0.808988 0.772061
0.721401 0.824521 0.771679
0.81973 0.869429 0.760418
0.92398 0.92517 0.637079
0.962127 0.935363 0.610269
0.00549325 0.352468 0.477409
0.00549325 0.352468 0.477409
0.00549325 0.358221 0.484749
0.23267 0.403418 0.547524
0.667063 0.33756 0.763027
0.888121 0.34374 0.807507
0.890654 0.340566 0.799771
0.891478 0.3393 0.796582
0.890852 0.340307 0.799084
0.00549325 0.352468 0.477409
0.00549325 0.352468 0.477409
0.00549325 0.354513 0.479957
0.165927 0.395056 0.520058
0.622919 0.335683 0.751751
0.877302 0.3402 0.796307
0.892088 0.338384 0.794171
0.892622 0.337774 0.792828
0.89221 0.338338 0.794293
0.00549325 0.353231 0.478111
0.00549325 0.353109 0.477989
0.00549325 0.352743 0.477668
0.100725 0.383215 0.508843
0.578805 0.329534 0.732052
0.862898 0.335805 0.781933
0.895079 0.334707 0.785412
0.895582 0.334051 0.783795
0.895491 0.334127 0.78407
0.00549325 0.390555 0.51046
0.00549325 0.390784 0.510979
0.00549325 0.388785 0.508629
0.00549325 0.372122 0.485985
0.389517 0.384848 0.61973
0.780529 0.358663 0.705303
0.911299 0.365957 0.717433
0.912261 0.359457 0.706722
0.912505 0.357702 0.703044
0.00549325 0.53315 0.661692
0.00549325 0.53196 0.660349
0.00549325 0.528969 0.656794
0.00549325 0.490791 0.60853
0.276646 0.464866 0.53164
0.652445 0.445579 0.610727
0.901884 0.4813 0.574441
0.913176 0.467384 0.565454
0.912871 0.463691 0.559411
0.318441 0.681834 0.757931
0.315114 0.677317 0.753185
0.31104 0.670405 0.745785
0.28072 0.630304 0.703822
0.405173 0.599283 0.634699
0.601099 0.595819 0.592859
0.844678 0.61236 0.521721
0.932235 0.599771 0.502647
0.93109 0.594598 0.496468
0.511376 0.819974 0.843091
0.509087 0.815518 0.838315
0.505867 0.80911 0.83154
0.488289 0.775692 0.796551
0.544793 0.738674 0.734646
0.682551 0.732006 0.710185
0.786084 0.767071 0.648219
0.951858 0.766796 0.543435
0.951797 0.757855 0.532952
0.552758 0.842741 0.850523
0.553826 0.841901 0.848798
0.555291 0.840742 0.846387
0.560586 0.836454 0.837583
0.602182 0.833661 0.821469
0.733867 0.842329 0.80972
0.837339 0.866743 0.811933
0.922866 0.90103 0.709102
0.958648 0.899977 0.638743
0.55433 0.841459 0.847913
0.556146 0.839979 0.844892
0.558007 0.838392 0.841642
0.563836 0.834104 0.832776
0.595773 0.830365 0.817884
0.712612 0.837507 0.804334
0.824002 0.871321 0.812726
0.916671 0.923934 0.737316
0.959869 0.937896 0.692256
0.00549325 0.352468 0.477409
0.00549325 0.352468 0.477409
0.00549325 0.357351 0.483604
0.21799 0.401999 0.539681
0.652964 0.337667 0.760861
0.881331 0.344701 0.808957
0.88777 0.344991 0.810636
0.88777 0.344991 0.810636
0.88777 0.344991 0.810636
0.00549325 0.352468 0.477409
0.00549325 0.352468 0.477409
0.00549325 0.354025 0.479362
0.153933 0.393469 0.518196
0.611475 0.338033 0.755581
0.870649 0.344274 0.806149
0.88777 0.344991 0.810636
0.88777 0.344991 0.810636
0.88777 0.344991 0.810636
0.00549325 0.352468 0.477409
0.00549325 0.352819 0.477714
0.00549325 0.352499 0.477424
0.0927291 0.384665 0.511681
0.566903 0.337606 0.752743
0.854551 0.343618 0.80206
0.88777 0.344991 0.810636
0.88777 0.344991 0.810636
0.88777 0.344991 0.810636
0.00549325 0.405463 0.533028
0.00549325 0.40502 0.532525
0.00549325 0.403769 0.531197
0.00549325 0.396231 0.521614
0.362692 0.43473 0.615396
0.756085 0.382528 0.780331
0.886381 0.386267 0.809964
0.886458 0.38085 0.809964
0.886473 0.379324 0.809918
0.00549325 0.559152 0.708141
0.00549325 0.557885 0.706691
0.00549325 0.554971 0.703319
0.00549325 0.526055 0.668147
0.261463 0.509957 0.615991
0.560769 0.511788 0.736706
0.87361 0.497978 0.798672
0.899779 0.475944 0.799084
0.899901 0.471839 0.796551
0.126406 0.726345 0.873716
0.117693 0.723003 0.871534
0.109667 0.716869 0.86569
0.0597543 0.681773 0.831846
0.276616 0.641337 0.74699
0.500206 0.640757 0.692866
0.817639 0.616617 0.756985
0.925795 0.602762 0.746746
0.925368 0.596719 0.739986
0.437568 0.848585 0.921675
0.436439 0.844053 0.917098
0.431174 0.838254 0.911894
0.409079 0.807401 0.882353
0.459998 0.770459 0.823606
0.605264 0.762783 0.779782
0.775784 0.766339 0.751995
0.951766 0.764218 0.656962
0.950866 0.755398 0.647715
0.502037 0.874311 0.921202
0.503395 0.873381 0.919173
0.505638 0.872038 0.916152
0.514092 0.867124 0.904845
0.554299 0.863355 0.884825
0.707347 0.863691 0.852216
0.845747 0.870253 0.843961
0.914458 0.897642 0.804211
0.955718 0.89839 0.736553
0.504387 0.872801 0.917891
0.507195 0.871183 0.914168
0.51017 0.869322 0.909987
0.51931 0.864302 0.898116
0.550744 0.85948 0.879301
0.678691 0.86183 0.850034
0.829664 0.879911 0.850996
0.914534 0.922499 0.845853
0.957717 0.941375 0.793622
0.00549325 0.352468 0.477409
0.00549325 0.352468 0.477409
0.00549325 0.356802 0.482902
0.210254 0.400946 0.535225
0.644785 0.337728 0.75964
0.878889 0.34461 0.808255
0.88777 0.344991 0.810636
0.88777 0.344991 0.810636
0.88777 0.344991 0.810636
0.00549325 0.352468 0.477409
0.00549325 0.352468 0.477409
0.00549325 0.353704 0.47895
0.149599 0.392752 0.517266
0.607904 0.338018 0.755169
0.869276 0.344213 0.805783
0.88777 0.344991 0.810636
0.88777 0.344991 0.810636
0.88777 0.344991 0.810636
0.00549325 0.35256 0.477516
0.00549325 0.352636 0.477562
0.00549325 0.352468 0.477409
0.0906233 0.384344 0.511406
0.564767 0.337591 0.752743
0.853574 0.343587 0.801831
0.88777 0.344991 0.810636
0.88777 0.344991 0.810636
0.88777 0.344991 0.810636
0.00549325 0.404654 0.532143
0.00549325 0.404257 0.531716
0.00549325 0.402914 0.530266
0.00549325 0.395377 0.520729
0.358068 0.43447 0.6103
0.75108 0.380758 0.779141
0.886366 0.384253 0.809888
0.886488 0.378531 0.809949
0.886534 0.376776 0.809949
0.00549325 0.556115 0.704662
0.00549325 0.554604 0.702892
0.00549325 0.551369 0.699107
0.00549325 0.52166 0.663188
0.25536 0.50454 0.611261
0.597086 0.489525 0.774258
0.866667 0.491737 0.811582
0.891432 0.478782 0.817456
0.890929 0.47538 0.816922
0.11194 0.72224 0.871885
0.103761 0.718349 0.868894
0.0917372 0.712932 0.86479
0.031693 0.681971 0.83888
0.238529 0.645274 0.767422
0.494713 0.648493 0.721798
0.809476 0.615122 0.828428
0.908843 0.610025 0.839185
0.908324 0.604074 0.838346
0.395163 0.855863 0.945708
0.388495 0.852369 0.944244
0.377951 0.847425 0.942351
0.329213 0.823209 0.93193
0.365927 0.794553 0.894621
0.516396 0.786023 0.845228
0.731991 0.787198 0.814755
0.925414 0.771725 0.863142
0.927092 0.762387 0.860914
0.481086 0.892958 0.956497
0.481086 0.892958 0.956497
0.481086 0.892958 0.956497
0.481086 0.892958 0.956497
0.512016 0.892332 0.947967
0.653071 0.890852 0.907744
0.80528 0.889448 0.886244
0.911437 0.898161 0.877195
0.955413 0.897368 0.849271
0.481086 0.892958 0.956497
0.481086 0.892958 0.956497
0.481086 0.892958 0.956497
0.48127 0.892897 0.956374
0.501396 0.890562 0.947494
0.61799 0.893355 0.914199
0.794507 0.904112 0.896437
0.924681 0.925994 0.903517
0.955673 0.945739 0.893263
0.00549325 0.352468 0.477409
0.00549325 0.352468 0.477409
0.00549325 0.356985 0.483146
0.212909 0.401328 0.536782
0.647227 0.337713 0.760006
0.879957 0.344625 0.808499
0.88777 0.344991 0.810636
0.88777 0.344991 0.810636
0.88777 0.344991 0.810636
0.00549325 0.352468 0.477409
0.00549325 0.352468 0.477409
0.00549325 0.353719 0.478965
0.150271 0.392874 0.517449
0.608484 0.338048 0.755291
0.86981 0.344244 0.805936
0.88777 0.344991 0.810636
0.88777 0.344991 0.810636
0.88777 0.344991 0.810636
0.00549325 0.352636 0.477562
0.00549325 0.35256 0.477516
0.00549325 0.352468 0.477409
0.0910048 0.384451 0.511513
0.564767 0.337591 0.752743
0.853574 0.343587 0.801831
0.88777 0.344991 0.810636
0.88777 0.344991 0.810636
0.88777 0.344991 0.810636
0.00549325 0.404791 0.532296
0.00549325 0.40444 0.531899
0.00549325 0.403006 0.530373
0.00549325 0.395209 0.520577
0.356893 0.434424 0.608927
0.749752 0.380377 0.778866
0.886427 0.383764 0.809888
0.886488 0.377829 0.809964
0.886519 0.376226 0.809934
0.00549325 0.555917 0.704417
0.00549325 0.554238 0.702464
0.00549325 0.550423 0.698009
0.00549325 0.520241 0.66157
0.252384 0.502968 0.61001
0.593835 0.488807 0.772442
0.865248 0.490517 0.811093
0.891203 0.477394 0.817243
0.890715 0.474235 0.816709
0.109911 0.721263 0.871138
0.101061 0.717189 0.868025
0.0885786 0.711498 0.863706
0.0292668 0.68011 0.837217
0.234012 0.643229 0.766003
0.491875 0.646448 0.720241
0.806607 0.613016 0.827649
0.908644 0.607752 0.838849
0.908125 0.601907 0.838087
0.393088 0.855024 0.945495
0.38613 0.851209 0.943786
0.375402 0.846098 0.941787
0.325826 0.821546 0.931105
0.36112 0.792645 0.89398
0.512291 0.783688 0.844068
0.726558 0.784756 0.813367
0.923949 0.76875 0.86424
0.925719 0.759701 0.863279
0.481086 0.892958 0.956497
0.481086 0.892958 0.956497
0.481086 0.892958 0.956497
0.481086 0.892958 0.956497
0.509865 0.892714 0.949187
0.620203 0.890471 0.91693
0.757595 0.892012 0.899428
0.908431 0.898466 0.892058
0.943557 0.900069 0.900374
0.481086 0.892958 0.956497
0.481086 0.892958 0.956497
0.481086 0.892958 0.956497
0.481086 0.892958 0.956497
0.499718 0.893309 0.952193
0.613931 0.899687 0.927169
0.768399 0.915068 0.918196
0.91548 0.93373 0.921324
0.957565 0.947082 0.92665
