public/luts/OPPENHEIMER.cube
TITLE "Generated by Resolve"
LUT_3D_SIZE 5
0.00576791 0.0149538 0.0302129
0.0481575 0.0141146 0.0485542
0.795254 0.292836 0.206455
0.903868 0.327413 0.226932
0.903868 0.327413 0.226932
0.00549325 0.0340276 0.0513619
0.00549325 0.0249027 0.0392767
0.68098 0.251713 0.183078
0.903868 0.327413 0.226932
0.903868 0.327413 0.226932
0.292561 0.438102 0.431662
0.290639 0.436255 0.43003
0.438087 0.436851 0.299382
0.89839 0.518853 0.199969
0.897475 0.503853 0.198566
0.595102 0.794018 0.759014
0.590524 0.787625 0.75317
0.622721 0.737804 0.692042
0.834287 0.810575 0.490318
0.961715 0.79234 0.390021
0.600839 0.802014 0.766476
0.600839 0.802014 0.766476
0.641932 0.804761 0.758511
0.835416 0.878065 0.746624
0.962127 0.935363 0.610269
0.00549325 0.0360723 0.0670024
0.0224155 0.045304 0.0971084
0.779736 0.285985 0.210498
0.903868 0.327413 0.226932
0.903868 0.327413 0.226932
0.00549325 0.0327306 0.0517586
0.00549325 0.0239719 0.0391546
0.678752 0.250874 0.182559
0.903868 0.327413 0.226932
0.903868 0.327413 0.226932
0.293416 0.438895 0.432364
0.290486 0.436149 0.429923
0.437354 0.436072 0.298711
0.897276 0.516899 0.198932
0.897261 0.501488 0.198505
0.594079 0.792508 0.757641
0.589593 0.786297 0.751949
0.619806 0.735088 0.689662
0.831174 0.806973 0.488487
0.961257 0.788663 0.384802
0.600839 0.802014 0.766476
0.600839 0.802014 0.766476
0.6392 0.804715 0.758846
0.832349 0.876295 0.748867
0.962127 0.935363 0.610269
0.00549325 0.320592 0.433814
0.00549325 0.32282 0.43592
0.711986 0.275914 0.644404
0.916106 0.309621 0.615839
0.915938 0.309438 0.613306
0.00549325 0.272419 0.368811
0.00549325 0.263355 0.357656
0.623819 0.242786 0.571115
0.914107 0.31078 0.561852
0.913893 0.311345 0.55845
0.141939 0.471794 0.536355
0.137728 0.468528 0.532906
0.402304 0.412009 0.412467
0.895125 0.488197 0.365728
0.90135 0.472602 0.34641
0.559014 0.798032 0.787594
0.553933 0.788464 0.777356
0.586358 0.72108 0.692363
0.800275 0.779477 0.523354
0.955428 0.767193 0.397864
0.586404 0.815671 0.796231
0.589166 0.813352 0.79147
0.62359 0.808988 0.772061
0.81973 0.869429 0.760418
0.962127 0.935363 0.610269
0.00549325 0.352468 0.477409
0.00549325 0.357351 0.483604
0.652964 0.337667 0.760861
0.88777 0.344991 0.810636
0.88777 0.344991 0.810636
0.00549325 0.352468 0.477409
0.00549325 0.352499 0.477424
0.566903 0.337606 0.752743
0.88777 0.344991 0.810636
0.88777 0.344991 0.810636
0.00549325 0.559152 0.708141
0.00549325 0.554971 0.703319
0.261463 0.509957 0.615991
0.87361 0.497978 0.798672
0.899901 0.471839 0.796551
0.437568 0.848585 0.921675
0.431174 0.838254 0.911894
0.459998 0.770459 0.823606
0.775784 0.766339 0.751995
0.950866 0.755398 0.647715
0.504387 0.872801 0.917891
0.51017 0.869322 0.909987
0.550744 0.85948 0.879301
0.829664 0.879911 0.850996
0.957717 0.941375 0.793622
0.00549325 0.352468 0.477409
0.00549325 0.356985 0.483146
0.647227 0.337713 0.760006
0.88777 0.344991 0.810636
0.88777 0.344991 0.810636
0.00549325 0.352636 0.477562
0.00549325 0.352468 0.477409
0.564767 0.337591 0.752743
0.88777 0.344991 0.810636
0.88777 0.344991 0.810636
0.00549325 0.555917 0.704417
0.00549325 0.550423 0.698009
0.252384 0.502968 0.61001
0.865248 0.490517 0.811093
0.890715 0.474235 0.816709
0.393088 0.855024 0.945495
0.375402 0.846098 0.941787
0.36112 0.792645 0.89398
0.726558 0.784756 0.813367
0.925719 0.759701 0.863279
0.481086 0.892958 0.956497
0.481086 0.892958 0.956497
0.499718 0.893309 0.952193
0.768399 0.915068 0.918196
0.957565 0.947082 0.92665
