public/luts/Shot_by_Alice_Sony_LUT-DAWN.cube
TITLE "Shot_by_Alice_Sony_LUT-DAWN"
LUT_3D_SIZE 33
# MLUTS-Log3/Sony S-Gamut3.cine -> LA - Shot_by_Alice_Sony_LUT-DAWN/LA - Shot_by_Alice_Sony_LUT-DAWN, CineEI Shift 0.00, Black Level -4.05% IRE, Input 109% -> Output 100% - Created with LUTCalc v4.09 by Ben Turley February 2025
0.00000000 0.00000000 0.00000000
0.00000000 0.00000000 0.00000000
0.00000000 0.00000000 0.00000000
0.00000000 0.00000000 0.00000000
0.00000000 0.00000000 0.00000000
0.00000000 0.00000000 0.00000000
0.01806124 0.00000000 0.00000000
0.06466001 0.00000000 0.00000000
0.12446176 0.00000000 0.00000000
0.20808374 0.00000000 0.00000000
0.31681610 0.01756239 0.00000000
0.42376048 0.03494058 0.00000000
0.52112205 0.05299616 0.00000000
0.61830476 0.07088333 0.00000000
0.70799820 0.09035673 0.00000000
0.79858198 0.10880444 0.00000000
0.87809389 0.12951815 0.00000000
0.95872367 0.14894590 0.00000000
1.00008932 0.15810634 0.00000000
1.04129768 0.16682673 0.00000000
1.05510489 0.16875904 0.00000000
1.06307088 0.16893340 0.00000000
1.06563235 0.16886993 0.00000000
1.06549156 0.16868761 0.00000000
1.06532384 0.16855507 0.00177551
1.06513255 0.16846601 0.00423581
1.06498564 0.16839799 0.00617766
1.06490530 0.16836147 0.00725065
1.06483884 0.16833104 0.00814905
1.06481053 0.16831735 0.00854108
1.06478089 0.16830321 0.00895091
1.06474263 0.16828610 0.00946968
1.06470437 0.16826899 0.00997830
0.00000000 0.00000000 0.00000000
0.00000000 0.00000000 0.00000000
0.00000000 0.00000000 0.00000000
0.00000000 0.00000000 0.00000000
0.00000000 0.00000000 0.00000000
0.00000000 0.00000000 0.00000000
0.01778175 0.00000000 0.00000000
0.06427189 0.00000000 0.00000000
0.12400177 0.00000000 0.00000000
0.20772192 0.00000000 0.00000000
0.31654844 0.01752962 0.00000000
0.42355799 0.03491075 0.00000000
0.52100741 0.05298217 0.00000000
0.61820230 0.07086847 0.00000000
0.70792753 0.09034457 0.00000000
0.79851163 0.10879239 0.00000000
0.87805499 0.12951291 0.00000000
0.95868130 0.14894119 0.00000000
1.00007655 0.15811309 0.00000000
1.04128692 0.16683466 0.00000000
1.05510520 0.16876612 0.00000000
1.06307547 0.16894026 0.00000000
1.06564255 0.16887603 0.00000000
1.06550457 0.16869333 0.00000000
1.06533644 0.16856078 0.00161917
1.06514480 0.16847172 0.00407752
1.06499789 0.16840346 0.00601720
1.06491755 0.16836660 0.00709073
1.06485088 0.16833633 0.00798779
1.06482200 0.16832306 0.00837927
1.06479247 0.16830883 0.00878889
1.06475487 0.16829123 0.00930928
1.06471662 0.16827412 0.00982950
0.00000000 0.00000000 0.00000000
0.00000000 0.00000000 0.00000000
0.00000000 0.00000000 0.00000000
0.00000000 0.00000000 0.00000000
0.00000000 0.00000000 0.00000000
0.00000000 0.00000000 0.00000000
0.01759279 0.00000000 0.00000000
0.06397502 0.00000000 0.00000000
0.12360481 0.00000000 0.00000000
0.20726304 0.00000000 0.00000000
0.31616272 0.01752061 0.00000000
0.42331133 0.03487381 0.00000000
0.52080427 0.05295540 0.00000000
0.61809153 0.07085315 0.00000000
0.70782294 0.09033071 0.00000000
0.79843922 0.10877983 0.00000000
0.87798946 0.12950009 0.00000000
0.95863890 0.14893649 0.00000000
1.00003906 0.15810822 0.00000000
1.04127441 0.16684173 0.00000000
1.05508836 0.16877413 0.00000000
1.06307578 0.16894735 0.00000000
1.06564714 0.16888289 0.00000000
1.06551477 0.16869942 0.00000000
1.06534945 0.16856649 0.00145907
1.06515740 0.16847743 0.00391579
1.06501013 0.16840917 0.00585550
1.06492979 0.16837208 0.00692875
1.06486312 0.16834146 0.00782676
1.06483404 0.16832834 0.00821768
1.06480395 0.16831454 0.00862673
1.06476645 0.16829686 0.00914679
1.06472886 0.16827925 0.00966865
0.00000000 0.00000000 0.00000000
0.00000000 0.00000000 0.00000000
0.00000000 0.00000000 0.00000000
0.00000000 0.00000000 0.00000000
0.00000000 0.00000000 0.00000000
0.00000000 0.00000000 0.00000000
0.01837129 0.00000000 0.00000000
0.06547205 0.00000000 0.00000000
0.12546668 0.00000000 0.00000000
0.20689987 0.00601819 0.00000000
0.31377461 0.02167334 0.00000000
0.42145922 0.03807088 0.00000000
0.51947991 0.05374286 0.00000000
0.61701343 0.07149859 0.00000000
0.70735796 0.09025228 0.00000000
0.79798352 0.10870280 0.00000000
0.87773529 0.12946507 0.00000000
0.95836341 0.14890548 0.00000000
0.99996734 0.15815596 0.00000000
1.04122051 0.16689164 0.00000000
1.05510764 0.16882164 0.00000000
1.06310536 0.16899452 0.00000000
1.06568061 0.16892608 0.00000000
1.06554854 0.16874144 0.00000000
1.06541168 0.16860528 0.00063763
1.06523672 0.16851431 0.00288546
1.06508874 0.16844581 0.00481031
1.06500768 0.16840845 0.00588270
1.06494101 0.16837760 0.00677450
1.06491193 0.16836413 0.00716775
1.06488153 0.16835040 0.00757438
1.06484292 0.16833272 0.00809784
1.06480543 0.16831503 0.00861558
0.00000000 0.00000000 0.00000000
0.00000000 0.00000000 0.00000000
0.00000000 0.00000000 0.00000000
0.00000000 0.00000000 0.00000000
0.00000000 0.00000000 0.00000000
0.00000000 0.00000000 0.00000000
0.01931879 0.00000000 0.00000000
0.06642632 0.00000000 0.00000000
0.12735789 0.00211011 0.00000000
0.20908554 0.01473514 0.00000000
0.31309805 0.02798803 0.00000000
0.41897216 0.04358140 0.00000000
0.51746537 0.05674452 0.00000000
0.61556953 0.07250179 0.00000000
0.70620418 0.09084340 0.00000000
0.79745066 0.10861164 0.00000000
0.87728156 0.12937980 0.00000000
0.95805297 0.14887100 0.00000000
0.99970798 0.15812629 0.00000000
1.04116376 0.16695003 0.00000000
1.05498981 0.16888052 0.00000000
1.06313179 0.16904811 0.00000000
1.06571733 0.16897927 0.00000000
1.06558649 0.16879001 0.00000000
1.06544994 0.16865269 0.00003890
1.06530915 0.16855789 0.00191444
1.06517826 0.16848747 0.00363386
1.06509639 0.16844980 0.00470377
1.06502900 0.16841868 0.00559533
1.06499993 0.16840499 0.00598778
1.06496953 0.16839091 0.00639572
1.06493050 0.16837322 0.00691613
1.06489189 0.16835554 0.00743634
0.00000000 0.00000000 0.00000000
0.00000000 0.00000000 0.00000000
0.00000000 0.00000000 0.00000000
0.00000000 0.00000000 0.00000000
0.00000000 0.00000000 0.00000000
0.00000000 0.00121197 0.00000000
0.01722859 0.00607889 0.00000000
0.06489644 0.01263526 0.00000000
0.12596346 0.02119719 0.00000000
0.20362372 0.03099177 0.00000000
0.30471125 0.04471176 0.00000000
0.41021438 0.05660838 0.00000000
0.50937746 0.06904841 0.00000000
0.60913303 0.08292095 0.00000000
0.70297918 0.09664397 0.00000000
0.79459416 0.11386834 0.00000000
0.87655410 0.13045166 0.00000000
0.95729785 0.14984385 0.00000000
0.99952907 0.15816366 0.00000000
1.04103910 0.16699550 0.00000000
1.05501282 0.16897549 0.00000000
1.06315479 0.16914314 0.00000000
1.06577645 0.16906474 0.00000000
1.06564510 0.16887462 0.00000000
1.06554568 0.16873085 0.00000000
1.06541867 0.16863418 0.00044306
1.06531798 0.16856017 0.00181415
1.06524988 0.16852078 0.00271434
1.06518168 0.16848934 0.00359411
1.06515189 0.16847537 0.00398542
1.06512118 0.16846099 0.00438969
1.06508078 0.16844261 0.00491312
1.06504176 0.16842492 0.00542503
0.00000000 0.02504658 0.00000000
0.00000000 0.02499892 0.00000000
0.00000000 0.02495402 0.00000000
0.00000000 0.02480695 0.00000000
0.00000000 0.02476315 0.00000000
0.00000000 0.02714796 0.00000000
0.01399078 0.03018287 0.00000000
0.06139979 0.03649990 0.00000000
0.12354691 0.04438552 0.00000000
0.20140674 0.05327233 0.00000000
0.29531442 0.06317251 0.00000000
0.39906994 0.07519847 0.00000000
0.49876927 0.08635358 0.00000000
0.59913301 0.09787282 0.00000000
0.69577019 0.10812880 0.00000000
0.79058245 0.12166843 0.00000000
0.87379441 0.13604271 0.00000000
0.95639215 0.15119453 0.00000000
0.99887755 0.15929222 0.00000000
1.04092693 0.16706242 0.00000000
1.05481066 0.16904570 0.00000000
1.06322901 0.16925134 0.00000000
1.06585067 0.16917290 0.00000000
1.06571218 0.16897149 0.00000000
1.06561225 0.16882686 0.00000000
1.06554033 0.16872285 0.00000000
1.06545341 0.16864698 0.00003671
1.06541285 0.16860414 0.00063482
1.06535843 0.16857098 0.00134681
1.06532782 0.16855671 0.00173443
1.06529640 0.16854205 0.00213393
1.06525508 0.16852321 0.00265072
1.06521468 0.16850483 0.00316193
0.00000000 0.06620322 0.00996187
0.00000000 0.06616520 0.00994322
0.00000000 0.06611660 0.00991990
0.00000000 0.06592910 0.00991396
0.00000000 0.06576208 0.01016047
0.00000000 0.06513075 0.01004426
0.01187523 0.06816376 0.00825909
0.04992434 0.06954993 0.00000000
0.11157296 0.07710216 0.00000000
0.18919569 0.08290509 0.00000000
0.28313357 0.09225778 0.00000000
0.38600009 0.10134780 0.00000000
0.48691339 0.11099634 0.00000000
0.58835785 0.12149643 0.00000000
0.68633921 0.13244298 0.00000000
0.78367964 0.14215682 0.00000000
0.86926566 0.15470885 0.00000000
0.95240609 0.16897934 0.00000000
0.99866666 0.17219970 0.00000000
1.04086014 0.18008332 0.00000000
1.05524389 0.17335431 0.00000000
1.06368198 0.17356568 0.00000000
1.06625452 0.17185209 0.00000000
1.06611603 0.17164872 0.00000000
1.06597141 0.17109630 0.00000000
1.06589429 0.17094126 0.00000000
1.06582328 0.17071502 0.00000000
1.06577691 0.17059886 0.00000000
1.06574003 0.17052547 0.00000000
1.06571070 0.17046372 0.00000000
1.06567938 0.17042235 0.00000000
1.06564056 0.17031106 0.00000000
1.06559924 0.17029209 0.00010305
0.00000000 0.11749941 0.03145503
0.00000000 0.11746885 0.03144035
0.00000000 0.11743131 0.03142274
0.00000000 0.11723013 0.03132639
0.00000000 0.11702132 0.03130935
0.00000000 0.11578056 0.03141355
0.00585728 0.11476489 0.03125739
0.04494851 0.11610824 0.02066441
0.09424637 0.11636147 0.00373001
0.17037646 0.12183222 0.00000000
0.26546716 0.12535251 0.00000000
0.36767734 0.13417437 0.00000000
0.47300326 0.14105060 0.00000000
0.57579521 0.15022167 0.00000000
0.67602660 0.16060549 0.00000000
0.77435798 0.17153546 0.00000000
0.86211566 0.18473363 0.00000000
0.94649199 0.19844862 0.00000000
0.99556791 0.19886511 0.00000000
1.04099178 0.20098445 0.00000000
1.05562295 0.19192557 0.00000000
1.06455196 0.18080785 0.00000000
1.06710807 0.17888430 0.00000000
1.06673963 0.17608670 0.00000000
1.06659501 0.17552763 0.00000000
1.06644504 0.17466061 0.00000000
1.06636883 0.17438123 0.00000000
1.06629920 0.17396874 0.00000000
1.06625651 0.17382088 0.00000000
1.06622973 0.17366281 0.00000000
1.06619968 0.17357319 0.00000000
1.06616372 0.17335427 0.00000000
1.06612490 0.17324194 0.00000000
0.00042318 0.17431065 0.05826870
0.00041720 0.17428539 0.05825760
0.00041012 0.17425280 0.05824377
0.00037406 0.17409448 0.05817501
0.00032278 0.17385491 0.05807350
0.00276778 0.17321513 0.05801006
0.01223131 0.17148100 0.05806425
0.03004574 0.16841937 0.05549734
0.08009749 0.16868487 0.03901111
0.14589615 0.17021756 0.01679354
0.24201856 0.17386246 0.00869275
0.34536148 0.17790918 0.00000000
0.45316972 0.18564202 0.00000000
0.55985292 0.19367508 0.00000000
0.66200013 0.20364591 0.00000000
0.76242614 0.21448234 0.00000000
0.85233731 0.22634491 0.00000000
0.93792664 0.23830575 0.00000000
0.99280615 0.24198707 0.00000000
1.04003363 0.24142902 0.00000000
1.05796278 0.23376476 0.00000000
1.06701452 0.22098575 0.00000000
1.06989516 0.21367598 0.00000000
1.06951029 0.21083722 0.00000000
1.06927105 0.20803474 0.00000000
1.06912108 0.20720364 0.00000000
1.06900631 0.20615737 0.00000000
1.06893719 0.20569623 0.00000000
1.06888021 0.20527118 0.00000000
1.06885435 0.20504874 0.00000000
1.06882726 0.20482698 0.00000000
1.06879360 0.20446150 0.00000000
1.06875764 0.20425084 0.00000000
0.01694369 0.24031783 0.09091542
0.01693961 0.24030240 0.09090749
0.01693445 0.24027930 0.09089645
0.01691024 0.24017666 0.09084601
0.01687633 0.24002072 0.09077195
0.01682644 0.23980132 0.09066549
0.01891103 0.23921623 0.09060036
0.03327571 0.23572726 0.09006289
0.05588285 0.23164231 0.08708223
0.12273142 0.23305668 0.06403415
0.20964902 0.23580264 0.03609778
0.31074113 0.23947007 0.02614398
0.43018175 0.24384387 0.01448585
0.53793016 0.25108633 0.01003070
0.64470973 0.25824066 0.00566540
0.74641839 0.26725223 0.00084957
0.83896920 0.27770001 0.00000000
0.92829174 0.28935501 0.00000000
0.98731045 0.29681053 0.00000000
1.03959596 0.30038413 0.00000000
1.05913652 0.29410111 0.00000000
1.07173550 0.28472907 0.00000000
1.07466756 0.27724416 0.00000000
1.07448836 0.27290213 0.00000000
1.07425203 0.27017574 0.00000000
1.07414277 0.26752526 0.00000000
1.07402800 0.26657398 0.00000000
1.07396602 0.26533398 0.00000000
1.07390955 0.26489145 0.00000000
1.07388736 0.26443672 0.00000000
1.07386119 0.26417347 0.00000000
1.07383212 0.26356607 0.00000000
1.07379845 0.26323774 0.00000000
0.03359442 0.30702478 0.12407001
0.03359042 0.30700997 0.12406292
0.03358584 0.30699302 0.12405452
0.03356218 0.30689894 0.12401038
0.03353185 0.30677392 0.12395108
0.03348745 0.30659564 0.12386723
0.03342911 0.30635457 0.12375264
0.03867769 0.30471358 0.12338337
0.05679015 0.29952493 0.12240326
0.09901140 0.29390745 0.11762445
0.18505599 0.29684508 0.08988118
0.27553875 0.30319669 0.05726798
0.39595598 0.30796088 0.04580861
0.51274761 0.31273630 0.03231591
0.62142509 0.32059811 0.02706652
0.72734530 0.32871368 0.02331834
0.82336820 0.33901624 0.01936925
0.91560792 0.35062863 0.01590481
0.97921166 0.35886966 0.01268582
1.03594218 0.36594880 0.00897328
1.05899242 0.36207355 0.00646979
1.07336502 0.35438072 0.00375407
1.07812859 0.34897192 0.00182810
1.07800081 0.34372041 0.00016935
1.07792476 0.34006531 0.00000000
1.07781840 0.33694942 0.00000000
1.07775122 0.33474765 0.00000000
1.07768925 0.33336235 0.00000000
1.07764318 0.33227844 0.00000000
1.07762232 0.33178749 0.00000000
1.07760278 0.33130140 0.00000000
1.07757906 0.33068921 0.00000000
1.07754999 0.33001499 0.00000000
0.05271626 0.38442064 0.15971682
0.05271367 0.38441112 0.15971246
0.05271005 0.38439772 0.15970556
0.05269335 0.38433654 0.15967564
0.05267003 0.38424431 0.15962931
0.05263693 0.38411750 0.15956634
0.05259473 0.38395100 0.15948276
0.05267045 0.38362081 0.15933059
0.05748420 0.38205178 0.15894365
0.09650358 0.37514971 0.15776077
0.15990350 0.36734714 0.15284175
0.25346979 0.37336985 0.12194352
0.35849997 0.38555605 0.08305782
0.47502664 0.38982210 0.06968460
0.59316468 0.39391133 0.05515699
0.70019553 0.40072230 0.05019746
0.80391926 0.40753659 0.04542899
0.89809151 0.41772612 0.04104481
0.97136058 0.42689525 0.03744517
1.03283008 0.43463247 0.03371884
1.05708163 0.43185795 0.03226353
1.07413247 0.42562132 0.03067661
1.07895394 0.42110310 0.02900515
1.07894195 0.41738093 0.02762849
1.07889007 0.41411851 0.02653832
1.07888043 0.41215047 0.02588427
1.07881754 0.41002398 0.02550146
1.07881555 0.40923870 0.02523964
1.07876949 0.40815584 0.02521184
1.07876719 0.40788527 0.02512402
1.07874898 0.40741212 0.02509606
1.07874668 0.40705183 0.02497907
1.07872296 0.40643334 0.02494398
0.07165902 0.45823836 0.19794468
0.07165640 0.45822930 0.19794046
0.07165355 0.45821958 0.19793601
0.07163678 0.45816238 0.19790815
0.07161629 0.45809276 0.19787424
0.07158507 0.45798440 0.19782103
0.07154638 0.45785002 0.19775490
0.07159019 0.45758937 0.19763453
0.07176780 0.45717705 0.19745175
0.08953358 0.45408888 0.19681729
0.14965267 0.44465543 0.19534384
0.22940270 0.43950459 0.18768715
0.33291187 0.45193751 0.14746436
0.43736213 0.46413400 0.10755704
0.55448213 0.46837167 0.09319105
0.67149113 0.47261753 0.07833183
0.77580154 0.47932348 0.07175959
0.87911767 0.48624758 0.06644064
0.95616752 0.49446283 0.06248614
1.02563683 0.50337350 0.05924771
1.05343615 0.50168417 0.05806429
1.07283043 0.49651914 0.05726085
1.07939803 0.49294256 0.05628605
1.07944394 0.48994453 0.05505590
1.07947541 0.48777930 0.05418158
1.07948995 0.48614183 0.05350963
1.07950143 0.48492251 0.05302028
1.07950372 0.48421391 0.05275303
1.07950602 0.48364241 0.05253940
1.07950372 0.48338564 0.05245567
1.07950245 0.48313202 0.05237225
1.07950066 0.48279811 0.05226271
1.07949837 0.48245719 0.05215123
0.09230924 0.53270262 0.23374508
0.09230765 0.53269595 0.23374191
0.09230521 0.53268661 0.23373790
0.09229384 0.53264287 0.23371811
0.09227689 0.53257874 0.23368924
0.09225432 0.53249111 0.23364966
0.09222399 0.53237367 0.23359643
0.09217684 0.53218853 0.23351202
0.09221021 0.53188887 0.23338325
0.09355114 0.53078699 0.23297200
0.11166625 0.52683895 0.23209638
0.19187288 0.51963190 0.22925089
0.30478866 0.51922892 0.21899682
0.41083929 0.53172766 0.17689443
0.51666439 0.54373213 0.13111511
0.63422549 0.54805074 0.11619148
0.74709001 0.55216043 0.10308577
0.85221729 0.55897723 0.09697018
0.93791138 0.56561877 0.09122020
1.01364598 0.57412062 0.08734131
1.04715735 0.57443669 0.08643258
1.07161996 0.57048089 0.08577907
1.07835610 0.56711972 0.08500376
1.07859462 0.56439455 0.08398181
1.07862992 0.56231406 0.08311182
1.07865211 0.56096475 0.08256966
1.07866543 0.55973145 0.08204232
1.07867507 0.55917667 0.08183024
1.07867777 0.55858064 0.08159131
1.07868119 0.55839007 0.08152032
1.07867991 0.55812277 0.08142626
1.07868527 0.55787645 0.08133423
1.07868348 0.55752438 0.08121068
0.11193146 0.60823526 0.26780238
0.11192986 0.60822895 0.26779935
0.11192823 0.60822250 0.26779630
0.11191693 0.60818158 0.26777765
0.11190385 0.60813428 0.26775625
0.11188282 0.60805723 0.26772120
0.11185830 0.60796692 0.26768045
0.11181583 0.60780946 0.26760838
0.11175970 0.60760027 0.26751318
0.11282595 0.60673733 0.26718677
0.11558092 0.60491882 0.26653058
0.15010952 0.60251022 0.26452029
0.26637616 0.60015035 0.25913641
0.38504716 0.60064686 0.24716950
0.49009161 0.61227540 0.20082946
0.59755981 0.62354737 0.15301003
0.70976396 0.62749445 0.14054552
0.82367313 0.63156694 0.12775260
0.91185665 0.63769315 0.12064148
0.99689406 0.64408075 0.11467119
1.03553253 0.64409173 0.11304756
1.06490372 0.64224310 0.11275204
1.07712298 0.64011224 0.11224824
1.07753004 0.63780324 0.11157260
1.07773362 0.63613707 0.11104611
1.07775964 0.63500211 0.11063668
1.07777974 0.63413053 0.11032275
1.07779121 0.63363591 0.11014454
1.07780060 0.63322774 0.10999761
1.07780443 0.63304727 0.10993252
1.07780840 0.63286258 0.10986610
1.07781376 0.63262200 0.10977963
1.07781912 0.63238132 0.10969315
0.13170439 0.68048611 0.30412665
0.13170321 0.68048172 0.30412375
0.13170147 0.68047528 0.30412030
0.13169251 0.68044493 0.30410325
0.13167913 0.68039950 0.30407992
0.13166102 0.68033916 0.30404620
0.13163675 0.68025614 0.30400289
0.13159947 0.68012942 0.30393318
0.13154628 0.67994573 0.30383557
0.13146085 0.67965402 0.30367606
0.13259537 0.67868489 0.30324608
0.14606066 0.67457931 0.30205391
0.20650114 0.66762907 0.29888516
0.32646779 0.66822210 0.28913410
0.45870981 0.68065186 0.26331128
0.56541271 0.69227633 0.21864474
0.67362627 0.70055463 0.17642961
0.78751407 0.70460088 0.16265042
0.88732334 0.70872732 0.14969748
0.97463421 0.71480419 0.14314594
1.02810679 0.71717969 0.13961757
1.06210174 0.71618885 0.13861978
1.07507207 0.71426103 0.13852816
1.07597985 0.71209388 0.13815783
1.07618164 0.71056273 0.13772590
1.07620562 0.70957984 0.13740788
1.07622520 0.70875610 0.13713862
1.07623566 0.70834578 0.13700650
1.07624489 0.70795087 0.13687730
1.07624811 0.70780692 0.13683132
1.07625204 0.70762826 0.13677294
1.07625668 0.70744348 0.13671448
1.07626203 0.70720595 0.13663676
0.14985127 0.75345283 0.34284713
0.14985022 0.75344840 0.34284426
0.14984917 0.75344398 0.34284138
0.14984127 0.75341354 0.34282449
0.14983235 0.75337926 0.34280549
0.14981703 0.75332132 0.34277306
0.14979972 0.75325609 0.34273622
0.14976877 0.75313758 0.34267010
0.14972944 0.75298664 0.34258549
0.14966050 0.75272250 0.34243786
0.14955987 0.75233814 0.34222150
0.16218491 0.74908411 0.34135122
0.20215607 0.74039598 0.33928235
0.26386090 0.73640807 0.33241133
0.40138336 0.74901940 0.30692290
0.53312258 0.76129709 0.27981595
0.64200973 0.76951899 0.24109786
0.75053452 0.77816242 0.20049631
0.85182431 0.78252008 0.18690726
0.95165570 0.78686268 0.17279249
1.00641575 0.78903044 0.16776524
1.05170007 0.79046037 0.16437124
1.07227009 0.78934866 0.16345435
1.07392894 0.78729660 0.16345156
1.07463145 0.78583382 0.16324131
1.07465364 0.78493384 0.16293585
1.07467118 0.78421866 0.16269249
1.07468113 0.78382878 0.16256013
1.07468934 0.78349645 0.16244709
1.07469240 0.78335400 0.16239897
1.07469572 0.78320211 0.16234755
1.07470031 0.78301153 0.16228343
1.07470495 0.78281695 0.16221780
0.16638942 0.81780127 0.37923710
0.16638881 0.81779799 0.37923543
0.16638768 0.81779372 0.37923276
0.16638214 0.81777463 0.37922037
0.16637276 0.81774230 0.37920300
0.16636190 0.81770213 0.37917912
0.16634471 0.81764315 0.37914655
0.16632131 0.81755990 0.37909667
0.16628420 0.81743039 0.37902422
0.16623048 0.81723727 0.37891055
0.16614153 0.81692364 0.37873159
0.16601657 0.81647548 0.37847199
0.18211080 0.81273236 0.37747388
0.23985748 0.80486034 0.37651385
0.37485784 0.80437714 0.37240268
0.50676492 0.81719876 0.34608947
0.60853720 0.83418067 0.29498543
0.71645707 0.84270172 0.25596836
0.82240177 0.84847798 0.22526430
0.92154351 0.85287815 0.21198879
0.99375608 0.85617704 0.19941690
1.04182193 0.85781582 0.19488581
1.06759726 0.85749921 0.19294633
1.07206390 0.85568041 0.19261200
1.07284824 0.85432365 0.19241867
1.07286920 0.85348391 0.19209312
1.07288527 0.85283568 0.19185937
1.07289358 0.85251207 0.19172571
1.07290149 0.85219868 0.19161309
1.07290404 0.85208678 0.19156498
1.07290720 0.85194534 0.19151345
1.07291118 0.85180413 0.19144912
1.07291577 0.85161210 0.19138297
0.18388054 0.88038715 0.41374483
0.18387995 0.88038407 0.41374315
0.18387932 0.88038091 0.41374141
0.18387355 0.88036253 0.41372848
0.18386707 0.88034195 0.41371400
0.18385600 0.88030401 0.41368934
0.18384422 0.88026284 0.41366203
0.18382138 0.88018656 0.41361166
0.18379370 0.88009337 0.41354869
0.18374321 0.87992311 0.41343640
0.18367372 0.87968497 0.41327584
0.18356372 0.87930919 0.41302788
0.18339883 0.87872978 0.41263445
0.21847858 0.87575460 0.41260631
0.35174396 0.87072272 0.41565051
0.48191140 0.87069032 0.40964897
0.58225334 0.88886133 0.36135120
0.68234615 0.90699019 0.31038765
0.78819309 0.91246461 0.27815333
0.89208211 0.91765433 0.24926494
0.96642460 0.92080564 0.23712794
1.03025767 0.92368961 0.22537406
1.05526991 0.92358836 0.22229343
1.06745800 0.92245120 0.22105176
1.07105013 0.92137839 0.22052754
1.07106926 0.92067014 0.22016743
1.07108410 0.92011487 0.21991199
1.07109099 0.91986484 0.21978521
1.07109726 0.91963283 0.21967902
1.07109956 0.91954179 0.21963325
1.07110221 0.91943772 0.21958491
1.07110604 0.91931611 0.21952313
1.07111002 0.91918246 0.21946091
0.19653190 0.92574331 0.44192936
0.19653135 0.92574138 0.44192860
0.19653079 0.92573816 0.44192695
0.19652765 0.92572900 0.44192185
0.19652155 0.92570752 0.44190762
0.19651544 0.92568802 0.44189701
0.19650468 0.92564667 0.44187137
0.19649159 0.92560404 0.44184784
0.19646785 0.92551778 0.44179412
0.19643712 0.92541552 0.44173588
0.19638147 0.92521395 0.44161280
0.19631381 0.92497675 0.44147167
0.19619736 0.92455461 0.44121549
0.20337659 0.92306852 0.44076261
0.27590178 0.91796976 0.44152528
0.41327774 0.91388797 0.44388459
0.56480657 0.92760665 0.42594437
0.66404616 0.94730160 0.37742991
0.75970897 0.96258327 0.32163515
0.86581502 0.96735344 0.28900624
0.94580127 0.96973454 0.26988388
1.01176532 0.97218093 0.25874099
1.04931008 0.97329807 0.25134037
1.06434062 0.97254725 0.24943485
1.07031650 0.97180490 0.24851269
1.07047458 0.97121817 0.24808026
1.07048514 0.97079912 0.24781062
1.07048836 0.97061188 0.24768136
1.07049320 0.97044148 0.24757566
1.07049387 0.97037595 0.24752856
1.07049575 0.97029903 0.24748044
1.07049652 0.97021558 0.24741706
1.07050034 0.97011186 0.24735554
0.20773209 0.96809451 0.46790280
0.20773153 0.96809307 0.46790225
0.20773097 0.96809134 0.46790150
0.20772799 0.96808388 0.46789705
0.20772445 0.96807497 0.46789155
0.20771830 0.96805751 0.46788102
0.20771216 0.96804069 0.46787179
0.20769930 0.96800395 0.46784962
0.20768477 0.96796594 0.46782846
0.20765615 0.96788409 0.46777872
0.20761982 0.96778714 0.46772501
0.20756151 0.96761603 0.46761922
0.20748885 0.96742259 0.46751181
0.21471962 0.96623809 0.46719097
0.25013959 0.96145367 0.46647496
0.32737698 0.95738820 0.46660472
0.49731125 0.96869749 0.46019356
0.64906832 0.98145282 0.44240217
0.74302429 0.99673894 0.38540801
0.83841008 1.01147112 0.32966086
0.91961811 1.01408323 0.30852787
0.99386757 1.01598285 0.29084295
1.03225234 1.01713130 0.28287319
1.06040688 1.01760893 0.27712023
1.06950162 1.01706693 0.27564871
