public/luts/Shot_by_Alice_Sony_LUT-DAWN.cube
TITLE "Shot_by_Alice_Sony_LUT-DAWN"
LUT_3D_SIZE 9
# MLUTS-Log3/Sony S-Gamut3.cine -> LA - Shot_by_Alice_Sony_LUT-DAWN/LA - Shot_by_Alice_Sony_LUT-DAWN, CineEI Shift 0.00, Black Level -4.05% IRE, Input 109% -> Output 100% - Created with LUTCalc v4.09 by Ben Turley February 2025
0.00000000 0.00000000 0.00000000
0.00000000 0.00000000 0.00000000
0.12446176 0.00000000 0.00000000
0.52112205 0.05299616 0.00000000
0.87809389 0.12951815 0.00000000
1.05510489 0.16875904 0.00000000
1.06532384 0.16855507 0.00177551
1.06483884 0.16833104 0.00814905
1.06470437 0.16826899 0.00997830
0.00000000 0.00000000 0.00000000
0.00000000 0.00000000 0.00000000
0.12735789 0.00211011 0.00000000
0.51746537 0.05674452 0.00000000
0.87728156 0.12937980 0.00000000
1.05498981 0.16888052 0.00000000
1.06544994 0.16865269 0.00003890
1.06502900 0.16841868 0.00559533
1.06489189 0.16835554 0.00743634
0.00000000 0.11749941 0.03145503
0.00000000 0.11702132 0.03130935
0.09424637 0.11636147 0.00373001
0.47300326 0.14105060 0.00000000
0.86211566 0.18473363 0.00000000
1.05562295 0.19192557 0.00000000
1.06659501 0.17552763 0.00000000
1.06625651 0.17382088 0.00000000
1.06612490 0.17324194 0.00000000
0.05271626 0.38442064 0.15971682
0.05267003 0.38424431 0.15962931
0.05748420 0.38205178 0.15894365
0.35849997 0.38555605 0.08305782
0.80391926 0.40753659 0.04542899
1.05708163 0.43185795 0.03226353
1.07889007 0.41411851 0.02653832
1.07876949 0.40815584 0.02521184
1.07872296 0.40643334 0.02494398
0.13170439 0.68048611 0.30412665
0.13167913 0.68039950 0.30407992
0.13154628 0.67994573 0.30383557
0.20650114 0.66762907 0.29888516
0.67362627 0.70055463 0.17642961
1.02810679 0.71717969 0.13961757
1.07618164 0.71056273 0.13772590
1.07624489 0.70795087 0.13687730
1.07626203 0.70720595 0.13663676
0.19653190 0.92574331 0.44192936
0.19652155 0.92570752 0.44190762
0.19646785 0.92551778 0.44179412
0.19619736 0.92455461 0.44121549
0.56480657 0.92760665 0.42594437
0.94580127 0.96973454 0.26988388
1.07031650 0.97180490 0.24851269
1.07049320 0.97044148 0.24757566
1.07050034 0.97011186 0.24735554
0.21462943 0.99033165 0.48124567
0.21462943 0.99033165 0.48124567
0.21462943 0.99033165 0.48124567
0.21462943 0.99033165 0.48124567
0.41558102 0.99218791 0.48727255
0.87371587 1.04702950 0.35375837
1.06476395 1.05988413 0.30696875
1.07095127 1.05993310 0.30579322
1.07095127 1.05993310 0.30579322
0.21462943 0.99033165 0.48124567
0.21462943 0.99033165 0.48124567
0.21462943 0.99033165 0.48124567
0.21462943 0.99033165 0.48124567
0.38909414 0.99121759 0.48925911
0.84905553 1.04434782 0.36475331
1.05383760 1.05946054 0.30876693
1.07095127 1.05993310 0.30579322
1.07095127 1.05993310 0.30579322
0.21462943 0.99033165 0.48124567
0.21462943 0.99033165 0.48124567
0.21462943 0.99033165 0.48124567
0.21462943 0.99033165 0.48124567
0.38298448 0.99047971 0.48931051
0.84183643 1.04336476 0.36832373
1.04951426 1.05924385 0.30947551
1.07095127 1.05993310 0.30579322
1.07095127 1.05993310 0.30579322
0.00000000 0.00000000 0.00000000
0.00000000 0.00000000 0.00000000
0.12274072 0.00000000 0.00000000
0.51887549 0.05212135 0.00000000
0.87677710 0.12792504 0.00000000
1.05398124 0.16779695 0.00737750
1.06370743 0.16780879 0.02061102
1.06326222 0.16762006 0.02562189
1.06308409 0.16756532 0.02775182
0.00000000 0.00000000 0.00000000
0.00000000 0.00000000 0.00000000
0.12062165 0.00000000 0.00000000
0.51633870 0.05321241 0.00000000
0.87605095 0.12776682 0.00000000
1.05397736 0.16786830 0.00471091
1.06387046 0.16788378 0.01884233
1.06345789 0.16769362 0.02337514
1.06334139 0.16764099 0.02468279
0.00000000 0.11395088 0.03259307
0.00000000 0.11336162 0.03319164
0.10005912 0.11084013 0.00625228
0.47376470 0.13772722 0.00000000
0.86373157 0.17845379 0.00000000
1.05534994 0.18452462 0.00000000
1.06557297 0.17406198 0.00706676
1.06498411 0.17238146 0.01254315
1.06478966 0.17178968 0.01394289
0.05237972 0.38311567 0.15906678
0.05233399 0.38293824 0.15897918
0.05695640 0.38078076 0.15830177
0.35798543 0.38417814 0.08241726
0.80383363 0.40614870 0.04510894
1.05698981 0.43045044 0.03270731
1.07864094 0.41244933 0.02925844
1.07846343 0.40638158 0.02854899
1.07841160 0.40475587 0.02833404
0.13151822 0.67984919 0.30378378
0.13149299 0.67976274 0.30373772
0.13136052 0.67930785 0.30349236
0.20595290 0.66702106 0.29856147
0.67338883 0.69987444 0.17614404
1.02807601 0.71652194 0.13939912
1.07619756 0.70990986 0.13751466
1.07626061 0.70729480 0.13666640
1.07627938 0.70654928 0.13642588
0.19645661 0.92547595 0.44176844
0.19644655 0.92544013 0.44174656
0.19639330 0.92525123 0.44163307
0.19612196 0.92428644 0.44105508
0.56441858 0.92727386 0.42577686
0.94565458 0.96943661 0.26969754
1.07031936 0.97152991 0.24831588
1.07049790 0.97015144 0.24737546
1.07050504 0.96982037 0.24715516
0.21462943 0.99033165 0.48124567
0.21462943 0.99033165 0.48124567
0.21462943 0.99033165 0.48124567
0.21462943 0.99033165 0.48124567
0.41536834 0.99216851 0.48729390
0.87355422 1.04701313 0.35382367
1.06473478 1.05988413 0.30697436
1.07095127 1.05993310 0.30579322
1.07095127 1.05993310 0.30579322
0.21462943 0.99033165 0.48124567
0.21462943 0.99033165 0.48124567
0.21462943 0.99033165 0.48124567
0.21462943 0.99033165 0.48124567
0.38891284 0.99119639 0.48926084
0.84887792 1.04432295 0.36483698
1.05373415 1.05945544 0.30878290
1.07095127 1.05993310 0.30579322
1.07095127 1.05993310 0.30579322
0.21462943 0.99033165 0.48124567
0.21462943 0.99033165 0.48124567
0.21462943 0.99033165 0.48124567
0.21462943 0.99033165 0.48124567
0.38279271 0.99045630 0.48931223
0.84165248 1.04334031 0.36840747
1.04943676 1.05923854 0.30949212
1.07095127 1.05993310 0.30579322
1.07095127 1.05993310 0.30579322
0.00000000 0.00000000 0.01900687
0.00000000 0.00000000 0.02669748
0.11882350 0.00000000 0.09656305
0.50086659 0.05153968 0.12691976
0.86487305 0.12528483 0.11383353
1.04638828 0.16586251 0.11866778
1.05495492 0.16641249 0.13115148
1.05459846 0.16642108 0.13569232
1.05449950 0.16642968 0.13687376
0.00000000 0.00000000 0.02008707
0.00000000 0.00000000 0.02312225
0.11206693 0.00000000 0.09353268
0.49851409 0.05133574 0.12485074
0.86403902 0.12500661 0.11198747
1.04635412 0.16584146 0.11683540
1.05508551 0.16639967 0.12930828
1.05472640 0.16640404 0.13416600
1.05462682 0.16641173 0.13534100
0.00000000 0.09844873 0.10593442
0.00000000 0.09769510 0.10617626
0.08572998 0.08947365 0.09592707
0.50439352 0.09869051 0.04849286
0.86805346 0.14260175 0.07209417
1.04676174 0.17186026 0.10300905
1.05618324 0.16867173 0.11840538
1.05550073 0.16686885 0.12439430
1.05530016 0.16631178 0.12612940
0.04128509 0.37884865 0.18030322
0.04118402 0.37867822 0.18031560
0.04496144 0.37671640 0.18246536
0.36317191 0.37424505 0.09551299
0.81028522 0.39572596 0.05709781
1.05826956 0.41494393 0.06010170
1.07500698 0.40132417 0.09463171
1.07463767 0.39553815 0.09647386
1.07453157 0.39386684 0.09699181
0.13038525 0.67649204 0.30239287
0.13035949 0.67640375 0.30234853
0.13022237 0.67593978 0.30211733
0.20285529 0.66379854 0.29721000
0.67208632 0.69618495 0.17484988
1.02794236 0.71295569 0.13857183
1.07615879 0.70613093 0.14029169
1.07620205 0.70345173 0.14027096
1.07621266 0.70268404 0.14032219
0.19606120 0.92407546 0.44092880
0.19605115 0.92403921 0.44090707
0.19599764 0.92384795 0.44079319
0.19572396 0.92287114 0.44021545
0.56238792 0.92549328 0.42490680
0.94487504 0.96783768 0.26871052
1.07033344 0.97004777 0.24726974
1.07052136 0.96859487 0.24631100
1.07052769 0.96825429 0.24609059
0.21462943 0.99033165 0.48124567
0.21462943 0.99033165 0.48124567
0.21462943 0.99033165 0.48124567
0.21462943 0.99033165 0.48124567
0.41420105 0.99205631 0.48741382
0.87269978 1.04692989 0.35416716
1.06457909 1.05988331 0.30700428
1.07095127 1.05993310 0.30579322
1.07095127 1.05993310 0.30579322
0.21462943 0.99033165 0.48124567
0.21462943 0.99033165 0.48124567
0.21462943 0.99033165 0.48124567
0.21462943 0.99033165 0.48124567
0.38789174 0.99107415 0.48926945
0.84793637 1.04421689 0.36527093
1.05319364 1.05942912 0.30886726
1.07095127 1.05993310 0.30579322
1.07095127 1.05993310 0.30579322
0.21462943 0.99033165 0.48124567
0.21462943 0.99033165 0.48124567
0.21462943 0.99033165 0.48124567
0.21462943 0.99033165 0.48124567
0.38171163 0.99032536 0.48932085
0.84067403 1.04321488 0.36884163
1.04907688 1.05921202 0.30957992
1.07095127 1.05993310 0.30579322
1.07095127 1.05993310 0.30579322
0.00000000 0.00000000 0.16896501
0.00000000 0.00000000 0.16964265
0.08604502 0.00000000 0.26982818
0.47981339 0.05126110 0.38537725
0.83866196 0.12841435 0.36840936
1.03266639 0.17133946 0.36806718
1.04152395 0.17218346 0.37161845
1.04144454 0.17225012 0.37358361
1.04142242 0.17226956 0.37413317
0.00000000 0.00000000 0.16840894
0.00000000 0.00000000 0.16863822
0.07747350 0.00000000 0.26350801
0.47737437 0.05084271 0.38472620
0.83757187 0.12813082 0.36767588
1.03255266 0.17130469 0.36732437
1.04155227 0.17215801 0.37088510
1.04147291 0.17222435 0.37285837
1.04145057 0.17224379 0.37340935
0.00000000 0.00000000 0.19426718
0.00000000 0.00000000 0.19406520
0.02711474 0.00000000 0.23567695
0.46353953 0.05600073 0.37948085
0.83257630 0.12857565 0.36268519
1.03201601 0.17190865 0.36308719
1.04169860 0.17202043 0.36701408
1.04161831 0.17208798 0.36902707
1.04159624 0.17210695 0.36959004
0.00000000 0.36048876 0.36580404
0.00000000 0.36025663 0.36583861
0.00000000 0.35869707 0.36637729
0.34428580 0.32895542 0.32398720
0.85896452 0.32933016 0.23250033
1.05964866 0.33851841 0.27048642
1.06352094 0.36368381 0.32139527
1.06263418 0.35648512 0.32415428
1.06237566 0.35436961 0.32494901
0.07042913 0.67896985 0.41936181
0.07037676 0.67888708 0.41937020
0.07010243 0.67844952 0.41941290
0.11591816 0.67021102 0.41656968
0.67909314 0.67577329 0.26260150
1.04068121 0.68504509 0.23269162
1.07571255 0.68442511 0.32089029
1.07570052 0.68161373 0.32211323
1.07569807 0.68081338 0.32245467
0.16842949 0.92630351 0.49279857
0.16840012 0.92626579 0.49280563
0.16824070 0.92606365 0.49284683
0.16745118 0.92503496 0.49302201
0.53786664 0.91601387 0.45752500
0.94113586 0.95979785 0.30020429
1.07023958 0.96118575 0.33058483
1.07030304 0.95911859 0.34339483
1.07031242 0.95870236 0.34370328
0.20337194 0.99490705 0.50880007
0.20335109 0.99491574 0.50884986
0.20323372 0.99496244 0.50912610
0.20263536 0.99520111 0.51053834
0.39861603 0.99213150 0.50351725
0.86678819 1.04637365 0.37483896
1.06361092 1.05957786 0.34122731
1.07028488 1.05903981 0.36922159
1.07028080 1.05902940 0.36961081
0.20909742 0.99259607 0.49466557
0.20907373 0.99260718 0.49473065
0.20894248 0.99266759 0.49509880
0.20819163 0.99299416 0.49709925
0.37706050 0.99080405 0.49750600
0.84228373 1.04348610 0.37923361
1.05062221 1.05931751 0.32311441
1.07043158 1.05927099 0.35326744
1.07042689 1.05925976 0.35382795
0.21064086 0.99187812 0.49034488
0.21063713 0.99187953 0.49035423
0.21061853 0.99188863 0.49040668
0.21011232 0.99212507 0.49182335
0.37185421 0.98995493 0.49465186
0.83538801 1.04257199 0.38012565
1.04726600 1.05913346 0.31866619
1.07048953 1.05940932 0.34640317
1.07048402 1.05939647 0.34705374
0.00000000 0.00000000 0.40634009
0.00000000 0.00000000 0.40637087
0.00000000 0.00000000 0.43877848
0.43292207 0.04998130 0.66271046
0.81951248 0.12644389 0.66302725
1.02464803 0.17617100 0.66110093
1.03474999 0.17726570 0.66108041
1.03474923 0.17727194 0.66202126
1.03474908 0.17727350 0.66228766
0.00000000 0.00000000 0.40599982
0.00000000 0.00000000 0.40602793
0.00000000 0.00000000 0.43371701
0.43008270 0.04958767 0.66188707
0.81848470 0.12616826 0.66268625
1.02450041 0.17614747 0.66075045
1.03474908 0.17726257 0.66072003
1.03474817 0.17726819 0.66166156
1.03474862 0.17727022 0.66192728
0.00000000 0.00000000 0.40431605
0.00000000 0.00000000 0.40434450
0.00000000 0.00000000 0.41528360
0.41480427 0.04748379 0.65763358
0.81301132 0.12470370 0.66090253
1.02373836 0.17602204 0.65889786
1.03474393 0.17724227 0.65881824
1.03474286 0.17724852 0.65976147
1.03474302 0.17725039 0.66002874
0.00000000 0.20139528 0.58230893
0.00000000 0.20107696 0.58217163
0.00000000 0.19937443 0.58161530
0.27201055 0.17707147 0.64848141
0.80817202 0.19970339 0.66644623
1.02820520 0.24857628 0.63967335
1.03984230 0.25736298 0.63747445
1.03947333 0.25146928 0.63904143
1.03936270 0.24942349 0.63951865
0.00000000 0.65260780 0.65111284
0.00000000 0.65250324 0.65112746
0.00000000 0.65194658 0.65120232
0.01898019 0.64490517 0.65455752
0.65796892 0.62037328 0.60003159
1.05044480 0.61662942 0.55666590
1.06784700 0.63546650 0.60432139
1.06757991 0.63244478 0.60525035
1.06750136 0.63158231 0.60551284
0.06780886 0.93665243 0.68901811
0.06778490 0.93661070 0.68902354
0.06766007 0.93638825 0.68905183
0.06706034 0.93528230 0.68917599
0.35803104 0.91426385 0.63120154
0.93792376 0.93495646 0.49727695
1.07042016 0.93203201 0.60002595
1.07056747 0.93009183 0.60693429
1.07058339 0.92966115 0.60705929
0.10885060 1.03114103 0.70866954
0.10883997 1.03114310 0.70869332
0.10878361 1.03115286 0.70881715
0.10850761 1.03119263 0.70942677
0.22352471 1.01872746 0.67406407
0.83405268 1.03854962 0.57499931
1.06068152 1.05746258 0.52297989
1.06757196 1.05280760 0.63300222
1.06757033 1.05268232 0.63318871
0.11256053 1.03001901 0.70061077
0.11255066 1.03002242 0.70063422
0.11249578 1.03004274 0.70076228
0.11223644 1.03014137 0.70138603
0.19513994 1.02041747 0.67180320
0.81076150 1.03416702 0.58115373
1.04478579 1.05831404 0.50315325
1.06766786 1.05588922 0.62474115
1.06766561 1.05588677 0.62497838
0.11358548 1.02962851 0.69832167
0.11357445 1.02963208 0.69834666
0.11351932 1.02965344 0.69847807
0.11325673 1.02975286 0.69911046
0.18420663 1.02154771 0.67200976
0.80355887 1.03292990 0.58237032
1.04116757 1.05836239 0.49202903
1.06769132 1.05591677 0.62203051
1.06768908 1.05591432 0.62227145
0.00000000 0.00000000 0.65803411
0.00000000 0.00000000 0.65805125
0.00000000 0.00000000 0.65913761
0.34945229 0.04778757 0.85218371
0.78965084 0.12395115 0.90685833
1.02339428 0.17974100 0.91302666
1.03735189 0.18129087 0.91179337
1.03736204 0.18129557 0.91227426
1.03736530 0.18129714 0.91240506
0.00000000 0.00000000 0.65784566
0.00000000 0.00000000 0.65786178
0.00000000 0.00000000 0.65857144
0.34591918 0.04729728 0.85107757
0.78846685 0.12367897 0.90665438
1.02324137 0.17972486 0.91286656
1.03734826 0.18128867 0.91162045
1.03735842 0.18129353 0.91210127
1.03736114 0.18129510 0.91223316
0.00000000 0.00000000 0.65685793
0.00000000 0.00000000 0.65687505
0.00000000 0.00000000 0.65696167
0.32697303 0.04447955 0.84384239
0.78212466 0.12225323 0.90558530
1.02241910 0.17963304 0.91201104
1.03732808 0.18127580 0.91071173
1.03733827 0.18128098 0.91119506
1.03734136 0.18128255 0.91132772
0.00000000 0.02421819 0.70270127
0.00000000 0.02404518 0.70245762
0.00000000 0.02307064 0.70108529
0.21661117 0.03758900 0.80121940
0.75002231 0.12216733 0.90110881
1.01857749 0.18296214 0.90773196
1.03759491 0.18783825 0.90482728
1.03755550 0.18704898 0.90544765
1.03754526 0.18682938 0.90561767
0.00000000 0.54737619 0.87451714
0.00000000 0.54723517 0.87450577
0.00000000 0.54649095 0.87444909
0.00803691 0.54003997 0.87615185
0.56235054 0.52588282 0.90071102
1.03339230 0.50682031 0.92159060
1.04941257 0.55084721 0.87976372
1.04931620 0.54710327 0.88028209
1.04929021 0.54603470 0.88042587
0.01240041 0.90957924 0.90271759
0.01239196 0.90951908 0.90272549
0.01234556 0.90919873 0.90276510
0.01212258 0.90763511 0.90295780
0.20437757 0.89912601 0.89361794
0.93020381 0.88112668 0.85029837
1.06756012 0.88469397 0.86292258
1.06748626 0.88386499 0.86528252
1.06744770 0.88340707 0.86544522
0.04451136 1.04759340 0.91882247
0.04450449 1.04758007 0.91883455
0.04446862 1.04750827 0.91890282
0.04427573 1.04713748 0.91923123
0.11216832 1.04215412 0.90623726
0.79273300 1.02434357 0.86083778
1.05579904 1.04074799 0.77194247
1.06636853 1.03507134 0.86475477
1.06637771 1.03473786 0.86478897
0.04711659 1.05443829 0.91454048
0.04711378 1.05443911 0.91455649
0.04710027 1.05444686 0.91463891
0.04703461 1.05448318 0.91504046
0.08713422 1.05034700 0.90548922
0.76520729 1.02865746 0.86222397
1.02955180 1.05554541 0.76594077
1.06594678 1.05252664 0.86455669
1.06594718 1.05249521 0.86558633
0.04737792 1.05429301 0.91304688
0.04737497 1.05429485 0.91306295
0.04736077 1.05430260 0.91314806
0.04729366 1.05434015 0.91355444
0.07852899 1.05117324 0.90556873
0.75404890 1.02851947 0.86025356
1.02517794 1.05543952 0.76422266
1.06584088 1.05270456 0.85838625
1.06595167 1.05252317 0.86392009
0.00000000 0.00000000 0.74592965
0.00000000 0.00000000 0.74593570
0.00000000 0.00000000 0.74596594
0.25745598 0.03759683 0.87876062
0.75967861 0.12147388 0.97518408
1.02061836 0.18192864 0.99460085
1.03943705 0.18352885 0.99514148
1.03944182 0.18353451 0.99528129
1.03944372 0.18353639 0.99531703
0.00000000 0.00000000 0.74586401
0.00000000 0.00000000 0.74587006
0.00000000 0.00000000 0.74590015
0.25495086 0.03715963 0.87763256
0.75842967 0.12122088 0.97505573
1.02041912 0.18191797 0.99454938
1.03943546 0.18352728 0.99509634
1.03944023 0.18353294 0.99523620
1.03944198 0.18353482 0.99527195
0.00000000 0.00000000 0.74552193
0.00000000 0.00000000 0.74552783
0.00000000 0.00000000 0.74555792
0.24154731 0.03493646 0.87331419
0.75180174 0.11986999 0.97438281
1.01944576 0.18186256 0.99428375
1.03942719 0.18351818 0.99486087
1.03943197 0.18352383 0.99500098
1.03943292 0.18352509 0.99503707
0.00000000 0.00000000 0.74388799
0.00000000 0.00000000 0.74389404
0.00000000 0.00000000 0.74392426
0.16464042 0.02231760 0.85598578
0.71853682 0.11312933 0.97091821
1.01595240 0.18140604 0.99299098
1.03938631 0.18347326 0.99373145
1.03939159 0.18347892 0.99387381
1.03939304 0.18348080 0.99391081
0.00000000 0.43750077 0.94015153
0.00000000 0.43730927 0.94010949
0.00000000 0.43631135 0.93989141
0.00239342 0.42914681 0.93924912
0.58660047 0.40223732 0.95565389
1.01616646 0.40701982 1.01175595
1.04823442 0.45072722 0.99836367
1.04799218 0.44355680 0.99823837
1.04792471 0.44145555 0.99820861
0.00848511 0.86665728 1.01552286
0.00848091 0.86658983 1.01552324
0.00845942 0.86622957 1.01552312
0.00834872 0.86447340 1.01552440
0.18352681 0.85178165 1.01644091
0.90924762 0.83243351 1.01462992
1.05842136 0.84367312 1.00634476
1.05858949 0.84416106 1.00408077
1.05857337 0.84355927 1.00417972
0.02524308 1.03497286 1.02788882
0.02523614 1.03493394 1.02789100
0.02520143 1.03472816 1.02790359
0.02502889 1.03371822 1.02796612
0.07719587 1.02948844 1.02516883
0.69961923 1.02325211 1.00764248
1.05112141 1.01054566 0.97969155
1.06640219 1.01112397 0.99471801
1.06637669 1.01083726 0.99497574
0.03010711 1.06275048 1.02830137
0.03010591 1.06275048 1.02831034
0.03010173 1.06275375 1.02835797
0.03008353 1.06276701 1.02860540
0.05529500 1.06070539 1.02691102
0.66779480 1.04727237 0.99855521
1.01810951 1.04788247 0.97896943
1.06540383 1.04919706 0.98358129
1.06587149 1.04862487 0.99286309
0.03017488 1.06270111 1.02750917
0.03017488 1.06270213 1.02751821
0.03017040 1.06270478 1.02756297
0.03015248 1.06271804 1.02778155
0.05112422 1.06102512 1.02644998
0.65538294 1.04734540 0.99759112
1.01447797 1.04793406 0.98025205
1.06398758 1.05058200 0.97274105
1.06584496 1.05009395 0.99195418
0.00000000 0.00000000 0.75137215
0.00000000 0.00000000 0.75137215
0.00000000 0.00000000 0.75137215
0.24391340 0.03556976 0.87712587
0.75066363 0.11997032 0.97745294
1.01906651 0.18210445 0.99762414
1.03954195 0.18366830 0.99808047
1.03954195 0.18366830 0.99808047
1.03954195 0.18366830 0.99808047
0.00000000 0.00000000 0.75137215
0.00000000 0.00000000 0.75137215
0.00000000 0.00000000 0.75137215
0.24165075 0.03518531 0.87652318
0.74938256 0.11971656 0.97731144
1.01890449 0.18210068 0.99761866
1.03954195 0.18366830 0.99808047
1.03954195 0.18366830 0.99808047
1.03954195 0.18366830 0.99808047
0.00000000 0.00000000 0.75137215
0.00000000 0.00000000 0.75137215
0.00000000 0.00000000 0.75137215
0.22934443 0.03307597 0.87343614
0.74261462 0.11835945 0.97656574
1.01820764 0.18207807 0.99759045
1.03954195 0.18366830 0.99808047
1.03954195 0.18366830 0.99808047
1.03954195 0.18366830 0.99808047
0.00000000 0.00000000 0.75137215
0.00000000 0.00000000 0.75137215
0.00000000 0.00000000 0.75137215
0.14642724 0.01948431 0.85514636
0.70873348 0.11159713 0.97379089
1.01443151 0.18155872 0.99741807
1.03954195 0.18366830 0.99808047
1.03954195 0.18366830 0.99808047
1.03954195 0.18366830 0.99808047
0.00000000 0.38610467 0.93813428
0.00000000 0.38586961 0.93808968
0.00000000 0.38464965 0.93785542
0.00000000 0.37677448 0.93615567
0.57733764 0.34953435 0.95389612
1.00269757 0.37038114 1.00991007
1.04676159 0.40562385 1.00587100
1.04669191 0.40327814 1.00576416
1.04667118 0.40256634 1.00572918
0.00926838 0.84910985 1.02967570
0.00926504 0.84903225 1.02966546
0.00924675 0.84862203 1.02960937
0.00915553 0.84662215 1.02933782
0.18050344 0.83315656 1.02566459
0.90099579 0.81887398 1.01964050
1.05825956 0.82740264 1.03005431
1.05851644 0.82925359 1.02835445
1.05850318 0.82871615 1.02833089
0.02327448 1.02697436 1.05607306
0.02326948 1.02694198 1.05607571
0.02324208 1.02677091 1.05609387
0.02310714 1.02591194 1.05618222
0.06981839 1.02166073 1.05394145
0.69401236 1.01338977 1.04565408
1.04739822 0.99869990 1.03485537
1.06338852 1.00154649 1.03071866
1.06338015 1.00123657 1.03081728
0.02824894 1.06414184 1.05927690
0.02824894 1.06414306 1.05929363
0.02824525 1.06414551 1.05938382
0.02823036 1.06415877 1.05982455
0.05088534 1.06187372 1.05880149
0.63847671 1.04827077 1.04036216
1.01291368 1.04373795 1.02302220
1.06484373 1.04145494 1.02087068
1.06569479 1.04173452 1.02700842
0.02829746 1.06409919 1.05787576
0.02829731 1.06410042 1.05788861
0.02829524 1.06410184 1.05795615
0.02828374 1.06411225 1.05828547
0.04670027 1.06258154 1.05736158
0.63372911 1.04910172 1.03744295
1.00571651 1.04827471 1.02005324
1.06285046 1.04940984 1.01351667
1.06599187 1.04922356 1.02594214
0.00000000 0.00000000 0.75137215
0.00000000 0.00000000 0.75137215
0.00000000 0.00000000 0.75137215
0.24029520 0.03497249 0.87597455
0.74837708 0.11953336 0.97718724
1.01874897 0.18209660 0.99761211
1.03954195 0.18366830 0.99808047
1.03954195 0.18366830 0.99808047
1.03954195 0.18366830 0.99808047
0.00000000 0.00000000 0.75137215
0.00000000 0.00000000 0.75137215
0.00000000 0.00000000 0.75137215
0.23802527 0.03458612 0.87535468
0.74709126 0.11927849 0.97704362
1.01859760 0.18209205 0.99760676
1.03954195 0.18366830 0.99808047
1.03954195 0.18366830 0.99808047
1.03954195 0.18366830 0.99808047
0.00000000 0.00000000 0.75137215
0.00000000 0.00000000 0.75137215
0.00000000 0.00000000 0.75137215
0.22566159 0.03247981 0.87225249
0.74029982 0.11791837 0.97635854
1.01796294 0.18206975 0.99757842
1.03954195 0.18366830 0.99808047
1.03954195 0.18366830 0.99808047
1.03954195 0.18366830 0.99808047
0.00000000 0.00000000 0.75137215
0.00000000 0.00000000 0.75137215
0.00000000 0.00000000 0.75137215
0.14130764 0.01853072 0.85361910
0.70625584 0.11113919 0.97355729
1.01406946 0.18150019 0.99740121
1.03954195 0.18366830 0.99808047
1.03954195 0.18366830 0.99808047
1.03954195 0.18366830 0.99808047
0.00000000 0.36898926 0.93492934
0.00000000 0.36870195 0.93487509
0.00000000 0.36721121 0.93459474
0.00000000 0.35776141 0.93266295
0.57837596 0.32423350 0.95490059
1.00118931 0.36463854 1.00938962
1.04660175 0.40038590 1.00561096
1.04652300 0.39794807 1.00549741
1.04650005 0.39720761 1.00545964
0.00908281 0.84402008 1.02919450
0.00908000 0.84394175 1.02918257
0.00906261 0.84352464 1.02912091
0.00897082 0.84149247 1.02882088
0.17882498 0.82865144 1.02480384
0.89992631 0.81444352 1.01939113
1.05814223 0.82309288 1.02992644
1.05841912 0.82524473 1.02819457
1.05840585 0.82469529 1.02816821
0.02285656 1.02439501 1.06367560
0.02285158 1.02435639 1.06366887
0.02282582 1.02415072 1.06363112
0.02269881 1.02313490 1.06344647
0.06748720 1.01841126 1.05981761
0.69984695 1.00930128 1.04891848
1.04665254 0.99606527 1.04041633
1.06300900 0.99895426 1.03549678
1.06302349 0.99874483 1.03559479
0.02787415 1.06446993 1.07008839
0.02787312 1.06446993 1.07010512
0.02787018 1.06447279 1.07019347
0.02779592 1.06406471 1.07054013
0.04951862 1.06066499 1.06893617
0.62882515 1.04787502 1.04926338
1.00973056 1.04161806 1.03294466
1.06431751 1.03914949 1.03022842
1.06534404 1.03982729 1.03475605
0.02793167 1.06441872 1.06841954
0.02793167 1.06442015 1.06843097
0.02792961 1.06442158 1.06849748
0.02791754 1.06443198 1.06882109
0.04546701 1.06295534 1.06799677
0.62823096 1.04937343 1.04705467
0.99959703 1.04907688 1.03104193
1.06240443 1.04905875 1.02431704
1.06602003 1.04902298 1.03419726
