public/luts/Shot_by_Alice_Sony_LUT-DUSK.cube
TITLE "Shot_by_Alice_Sony_LUT-DUSK"
LUT_3D_SIZE 5
# MLUTS-Log3/Sony S-Gamut3.cine -> LA - Shot_by_Alice_Sony_LUT-DUSK/LA - Shot_by_Alice_Sony_LUT-DUSK, CineEI Shift 0.00, Black Level -5.74% IRE, Input 109% -> Output 100% - Created with LUTCalc v4.09 by Ben Turley February 2025
0.00000000 0.00000000 0.00000000
0.09439845 0.00000000 0.00000000
0.76497985 0.00000000 0.00000000
1.03719315 0.00000000 0.03550072
1.03723998 0.00000000 0.04546828
0.00000000 0.06667779 0.00000000
0.05940698 0.06425823 0.00000000
0.76248798 0.04631437 0.00000000
1.03709246 0.00000000 0.00993864
1.03714520 0.00000000 0.02310855
0.13623859 0.62379620 0.16551326
0.13607794 0.62326764 0.16533532
0.63454431 0.66805282 0.07224852
1.07226562 0.64911993 0.00000000
1.07205692 0.64598051 0.00000000
0.22774283 0.95157213 0.26200958
0.22774283 0.95157213 0.26200958
0.33866027 0.96823958 0.23090913
1.06590439 1.03994675 0.12343740
1.09018265 1.03776800 0.11313419
0.22774283 0.95157213 0.26200958
0.22774283 0.95157213 0.26200958
0.32250744 0.96712283 0.24546099
1.03674740 1.04358866 0.12796329
1.09018265 1.03776800 0.11313419
0.00000000 0.00000000 0.04003959
0.08427868 0.00000000 0.08239072
0.74559019 0.00000000 0.13346126
1.03591665 0.00000000 0.17376198
1.03580853 0.00000000 0.17963810
0.00000000 0.04866843 0.08426444
0.02972415 0.04161673 0.05526612
0.74127503 0.00000000 0.10430941
1.03614187 0.00000000 0.16232723
1.03603239 0.00000000 0.16866955
0.13503993 0.61983846 0.16417427
0.13487620 0.61929607 0.16399162
0.63360751 0.66309787 0.07113578
1.07195065 0.64445098 0.00000000
1.07172958 0.64081730 0.00000000
0.22774283 0.95157213 0.26200958
0.22774283 0.95157213 0.26200958
0.33788129 0.96805946 0.23143706
1.06512252 1.04001540 0.12373860
1.09018265 1.03776800 0.11313419
0.22774283 0.95157213 0.26200958
0.22774283 0.95157213 0.26200958
0.32141795 0.96686707 0.24560633
1.03606653 1.04369489 0.12805248
1.09018265 1.03776800 0.11313419
0.00000000 0.00000000 0.56950165
0.00000000 0.00000000 0.56366039
0.72020582 0.00000000 0.64862689
1.02720751 0.00000000 0.66250166
1.02721685 0.00000000 0.66362902
0.00000000 0.00000000 0.56747504
0.00000000 0.00000000 0.56680792
0.71336704 0.00000000 0.64597296
1.02719117 0.00000000 0.66052764
1.02719993 0.00000000 0.66155809
0.00000000 0.60644027 0.61304551
0.00000000 0.60576091 0.61341879
0.59747035 0.58783301 0.59834057
1.06993580 0.56281254 0.59931891
1.06965242 0.55847590 0.60071836
0.16530994 0.98927820 0.58139660
0.16524497 0.98928954 0.58154402
0.36686430 0.96706486 0.59419317
1.03764903 1.03708673 0.58572428
1.08733837 1.03320038 0.57676230
0.16971590 0.98751619 0.57067332
0.16965736 0.98755190 0.57083433
0.33617789 0.97112244 0.58394868
1.00449385 1.04370509 0.57315601
1.08705157 1.03658088 0.56261430
0.00000000 0.00000000 0.92061350
0.00000000 0.00000000 0.92065938
0.67892549 0.00000000 0.99982405
1.03190088 0.00000000 1.03130783
1.03191062 0.00000000 1.03148302
0.00000000 0.00000000 0.92009411
0.00000000 0.00000000 0.92014015
0.67203083 0.00000000 0.99827790
1.03188504 0.00000000 1.03102081
1.03189479 0.00000000 1.03120200
0.00000000 0.41385180 1.03427661
0.00000000 0.41277457 1.03406944
0.48743659 0.39695489 0.87655395
1.04986317 0.33622225 1.02587045
1.04931064 0.32329521 1.02624494
0.03008931 0.99953065 1.00997800
0.02991309 0.99926666 1.01022104
0.19400828 0.97303352 0.98712164
1.01833511 0.99691433 1.00194928
1.08495563 0.99516737 1.00124049
0.04835588 1.03371458 0.98772285
0.04831915 1.03371591 0.98786369
0.17297652 1.01853709 0.97159928
0.99243298 1.03996122 0.99930344
1.08048549 1.04603876 0.99635171
0.00000000 0.00000000 0.92784321
0.00000000 0.00000000 0.92784321
0.66899171 0.00000000 1.00126275
1.03207098 0.00000000 1.03495633
1.03207098 0.00000000 1.03495633
0.00000000 0.00000000 0.92784321
0.00000000 0.00000000 0.92784321
0.66168803 0.00000000 1.00004431
1.03207098 0.00000000 1.03495633
1.03207098 0.00000000 1.03495633
0.00000000 0.35198117 1.02895223
0.00000000 0.35039696 1.02851991
0.50370680 0.31415768 0.90544568
1.04674736 0.26172704 1.04171828
1.04679068 0.25692127 1.04170023
0.01518114 0.98032313 1.07312004
0.01513098 0.97995735 1.07315504
0.16903220 0.95199338 1.04646345
1.00743525 0.97866829 1.04595456
1.08150892 0.98026979 1.05611310
0.02654612 1.03360115 1.06354257
0.02650890 1.03360014 1.06370688
0.13524690 1.01868969 1.04579934
0.97904120 1.03740069 1.04239929
1.07925166 1.04658011 1.05325023
