public/luts/Shot_by_Alice_Sony_LUT-DUSK.cube
TITLE "Shot_by_Alice_Sony_LUT-DUSK"
LUT_3D_SIZE 33
# MLUTS-Log3/Sony S-Gamut3.cine -> LA - Shot_by_Alice_Sony_LUT-DUSK/LA - Shot_by_Alice_Sony_LUT-DUSK, CineEI Shift 0.00, Black Level -5.74% IRE, Input 109% -> Output 100% - Created with LUTCalc v4.09 by Ben Turley February 2025
0.00000000 0.00000000 0.00000000
0.00000000 0.00000000 0.00000000
0.00000000 0.00000000 0.00000000
0.00000000 0.00000000 0.00000000
0.00000000 0.00000000 0.00000000
0.00000000 0.00000000 0.00000000
0.00251842 0.00000000 0.00000000
0.04386566 0.00000000 0.00000000
0.09439845 0.00000000 0.00000000
0.15932491 0.00000000 0.00000000
0.23519869 0.00000000 0.00000000
0.32107376 0.00000000 0.00000000
0.40890176 0.00000000 0.00000000
0.50123547 0.00000000 0.00000000
0.58944711 0.00000000 0.00000000
0.67860621 0.00000000 0.00000000
0.76497985 0.00000000 0.00000000
0.85111151 0.00000000 0.00000000
0.92994472 0.00000000 0.00000000
1.00399686 0.00000000 0.00000000
1.02613067 0.00000000 0.00608123
1.03475341 0.00000000 0.01562416
1.03714626 0.00000000 0.02339491
1.03717320 0.00000000 0.03022542
1.03719315 0.00000000 0.03550072
1.03720700 0.00000000 0.03878274
1.03721751 0.00000000 0.04097617
1.03722305 0.00000000 0.04216586
1.03722840 0.00000000 0.04317353
1.03723079 0.00000000 0.04365979
1.03723330 0.00000000 0.04416882
1.03723664 0.00000000 0.04481679
1.03723998 0.00000000 0.04546828
0.00000000 0.00000000 0.00000000
0.00000000 0.00000000 0.00000000
0.00000000 0.00000000 0.00000000
0.00000000 0.00000000 0.00000000
0.00000000 0.00000000 0.00000000
0.00000000 0.00000000 0.00000000
0.00187156 0.00000000 0.00000000
0.04349569 0.00000000 0.00000000
0.09405922 0.00000000 0.00000000
0.15902757 0.00000000 0.00000000
0.23500659 0.00000000 0.00000000
0.32089242 0.00000000 0.00000000
0.40878321 0.00000000 0.00000000
0.50112742 0.00000000 0.00000000
0.58936824 0.00000000 0.00000000
0.67852881 0.00000000 0.00000000
0.76492220 0.00000000 0.00000000
0.85105768 0.00000000 0.00000000
0.92993765 0.00000000 0.00000000
1.00399378 0.00000000 0.00000000
1.02612913 0.00000000 0.00582542
1.03475229 0.00000000 0.01535681
1.03714546 0.00000000 0.02315140
1.03717241 0.00000000 0.02998719
1.03719215 0.00000000 0.03525868
1.03720581 0.00000000 0.03860354
1.03721649 0.00000000 0.04079735
1.03722226 0.00000000 0.04198911
1.03722745 0.00000000 0.04298942
1.03722983 0.00000000 0.04345811
1.03723235 0.00000000 0.04396678
1.03723569 0.00000000 0.04461657
1.03723903 0.00000000 0.04526696
0.00000000 0.00000000 0.00000000
0.00000000 0.00000000 0.00000000
0.00000000 0.00000000 0.00000000
0.00000000 0.00000000 0.00000000
0.00000000 0.00000000 0.00000000
0.00000000 0.00000000 0.00000000
0.00132347 0.00000000 0.00000000
0.04304052 0.00000000 0.00000000
0.09365800 0.00000000 0.00000000
0.15865260 0.00000000 0.00000000
0.23473283 0.00000000 0.00000000
0.32068177 0.00000000 0.00000000
0.40860846 0.00000000 0.00000000
0.50101204 0.00000000 0.00000000
0.58926022 0.00000000 0.00000000
0.67844988 0.00000000 0.00000000
0.76484303 0.00000000 0.00000000
0.85100385 0.00000000 0.00000000
0.92987864 0.00000000 0.00000000
1.00398730 0.00000000 0.00000000
1.02612584 0.00000000 0.00554734
1.03475071 0.00000000 0.01508357
1.03714467 0.00000000 0.02288100
1.03717162 0.00000000 0.02973546
1.03719136 0.00000000 0.03500811
1.03720481 0.00000000 0.03841827
1.03721530 0.00000000 0.04061648
1.03722123 0.00000000 0.04180921
1.03722649 0.00000000 0.04281168
1.03722888 0.00000000 0.04327362
1.03723139 0.00000000 0.04376462
1.03723473 0.00000000 0.04441381
1.03723807 0.00000000 0.04506598
0.00000000 0.00000000 0.00000000
0.00000000 0.00000000 0.00000000
0.00000000 0.00000000 0.00000000
0.00000000 0.00000000 0.00000000
0.00000000 0.00000000 0.00000000
0.00000000 0.00000000 0.00000000
0.00000000 0.00000000 0.00000000
0.04079377 0.00000000 0.00000000
0.09143300 0.00000000 0.00000000
0.15677908 0.00000000 0.00000000
0.23346700 0.00000000 0.00000000
0.31952261 0.00000000 0.00000000
0.40782422 0.00000000 0.00000000
0.50031371 0.00000000 0.00000000
0.58874780 0.00000000 0.00000000
0.67795175 0.00000000 0.00000000
0.76446893 0.00000000 0.00000000
0.85065584 0.00000000 0.00000000
0.92986736 0.00000000 0.00000000
1.00397699 0.00000000 0.00000000
1.02611591 0.00000000 0.00379963
1.03473999 0.00000000 0.01330232
1.03713814 0.00000000 0.02128948
1.03716534 0.00000000 0.02816556
1.03718550 0.00000000 0.03343782
1.03719922 0.00000000 0.03720746
1.03720966 0.00000000 0.03944332
1.03721559 0.00000000 0.04064669
1.03722047 0.00000000 0.04163822
1.03722244 0.00000000 0.04208643
1.03722465 0.00000000 0.04256222
1.03722799 0.00000000 0.04316112
1.03723133 0.00000000 0.04380730
0.00000000 0.00000000 0.00000000
0.00000000 0.00000000 0.00000000
0.00000000 0.00000000 0.00000000
0.00000000 0.00000000 0.00000000
0.00000000 0.00000000 0.00000000
0.00000000 0.00000000 0.00000000
0.00000000 0.00000000 0.00000000
0.03777642 0.00000000 0.00000000
0.08875025 0.00000000 0.00000000
0.15401557 0.00000000 0.00000000
0.23161082 0.00000000 0.00000000
0.31796414 0.00000000 0.00000000
0.40662346 0.00000000 0.00000000
0.49946047 0.00000000 0.00000000
0.58799006 0.00000000 0.00000000
0.67737581 0.00000000 0.00000000
0.76391546 0.00000000 0.00000000
0.85026434 0.00000000 0.00000000
0.92946516 0.00000000 0.00000000
1.00397339 0.00000000 0.00000000
1.02611207 0.00000000 0.00088882
1.03472866 0.00000000 0.01128975
1.03712981 0.00000000 0.01924675
1.03715796 0.00000000 0.02635082
1.03717838 0.00000000 0.03161318
1.03719263 0.00000000 0.03541636
1.03720333 0.00000000 0.03810685
1.03720927 0.00000000 0.03932383
1.03721414 0.00000000 0.04032659
1.03721612 0.00000000 0.04076474
1.03721820 0.00000000 0.04122664
1.03722097 0.00000000 0.04180430
1.03722373 0.00000000 0.04240014
0.00000000 0.00000000 0.00000000
0.00000000 0.00000000 0.00000000
0.00000000 0.00000000 0.00000000
0.00000000 0.00000000 0.00000000
0.00000000 0.00000000 0.00000000
0.00000000 0.00000000 0.00000000
0.00000000 0.00000000 0.00000000
0.03111588 0.00000000 0.00000000
0.08273554 0.00000000 0.00000000
0.14895598 0.00000000 0.00000000
0.22776794 0.00000000 0.00000000
0.31481328 0.00000000 0.00000000
0.40460037 0.00000000 0.00000000
0.49784551 0.00000000 0.00000000
0.58689206 0.00000000 0.00000000
0.67642292 0.00000000 0.00000000
0.76316503 0.00000000 0.00000000
0.84959390 0.00000000 0.00000000
0.92952571 0.00000000 0.00000000
1.00405434 0.00000000 0.00000000
1.02609534 0.00000000 0.00000000
1.03471143 0.00000000 0.00792070
1.03711729 0.00000000 0.01609449
1.03714557 0.00000000 0.02319550
1.03716695 0.00000000 0.02860709
1.03718144 0.00000000 0.03236139
1.03719236 0.00000000 0.03532076
1.03719830 0.00000000 0.03694787
1.03720328 0.00000000 0.03805313
1.03720544 0.00000000 0.03850084
1.03720753 0.00000000 0.03895855
1.03721029 0.00000000 0.03955267
1.03721306 0.00000000 0.04012513
0.00000000 0.00000000 0.00000000
0.00000000 0.00000000 0.00000000
0.00000000 0.00000000 0.00000000
0.00000000 0.00000000 0.00000000
0.00000000 0.00000000 0.00000000
0.00000000 0.00000000 0.00000000
0.00000000 0.00000000 0.00000000
0.02624019 0.00000000 0.00000000
0.07430000 0.00000000 0.00000000
0.14092342 0.00000000 0.00000000
0.22268308 0.00000000 0.00000000
0.30989927 0.00000000 0.00000000
0.40144276 0.00000000 0.00000000
0.49565779 0.00000000 0.00000000
0.58509139 0.00000000 0.00000000
0.67530103 0.00000000 0.00000000
0.76213463 0.00000000 0.00000000
0.84883647 0.00000000 0.00000000
0.92890305 0.00000000 0.00000000
1.00427095 0.00000000 0.00000000
1.02631132 0.00000000 0.00000000
1.03468934 0.00000000 0.00423469
1.03710179 0.00000000 0.01222604
1.03713158 0.00000000 0.01963190
1.03715308 0.00000000 0.02501918
1.03716853 0.00000000 0.02891754
1.03717970 0.00000000 0.03183944
1.03718564 0.00000000 0.03349298
1.03719062 0.00000000 0.03483908
1.03719300 0.00000000 0.03544350
1.03719526 0.00000000 0.03606182
1.03719803 0.00000000 0.03685332
1.03720080 0.00000000 0.03755886
0.00000000 0.03141486 0.00000000
0.00000000 0.03138331 0.00000000
0.00000000 0.03134660 0.00000000
0.00000000 0.03114579 0.00000000
0.00000000 0.03087826 0.00000000
0.00000000 0.03022236 0.00000000
0.00000000 0.02766689 0.00000000
0.01990298 0.02673744 0.00000000
0.06721085 0.02657729 0.00000000
0.13193264 0.02909972 0.00000000
0.21492608 0.02702250 0.00000000
0.30452096 0.02555747 0.00000000
0.39817227 0.02123276 0.00000000
0.49383966 0.01533600 0.00000000
0.58430290 0.00628709 0.00000000
0.67501056 0.00000000 0.00000000
0.76206714 0.00000000 0.00000000
0.84887566 0.00000000 0.00000000
0.92833571 0.00000000 0.00000000
1.00395728 0.00000000 0.00000000
1.02637420 0.00000000 0.00000000
1.03473660 0.00000000 0.00000000
1.03707481 0.00000000 0.00576916
1.03710465 0.00000000 0.01290202
1.03712703 0.00000000 0.01847915
1.03714253 0.00000000 0.02232971
1.03715482 0.00000000 0.02539797
1.03716108 0.00000000 0.02703975
1.03716618 0.00000000 0.02838470
1.03716869 0.00000000 0.02899126
1.03717117 0.00000000 0.02960505
1.03717413 0.00000000 0.03042492
1.03717690 0.00000000 0.03118212
0.00000000 0.06667779 0.00000000
0.00000000 0.06664860 0.00000000
0.00000000 0.06661584 0.00000000
0.00000000 0.06642405 0.00000000
0.00000000 0.06619217 0.00000000
0.00000000 0.06581306 0.00000000
0.00000000 0.06509638 0.00000000
0.01533207 0.06411630 0.00000000
0.05940698 0.06425823 0.00000000
0.12405813 0.06692845 0.00000000
0.20660037 0.07304074 0.00000000
0.29512864 0.07270740 0.00000000
0.39412889 0.07503431 0.00000000
0.49137242 0.07092614 0.00000000
0.58340454 0.06749850 0.00000000
0.67522925 0.05771293 0.00000000
0.76248798 0.04631437 0.00000000
0.84947996 0.04133161 0.00000000
0.92865784 0.01932804 0.00000000
1.00361789 0.00441716 0.00000000
1.02606960 0.00000000 0.00000000
1.03468454 0.00000000 0.00000000
1.03703827 0.00000000 0.00000000
1.03707003 0.00000000 0.00464426
1.03709246 0.00000000 0.00993864
1.03710836 0.00000000 0.01384584
1.03712070 0.00000000 0.01688303
1.03712824 0.00000000 0.01876697
1.03713367 0.00000000 0.02015294
1.03713645 0.00000000 0.02081878
1.03713906 0.00000000 0.02145147
1.03714224 0.00000000 0.02231709
1.03714520 0.00000000 0.02310855
0.00000000 0.11580121 0.00186992
0.00000000 0.11577845 0.00186182
0.00000000 0.11575100 0.00185248
0.00000000 0.11560924 0.00180241
0.00000000 0.11540661 0.00173172
0.00000000 0.11513756 0.00163649
0.00000000 0.11474555 0.00150060
0.00000000 0.11353430 0.00000000
0.04453541 0.11366921 0.00000000
0.11475251 0.11716658 0.00000000
0.19783702 0.12287242 0.00000000
0.28362796 0.13024798 0.00000000
0.38326117 0.13356607 0.00000000
0.48422232 0.13657913 0.00000000
0.57712517 0.13577256 0.00000000
0.67085934 0.13248741 0.00000000
0.75957234 0.12377354 0.00000000
0.84695522 0.11124828 0.00000000
0.92818444 0.09602043 0.00000000
1.00297059 0.07216266 0.00000000
1.02830460 0.05237734 0.00000000
1.03672842 0.02615283 0.00000000
1.03901653 0.01360034 0.00000000
1.03905748 0.01364865 0.00000000
1.03899843 0.01174286 0.00000000
1.03901889 0.01176570 0.00003752
1.03900088 0.01104852 0.00293157
1.03900491 0.01093641 0.00482058
1.03900467 0.01076463 0.00608863
1.03900201 0.01063294 0.00657760
1.03900013 0.01051578 0.00711107
1.03899041 0.01021962 0.00763960
1.03899450 0.01022435 0.00845745
0.01177190 0.18114276 0.02042051
0.01176765 0.18112600 0.02041503
0.01176170 0.18110406 0.02040840
0.01173216 0.18099836 0.02037608
0.01169095 0.18084927 0.02033121
0.01163071 0.18062909 0.02026397
0.01155676 0.18035959 0.02018242
0.01111520 0.17885898 0.01673244
0.01652180 0.17691550 0.01084312
0.08710738 0.18032825 0.00425352
0.18741309 0.18736087 0.00000000
0.27199176 0.19406789 0.00000000
0.36983388 0.20362213 0.00000000
0.46974351 0.20738434 0.00000000
0.56571862 0.21298643 0.00000000
0.66054305 0.21236636 0.00000000
0.75149528 0.21027422 0.00000000
0.84088640 0.20219880 0.00000000
0.92362928 0.19429210 0.00000000
1.00152860 0.17933954 0.00000000
1.02888765 0.16586145 0.00000000
1.04168533 0.14905451 0.00000000
1.04431054 0.13429164 0.00000000
1.04413081 0.12815572 0.00000000
1.04407035 0.12577329 0.00000000
1.04393238 0.12160556 0.00000000
1.04391609 0.12083133 0.00000000
1.04384629 0.11886859 0.00000000
1.04384073 0.11855316 0.00000000
1.04381462 0.11783338 0.00000000
1.04380689 0.11756350 0.00000000
1.04377132 0.11660236 0.00000000
1.04376231 0.11628618 0.00000000
0.03086550 0.24611020 0.04103248
0.03086132 0.24609551 0.04102831
0.03085675 0.24607864 0.04102368
0.03083023 0.24598902 0.04099995
0.03079485 0.24587047 0.04096938
0.03074480 0.24570037 0.04092389
0.03067752 0.24547068 0.04086416
0.03042811 0.24467523 0.03953032
0.02971529 0.24245019 0.03399094
0.04730637 0.24230863 0.02739814
0.14806242 0.24944057 0.02161190
0.25698412 0.25860025 0.01228792
0.35660162 0.26898564 0.00000000
0.45377800 0.27869108 0.00000000
0.55112246 0.28489790 0.00000000
0.64899720 0.29089719 0.00000000
0.73925650 0.29067730 0.00000000
0.83148418 0.28845109 0.00000000
0.91372416 0.28192400 0.00000000
0.99555218 0.27343015 0.00000000
1.02896044 0.26399323 0.00000000
1.04415151 0.25299376 0.00000000
1.04877761 0.24582996 0.00000000
1.04850539 0.23884675 0.00000000
1.04831877 0.23423754 0.00000000
1.04815985 0.23023153 0.00000000
1.04805597 0.22747345 0.00000000
1.04799144 0.22571612 0.00000000
1.04794260 0.22435674 0.00000000
1.04792072 0.22373604 0.00000000
1.04789946 0.22312782 0.00000000
1.04787270 0.22236272 0.00000000
1.04784262 0.22150101 0.00000000
0.05107265 0.32789362 0.06444274
0.05106960 0.32788308 0.06443865
0.05106589 0.32786811 0.06443338
0.05104909 0.32780190 0.06441028
0.05102359 0.32770295 0.06437767
0.05098846 0.32756604 0.06433006
0.05094269 0.32738633 0.06426938
0.05086811 0.32709489 0.06416947
0.05063694 0.32623809 0.06247698
0.05830309 0.32515187 0.05579485
0.08846578 0.32641021 0.04891295
0.20025894 0.33533195 0.04072078
0.33653403 0.34733600 0.02409581
0.43203419 0.35583378 0.00102714
0.53552416 0.36120458 0.00000000
0.63366038 0.36644324 0.00000000
0.72356199 0.37140902 0.00000000
0.81565396 0.37119880 0.00000000
0.89923623 0.36775660 0.00000000
0.98132613 0.36209428 0.00000000
1.02355873 0.35541568 0.00000000
1.04758596 0.34723976 0.00000000
1.05299576 0.34155757 0.00000000
1.05284372 0.33690642 0.00000000
1.05257442 0.33263062 0.00000000
1.05243086 0.33027380 0.00000000
1.05225113 0.32737825 0.00000000
1.05219692 0.32646158 0.00000000
1.05210579 0.32496121 0.00000000
1.05208837 0.32464918 0.00000000
1.05204997 0.32399833 0.00000000
1.05202637 0.32358022 0.00000000
1.05197595 0.32272212 0.00000000
0.07368139 0.40204229 0.09046298
0.07367801 0.40203274 0.09045977
0.07367425 0.40202243 0.09045625
0.07365532 0.40196372 0.09043811
0.07363218 0.40189159 0.09041600
0.07359624 0.40178027 0.09038125
0.07355122 0.40164102 0.09033753
0.07347810 0.40141625 0.09026710
0.07337379 0.40109671 0.09016717
0.07878886 0.40090312 0.08824192
0.09569772 0.40121211 0.08139274
0.14057770 0.40530854 0.06884678
0.27420037 0.41787974 0.05174005
0.40919596 0.42964059 0.03663721
0.51370953 0.43569279 0.00751856
0.61681582 0.44131024 0.00000000
0.70871970 0.44566103 0.00000000
0.79957499 0.45090082 0.00000000
0.88461535 0.44868943 0.00000000
0.96853286 0.44504108 0.00000000
1.01387786 0.43940729 0.00000000
1.04534063 0.43201585 0.00000000
1.05821880 0.42733402 0.00000000
1.05821480 0.42359790 0.00000000
1.05816108 0.42099224 0.00000000
1.05804825 0.41904521 0.00000000
1.05796455 0.41761561 0.00000000
1.05791493 0.41676919 0.00000000
1.05787497 0.41609414 0.00000000
1.05785737 0.41578542 0.00000000
1.05784019 0.41548739 0.00000000
1.05781683 0.41508812 0.00000000
1.05779282 0.41467697 0.00000000
0.09483578 0.47982396 0.11527583
0.09483423 0.47981735 0.11527359
0.09483146 0.47980765 0.11527001
0.09482036 0.47976567 0.11525544
0.09480357 0.47970119 0.11523363
0.09478117 0.47961534 0.11520452
0.09475041 0.47949754 0.11516424
0.09470265 0.47931500 0.11510153
0.09463538 0.47905854 0.11501382
0.09452379 0.47863163 0.11486647
0.09891684 0.47831858 0.11268355
0.13483353 0.48228858 0.10172714
0.21357564 0.49365069 0.08501480
0.35019389 0.50487291 0.06632953
0.48720469 0.51192810 0.04756326
0.58933244 0.51693928 0.01926126
0.69431378 0.51597974 0.00000000
0.78734859 0.52005186 0.00000000
0.87318136 0.52104762 0.00000000
0.95757855 0.51859154 0.00000000
1.01108093 0.51580615 0.00000000
1.04789701 0.51074479 0.00000000
1.06245021 0.50699806 0.00000000
1.06301213 0.50415252 0.00000000
1.06297228 0.50195041 0.00000000
1.06288719 0.50063205 0.00000000
1.06280732 0.49932911 0.00000000
1.06277308 0.49880016 0.00000000
1.06273349 0.49815595 0.00000000
1.06272111 0.49798031 0.00000000
1.06270394 0.49769131 0.00000000
1.06268953 0.49746868 0.00000000
1.06266617 0.49708093 0.00000000
0.11558983 0.55354899 0.14235358
0.11558818 0.55354257 0.14235131
0.11558650 0.55353600 0.14234900
0.11557490 0.55349573 0.14233462
0.11556146 0.55344921 0.14231790
0.11553951 0.55337278 0.14229088
0.11551376 0.55328302 0.14225917
0.11546872 0.55312649 0.14220247
0.11540885 0.55291849 0.14212466
0.11530827 0.55256890 0.14199304
0.11515451 0.55203496 0.14178927
0.13487711 0.55439412 0.13522888
0.20517078 0.56561412 0.11601169
0.28710365 0.57767552 0.09732777
0.42377989 0.58529220 0.07943149
0.56133057 0.59215436 0.05951323
0.66713933 0.59113466 0.02418363
0.77244925 0.59011932 0.00000000
0.86018769 0.59024467 0.00000000
0.94634854 0.59089623 0.00000000
1.00102059 0.58871307 0.00000000
1.04602468 0.58578541 0.00000000
1.06623771 0.58314771 0.00000000
1.06729481 0.58071668 0.00000000
1.06775141 0.57901960 0.00000000
1.06768019 0.57792186 0.00000000
1.06762583 0.57708268 0.00000000
1.06759542 0.57660759 0.00000000
1.06757019 0.57621637 0.00000000
1.06755818 0.57604356 0.00000000
1.06754607 0.57586706 0.00000000
1.06753167 0.57563687 0.00000000
1.06751727 0.57540680 0.00000000
0.13623859 0.62379620 0.16551326
0.13623740 0.62379180 0.16551157
0.13623565 0.62378534 0.16550934
0.13622662 0.62375585 0.16550020
0.13621314 0.62371183 0.16548502
0.13619532 0.62365295 0.16546527
0.13617067 0.62357166 0.16543751
0.13613285 0.62344766 0.16539650
0.13607794 0.62326764 0.16533532
0.13599075 0.62298152 0.16523976
0.13585685 0.62254097 0.16509040
0.13689362 0.62079326 0.15962758
0.15851458 0.62076919 0.14318702
0.23610075 0.63568971 0.12144268
0.36101700 0.66160609 0.09451069
0.49865661 0.66859772 0.07708313
0.63454431 0.66805282 0.07224852
0.73912966 0.66700094 0.03648100
0.84401897 0.66151790 0.00000000
0.93346618 0.66134784 0.00000000
0.99962244 0.65848719 0.00000000
1.04888510 0.65546692 0.00000000
1.07073464 0.65295578 0.00000000
1.07180005 0.65061933 0.00000000
1.07226562 0.64911993 0.00000000
1.07220464 0.64820312 0.00000000
1.07215295 0.64743133 0.00000000
1.07212787 0.64704934 0.00000000
1.07210344 0.64667782 0.00000000
1.07209464 0.64654370 0.00000000
1.07208274 0.64637573 0.00000000
1.07207133 0.64620484 0.00000000
1.07205692 0.64598051 0.00000000
0.15647036 0.69252386 0.18822742
0.15646923 0.69251952 0.18822583
0.15646810 0.69251518 0.18822424
0.15645959 0.69248626 0.18821571
0.15644999 0.69245372 0.18820616
0.15643391 0.69239843 0.18818883
0.15641584 0.69233609 0.18816919
0.15638268 0.69222291 0.18813395
0.15634033 0.69207882 0.18808937
0.15626622 0.69182663 0.18801099
0.15615840 0.69145993 0.18789739
0.15716829 0.68985374 0.18279420
0.16043148 0.68582201 0.16718759
0.19153826 0.68933617 0.14842666
0.31258851 0.71850652 0.11833679
0.43312063 0.74460784 0.09264442
0.56937646 0.74406183 0.08877732
0.70607301 0.74351608 0.08499046
0.81138161 0.73809208 0.04423692
0.91530871 0.73241916 0.00526670
0.98502364 0.72859820 0.00000000
1.04752767 0.72456242 0.00000000
1.07521908 0.72163301 0.00000000
1.07629697 0.71915252 0.00000000
1.07677086 0.71757497 0.00000000
1.07671885 0.71676617 0.00000000
1.07667740 0.71612508 0.00000000
1.07665499 0.71577842 0.00000000
1.07663589 0.71548257 0.00000000
1.07662789 0.71535578 0.00000000
1.07661920 0.71522059 0.00000000
1.07660799 0.71505216 0.00000000
1.07659658 0.71487993 0.00000000
0.17475275 0.75601596 0.20660890
0.17475164 0.75601255 0.20660778
0.17475053 0.75600810 0.20660615
0.17474461 0.75598630 0.20659983
0.17473537 0.75595353 0.20659025
0.17472309 0.75590997 0.20657731
0.17470622 0.75584935 0.20655844
0.17468080 0.75575870 0.20653155
0.17464288 0.75562390 0.20649072
0.17458441 0.75541592 0.20642875
0.17449157 0.75508558 0.20632924
0.17436919 0.75464978 0.20619819
0.17555411 0.75264173 0.20004916
0.19216483 0.75135514 0.18520927
0.27566126 0.76676863 0.16661816
0.39493832 0.79590678 0.13644295
0.50781334 0.82321197 0.10145217
0.64397532 0.82267023 0.09742165
0.77644549 0.81562623 0.09591486
0.88057589 0.80971206 0.05490645
0.96955458 0.80195749 0.02404117
1.03560434 0.79721686 0.01704061
1.07346990 0.79330599 0.00802844
1.08052001 0.79048357 0.00493189
1.08099827 0.78892445 0.00464681
1.08094850 0.78811677 0.00443768
1.08091057 0.78752430 0.00434855
1.08089115 0.78720791 0.00425359
1.08087323 0.78692931 0.00422529
1.08086682 0.78681568 0.00418405
1.08085882 0.78668824 0.00416844
1.08085018 0.78653954 0.00410379
1.08083898 0.78637345 0.00409523
0.19207290 0.81968236 0.22414569
0.19207184 0.81967901 0.22414468
0.19207078 0.81967558 0.22414363
0.19206514 0.81965369 0.22413771
0.19205880 0.81962912 0.22413112
0.19204728 0.81958597 0.22411918
0.19203459 0.81953850 0.22410600
0.19201123 0.81945079 0.22408196
0.19198215 0.81934182 0.22405255
0.19193000 0.81914606 0.22399897
0.19185599 0.81886799 0.22392344
0.19175209 0.81847694 0.22381615
0.19160459 0.81792049 0.22366513
0.20612269 0.81882310 0.21799342
0.27730225 0.82906595 0.20378079
0.36256330 0.84379317 0.18522237
0.47030043 0.87366509 0.14609777
0.58044542 0.89974301 0.11041146
0.71307112 0.89295522 0.10882534
0.84618127 0.88561786 0.10743253
0.93659681 0.87840020 0.07572986
1.01965804 0.87068968 0.04464195
1.05527847 0.86595156 0.03268716
1.07875216 0.86159824 0.02025999
1.08520264 0.85946244 0.01674124
1.08515622 0.85858334 0.01627361
1.08512053 0.85794229 0.01601278
1.08510373 0.85763313 0.01584799
1.08508879 0.85736698 0.01574078
1.08508319 0.85725416 0.01568120
1.08507679 0.85713280 0.01562968
1.08506879 0.85698220 0.01555010
1.08506014 0.85682709 0.01548471
0.20594687 0.86952465 0.23805859
0.20594622 0.86952173 0.23805796
0.20594514 0.86951836 0.23805691
0.20594067 0.86950100 0.23805251
0.20593417 0.86947630 0.23804566
0.20592491 0.86944214 0.23803687
0.20591211 0.86939510 0.23802344
0.20589296 0.86932482 0.23800467
0.20586452 0.86922017 0.23797578
0.20582115 0.86906011 0.23793365
0.20575105 0.86880140 0.23786285
0.20566152 0.86847052 0.23777381
0.20552642 0.86797046 0.23763874
0.20568850 0.86660752 0.23432827
0.23357708 0.86802959 0.21946645
0.31247427 0.88003124 0.20540643
0.43395846 0.91365385 0.18540033
0.54150273 0.94430590 0.14628010
0.65876119 0.96209130 0.12192583
0.79118202 0.95448154 0.12045763
0.90328214 0.94386346 0.11663093
0.98906635 0.93712498 0.08701671
1.04767447 0.93045978 0.06597328
1.07513436 0.92570785 0.05324023
1.08758036 0.92279424 0.04681392
1.08829213 0.92171332 0.04592822
1.08826044 0.92103314 0.04563037
1.08824652 0.92072227 0.04549317
1.08823334 0.92044872 0.04537438
1.08822902 0.92033811 0.04532561
1.08822352 0.92021361 0.04527196
1.08821766 0.92006998 0.04520811
1.08820965 0.91990521 0.04513793
0.21871974 0.91825793 0.25169321
0.21871924 0.91825481 0.25169266
0.21871864 0.91825157 0.25169199
0.21871458 0.91823269 0.25168749
0.21870996 0.91821107 0.25168233
0.21870134 0.91817309 0.25167305
0.21869179 0.91813128 0.25166302
0.21867416 0.91805388 0.25164349
0.21865255 0.91795895 0.25162011
0.21861344 0.91778616 0.25157738
0.21855865 0.91754339 0.25151893
0.21848058 0.91719704 0.25143304
0.21837153 0.91671156 0.25131676
0.21853684 0.91524693 0.24784754
0.21985278 0.91003826 0.23169161
0.25195893 0.91357342 0.21695696
0.38271604 0.94800789 0.20339187
0.50702723 0.98115218 0.18339711
0.62118887 1.00336492 0.15688765
0.73805283 1.02098473 0.13398967
0.85054959 1.01012541 0.12999915
0.95790518 0.99790676 0.12544213
1.01726928 0.99115751 0.10531158
1.06915521 0.98403044 0.09172716
1.08760597 0.98067620 0.08510816
