public/luts/Shot_by_Alice_Sony_LUT-FERN.cube
TITLE "Shot_by_Alice_Sony_LUT-FERN"
LUT_3D_SIZE 33
# MLUTS-Log3/Sony S-Gamut3.cine -> LA - Shot_by_Alice_Sony_LUT-FERN/LA - Shot_by_Alice_Sony_LUT-FERN, CineEI Shift 0.00, Black Level -5.09% IRE, Input 109% -> Output 100% - Created with LUTCalc v4.09 by Ben Turley February 2025
0.00000000 0.00000000 0.00000000
0.00000000 0.00000000 0.00000000
0.00000000 0.00000000 0.00000000
0.00000000 0.00000000 0.00000000
0.00000000 0.00000000 0.00000000
0.00000000 0.00000000 0.00000000
0.00000000 0.00000000 0.00000000
0.00273892 0.00000000 0.00000000
0.03290488 0.00000000 0.00000000
0.08205865 0.00000000 0.00000000
0.16448102 0.00000000 0.00000000
0.25425381 0.00000000 0.00000000
0.33900552 0.00000000 0.00000000
0.45680743 0.00000000 0.00000000
0.53923856 0.00662228 0.00000000
0.63905287 0.02399923 0.00000000
0.72242305 0.03662176 0.00000000
0.80569640 0.04869238 0.00000000
0.86576032 0.05307233 0.00000000
0.91668130 0.05736071 0.00000000
0.94867361 0.05669502 0.00000000
0.96527834 0.05455255 0.00000000
0.96976362 0.05198236 0.00000000
0.97036577 0.04935180 0.00000000
0.97089253 0.04731500 0.00000000
0.97135553 0.04569915 0.00000000
0.97170485 0.04444823 0.00000000
0.97189270 0.04375711 0.00000000
0.97204736 0.04317570 0.00000000
0.97211405 0.04292075 0.00000000
0.97218336 0.04265321 0.00000000
0.97227067 0.04231371 0.00000000
0.97235768 0.04197472 0.00000000
0.00000000 0.00000000 0.00000000
0.00000000 0.00000000 0.00000000
0.00000000 0.00000000 0.00000000
0.00000000 0.00000000 0.00000000
0.00000000 0.00000000 0.00000000
0.00000000 0.00000000 0.00000000
0.00000000 0.00000000 0.00000000
0.00259882 0.00000000 0.00000000
0.03271875 0.00000000 0.00000000
0.08182140 0.00000000 0.00000000
0.16429968 0.00000000 0.00000000
0.25393188 0.00000000 0.00000000
0.33884668 0.00000000 0.00000000
0.45664157 0.00000000 0.00000000
0.53911651 0.00667859 0.00000000
0.63895337 0.02406972 0.00000000
0.72236907 0.03668908 0.00000000
0.80563521 0.04875864 0.00000000
0.86572905 0.05317264 0.00000000
0.91661953 0.05743957 0.00000000
0.94864823 0.05679271 0.00000000
0.96526736 0.05463687 0.00000000
0.96973876 0.05208792 0.00000000
0.97033392 0.04946288 0.00000000
0.97086211 0.04741974 0.00000000
0.97132635 0.04580133 0.00000000
0.97167637 0.04455118 0.00000000
0.97186486 0.04386023 0.00000000
0.97201980 0.04328030 0.00000000
0.97208682 0.04302607 0.00000000
0.97215621 0.04275912 0.00000000
0.97224362 0.04241870 0.00000000
0.97233072 0.04207944 0.00000000
0.00000000 0.00000000 0.00000000
0.00000000 0.00000000 0.00000000
0.00000000 0.00000000 0.00000000
0.00000000 0.00000000 0.00000000
0.00000000 0.00000000 0.00000000
0.00000000 0.00000000 0.00000000
0.00000000 0.00000000 0.00000000
0.00255647 0.00000000 0.00000000
0.03259167 0.00000000 0.00000000
0.08162078 0.00000000 0.00000000
0.16414493 0.00000000 0.00000000
0.25357718 0.00000000 0.00000000
0.33864840 0.00000000 0.00000000
0.45645949 0.00000000 0.00000000
0.53891830 0.00672867 0.00000000
0.63885064 0.02413973 0.00000000
0.72227094 0.03675047 0.00000000
0.80557399 0.04882498 0.00000000
0.86568928 0.05324871 0.00000000
0.91655653 0.05751721 0.00000000
0.94859011 0.05691207 0.00000000
0.96525114 0.05472633 0.00000000
0.96972933 0.05216434 0.00000000
0.97030958 0.04956062 0.00000000
0.97083086 0.04752758 0.00000000
0.97129645 0.04590606 0.00000000
0.97164757 0.04465479 0.00000000
0.97183657 0.04396439 0.00000000
0.97199211 0.04338461 0.00000000
0.97205930 0.04313109 0.00000000
0.97212903 0.04286492 0.00000000
0.97221654 0.04252519 0.00000000
0.97230373 0.04218424 0.00000000
0.00000000 0.00000000 0.00000000
0.00000000 0.00000000 0.00000000
0.00000000 0.00000000 0.00000000
0.00000000 0.00000000 0.00000000
0.00000000 0.00000000 0.00000000
0.00000000 0.00000000 0.00000000
0.00000000 0.00000000 0.00000000
0.00527637 0.00000000 0.00000000
0.03574235 0.00000000 0.00000000
0.08213976 0.00000000 0.00000000
0.16281067 0.00000000 0.00000000
0.25097857 0.00000000 0.00000000
0.33699052 0.00000000 0.00000000
0.45476045 0.00000000 0.00000000
0.53811705 0.00709623 0.00000000
0.63820710 0.02459890 0.00000000
0.72191296 0.03718397 0.00000000
0.80517132 0.04925420 0.00000000
0.86548840 0.05393850 0.00000000
0.91615260 0.05802766 0.00000000
0.94845155 0.05736050 0.00000000
0.96517542 0.05529686 0.00000000
0.96955215 0.05289851 0.00000000
0.97010231 0.05029588 0.00000000
0.97063120 0.04821828 0.00000000
0.97110437 0.04657869 0.00000000
0.97146012 0.04532740 0.00000000
0.97165258 0.04463706 0.00000000
0.97180976 0.04406354 0.00000000
0.97187831 0.04381031 0.00000000
0.97194889 0.04354775 0.00000000
0.97203862 0.04320884 0.00000000
0.97212646 0.04287243 0.00000000
0.00000000 0.00000000 0.00000000
0.00000000 0.00000000 0.00000000
0.00000000 0.00000000 0.00000000
0.00000000 0.00000000 0.00000000
0.00000000 0.00000000 0.00000000
0.00000000 0.00000000 0.00000000
0.00000000 0.00000000 0.00000000
0.00823551 0.00000000 0.00000000
0.03929017 0.00000000 0.00000000
0.08624257 0.00000000 0.00000000
0.16301754 0.00000000 0.00000000
0.24820332 0.00000000 0.00000000
0.33535380 0.00000000 0.00000000
0.45243542 0.00000000 0.00000000
0.53604048 0.00815803 0.00000000
0.63745214 0.02511379 0.00000000
0.72123915 0.03764239 0.00000000
0.80471947 0.04974455 0.00000000
0.86519893 0.05453130 0.00000000
0.91569891 0.05853092 0.00000000
0.94802253 0.05795602 0.00000000
0.96508077 0.05596840 0.00000000
0.96948166 0.05349353 0.00000000
0.96989679 0.05108930 0.00000000
0.97039624 0.04903250 0.00000000
0.97088173 0.04735197 0.00000000
0.97124453 0.04608921 0.00000000
0.97144099 0.04539592 0.00000000
0.97160155 0.04482171 0.00000000
0.97167127 0.04456959 0.00000000
0.97174331 0.04430738 0.00000000
0.97183437 0.04397236 0.00000000
0.97192452 0.04363690 0.00000000
0.00000000 0.00000000 0.00000000
0.00000000 0.00000000 0.00000000
0.00000000 0.00000000 0.00000000
0.00000000 0.00000000 0.00000000
0.00000000 0.00000000 0.00000000
0.00000000 0.00000000 0.00000000
0.00000000 0.00000000 0.00000000
0.00988444 0.00000000 0.00000000
0.04223110 0.00000000 0.00000000
0.08526312 0.00000000 0.00000000
0.16005607 0.00000000 0.00000000
0.24019181 0.00000000 0.00000000
0.33017615 0.00000000 0.00000000
0.44494913 0.00349101 0.00000000
0.53092589 0.01426100 0.00000000
0.63364235 0.03100363 0.00000000
0.72029107 0.03915026 0.00000000
0.80371875 0.05129247 0.00000000
0.86481780 0.05562707 0.00000000
0.91494718 0.05920984 0.00000000
0.94771532 0.05866762 0.00000000
0.96488480 0.05715009 0.00000000
0.96925618 0.05474227 0.00000000
0.96966479 0.05224016 0.00000000
0.97003468 0.05035639 0.00000000
0.97049414 0.04869318 0.00000000
0.97086954 0.04739429 0.00000000
0.97107215 0.04669119 0.00000000
0.97123714 0.04611500 0.00000000
0.97130942 0.04586085 0.00000000
0.97138354 0.04559920 0.00000000
0.97147878 0.04526112 0.00000000
0.97157081 0.04493137 0.00000000
0.00000000 0.00000000 0.00000000
0.00000000 0.00000000 0.00000000
0.00000000 0.00000000 0.00000000
0.00000000 0.00000000 0.00000000
0.00000000 0.00000000 0.00000000
0.00000000 0.00000000 0.00000000
0.00000000 0.00000000 0.00000000
0.00431890 0.00000000 0.00000000
0.04385763 0.00000000 0.00000000
0.08849069 0.00000000 0.00000000
0.15696866 0.00021070 0.00000000
0.23301142 0.00572008 0.00000000
0.32534169 0.01236837 0.00000000
0.43308743 0.01987169 0.00000000
0.52254375 0.02818766 0.00000000
0.62828121 0.03885680 0.00000000
0.71647365 0.04508843 0.00000000
0.80255019 0.05334455 0.00000000
0.86412392 0.05756322 0.00000000
0.91412472 0.06000128 0.00000000
0.94696308 0.05945152 0.00000000
0.96471659 0.05805983 0.00000000
0.96911105 0.05606408 0.00000000
0.96938104 0.05365605 0.00000000
0.96974488 0.05169259 0.00000000
0.97007660 0.05020873 0.00000000
0.97042519 0.04893261 0.00000000
0.97063788 0.04819524 0.00000000
0.97080895 0.04760343 0.00000000
0.97088426 0.04734256 0.00000000
0.97096120 0.04707585 0.00000000
0.97105997 0.04673330 0.00000000
0.97115644 0.04639723 0.00000000
0.00000000 0.00000000 0.00000000
0.00000000 0.00000000 0.00000000
0.00000000 0.00000000 0.00000000
0.00000000 0.00000000 0.00000000
0.00000000 0.00000000 0.00000000
0.00000000 0.00000000 0.00000000
0.00000000 0.00377917 0.00000000
0.00000000 0.00986264 0.00000000
0.02944806 0.01157341 0.00000000
0.08390779 0.01564072 0.00000000
0.15519338 0.02211836 0.00000000
0.22550001 0.03075846 0.00000000
0.32162863 0.03906722 0.00000000
0.42356228 0.04628388 0.00000000
0.51564350 0.05418871 0.00000000
0.62283285 0.06068562 0.00000000
0.71224868 0.06410691 0.00000000
0.79933998 0.06940033 0.00000000
0.86228991 0.06611158 0.00000000
0.91071134 0.06873675 0.00000000
0.94598419 0.06299140 0.00000000
0.96411334 0.06150346 0.00000000
0.96874877 0.05934871 0.00000000
0.96902232 0.05785702 0.00000000
0.96925183 0.05594847 0.00000000
0.96957992 0.05419424 0.00000000
0.96981234 0.05288758 0.00000000
0.97000234 0.05207041 0.00000000
0.97016853 0.05140589 0.00000000
0.97022940 0.05112398 0.00000000
0.97030107 0.05083096 0.00000000
0.97037234 0.05046319 0.00000000
0.97047339 0.05010133 0.00000000
0.00000000 0.02295713 0.00822029
0.00000000 0.02293949 0.00821124
0.00000000 0.02291770 0.00819857
0.00000000 0.02279903 0.00813867
0.00000000 0.02272271 0.00779531
0.00000000 0.02254920 0.00677520
0.00000000 0.02306342 0.00531652
0.00000000 0.03031090 0.00000000
0.00809944 0.03801671 0.00000000
0.06485265 0.04204871 0.00000000
0.14914436 0.04847600 0.00000000
0.21859041 0.05727438 0.00000000
0.31742814 0.06700970 0.00000000
0.41574217 0.07485595 0.00000000
0.51076200 0.08326673 0.00000000
0.61708167 0.09187001 0.00000000
0.70760603 0.09513346 0.00000000
0.79527715 0.10047103 0.00000000
0.85956290 0.09100001 0.00000000
0.90588244 0.08538070 0.00000000
0.94186449 0.07615601 0.00000000
0.96339472 0.06716485 0.00000000
0.96813883 0.06470742 0.00000000
0.96851320 0.06201544 0.00000000
0.96874695 0.06061337 0.00000000
0.96894217 0.05937924 0.00000000
0.96917021 0.05851742 0.00000000
0.96925111 0.05799062 0.00000000
0.96939369 0.05746146 0.00000000
0.96942272 0.05723083 0.00000000
0.96947981 0.05697766 0.00000000
0.96951785 0.05650732 0.00000000
0.96959125 0.05604915 0.00000000
0.00000000 0.05561872 0.03204275
0.00000000 0.05560262 0.03203424
0.00000000 0.05558344 0.03202475
0.00000000 0.05548364 0.03197051
0.00000000 0.05534057 0.03190086
0.00000000 0.05515090 0.03155180
0.00000000 0.05486960 0.03049130
0.00000000 0.05787695 0.02851030
0.00000000 0.06387459 0.01063817
0.04268419 0.07393901 0.00000000
0.12484930 0.08043221 0.00000000
0.20801334 0.09065322 0.00000000
0.31387498 0.10594153 0.00000000
0.40880497 0.12036864 0.00000000
0.50652543 0.13111981 0.00000000
0.61232953 0.13975204 0.00000000
0.70516122 0.14270537 0.00000000
0.79358108 0.14516105 0.00000000
0.86072538 0.13894261 0.00000000
0.90804431 0.12936248 0.00000000
0.94347002 0.11865474 0.00000000
0.96487278 0.10463608 0.00000000
0.96962017 0.09621973 0.00000000
0.96998146 0.09200951 0.00000000
0.97003457 0.08834749 0.00000000
0.97022076 0.08644760 0.00000000
0.97028494 0.08473746 0.00000000
0.97034958 0.08388836 0.00000000
0.97039494 0.08316276 0.00000000
0.97040873 0.08282300 0.00000000
0.97042519 0.08247638 0.00000000
0.97043029 0.08198129 0.00000000
0.97046700 0.08159599 0.00000000
0.00000000 0.09446909 0.06042208
0.00000000 0.09445663 0.06041637
0.00000000 0.09444067 0.06040980
0.00000000 0.09436484 0.06037281
0.00000000 0.09425697 0.06032640
0.00000000 0.09409881 0.06025394
0.00000000 0.09390271 0.05997913
0.00000000 0.09657609 0.06028361
0.00000000 0.10190039 0.05952969
0.00743468 0.11556189 0.03813483
0.09142833 0.13379682 0.00982430
0.17970268 0.14318719 0.00986659
0.30830225 0.15521855 0.01254007
0.40243161 0.16582746 0.00710909
0.50286790 0.17424499 0.00141602
0.60788267 0.18120679 0.00000000
0.70419092 0.18414303 0.00000000
0.79492979 0.18680993 0.00000000
0.86376741 0.18247612 0.00000000
0.91851088 0.17683710 0.00000000
0.95292706 0.17117088 0.00000000
0.96995950 0.16494761 0.00000000
0.97378642 0.15882401 0.00000000
0.97344904 0.15480805 0.00000000
0.97346867 0.15215370 0.00000000
0.97325816 0.14981861 0.00000000
0.97331497 0.14855976 0.00000000
0.97321087 0.14744891 0.00000000
0.97323974 0.14684965 0.00000000
0.97320145 0.14642847 0.00000000
0.97320350 0.14611147 0.00000000
0.97315143 0.14553222 0.00000000
0.97315601 0.14512266 0.00000000
0.00000000 0.14549701 0.09343743
0.00000000 0.14548865 0.09342873
0.00000000 0.14547965 0.09341959
0.00000000 0.14542880 0.09336545
0.00000000 0.14536760 0.09329889
0.00000000 0.14527095 0.09319634
0.00000000 0.14515186 0.09306921
0.00000000 0.14589687 0.09334813
0.00000000 0.14912741 0.09504453
0.00000000 0.15835994 0.09576070
0.05787223 0.17058645 0.06741764
0.15479934 0.18429993 0.03746402
0.27943771 0.19817873 0.04018417
0.38986853 0.21549770 0.04295611
0.49721476 0.23151442 0.03795443
0.60196472 0.24629360 0.03175997
0.69999279 0.25193811 0.02200511
0.79392056 0.25664746 0.01191305
0.86560751 0.25129654 0.00000000
0.92583818 0.24402832 0.00000000
0.96200221 0.23530344 0.00000000
0.97521959 0.22561938 0.00000000
0.97821792 0.21885871 0.00000000
0.97781029 0.21266776 0.00000000
0.97753486 0.20839532 0.00000000
0.97733783 0.20483287 0.00000000
0.97719379 0.20235009 0.00000000
0.97710650 0.20081340 0.00000000
0.97703658 0.19962094 0.00000000
0.97700506 0.19908236 0.00000000
0.97697326 0.19855011 0.00000000
0.97693241 0.19787706 0.00000000
0.97688841 0.19714582 0.00000000
0.00000000 0.18951225 0.14392147
0.00000000 0.18950454 0.14391558
0.00000000 0.18949547 0.14390903
0.00000000 0.18944613 0.14387403
0.00000000 0.18938501 0.14382889
0.00000000 0.18928967 0.14375911
0.00000000 0.18917508 0.14367438
0.00000000 0.18893097 0.14347068
0.00000000 0.18965845 0.14361138
0.00000000 0.20183431 0.14849758
0.01778637 0.22668950 0.15297076
0.11531452 0.24960165 0.12055432
0.22715494 0.27822705 0.07285910
0.33863234 0.29371656 0.07545141
0.48624228 0.30553058 0.07817434
0.59204694 0.31360820 0.07325440
0.69450406 0.31789376 0.06616573
0.78941197 0.32090216 0.05900552
0.86670932 0.31930884 0.05041972
0.93315501 0.31627840 0.03739287
0.96852736 0.31187675 0.02959956
0.98211082 0.30705728 0.02402423
0.98529504 0.30373864 0.02082748
0.98493515 0.30087713 0.01893925
0.98460008 0.29833632 0.01782062
0.98443330 0.29667867 0.01684148
0.98427874 0.29487613 0.01653094
0.98421662 0.29415885 0.01605506
0.98414542 0.29319566 0.01595150
0.98412408 0.29293695 0.01576814
0.98409326 0.29250236 0.01570221
0.98406517 0.29215170 0.01545915
0.98402545 0.29156847 0.01538738
0.00000000 0.26285274 0.18066115
0.00000000 0.26284179 0.18065597
0.00000000 0.26283084 0.18065070
0.00000000 0.26276017 0.18061984
0.00000000 0.26268131 0.18058476
0.00000000 0.26254795 0.18052607
0.00000000 0.26239674 0.18045778
0.00000000 0.26207813 0.18030382
0.00000000 0.26161603 0.18006213
0.00000000 0.26844536 0.18209722
0.00000000 0.29218463 0.19155951
0.07332639 0.31070704 0.19163685
0.18458639 0.32506005 0.15783987
0.31196574 0.33704464 0.11764125
0.45070534 0.35178686 0.12094544
0.57634756 0.37128743 0.12403786
0.68324042 0.38180492 0.11589043
0.78144155 0.39124114 0.10648087
0.86459120 0.38851516 0.09664785
0.93687619 0.38455221 0.08676334
0.97300114 0.37578695 0.07981542
0.98838465 0.36595803 0.07416440
0.99863693 0.36000786 0.07114751
0.99808565 0.35574516 0.06929424
0.99763863 0.35282636 0.06799616
0.99723187 0.35074122 0.06706000
0.99693254 0.34923042 0.06636770
0.99676011 0.34836472 0.06596861
0.99662156 0.34767663 0.06564733
0.99655874 0.34736758 0.06550248
0.99649688 0.34706488 0.06535910
0.99641510 0.34666777 0.06517073
0.99633180 0.34626523 0.06497920
0.00000000 0.32884649 0.24230782
0.00000000 0.32884184 0.24230028
0.00000000 0.32883720 0.24229219
0.00000000 0.32880598 0.24224535
0.00000000 0.32877193 0.24219122
0.00000000 0.32871379 0.24210280
0.00000000 0.32864834 0.24199894
0.00000000 0.32852971 0.24181692
0.00000000 0.32835877 0.24152646
0.00000000 0.32807390 0.24091010
0.00000000 0.33092048 0.24379024
0.02488360 0.35448730 0.25010876
0.16200459 0.40225917 0.23568864
0.28792541 0.42597173 0.18751709
0.39736010 0.43803688 0.16164170
0.52531422 0.45369994 0.16382971
0.65967398 0.46540372 0.16409229
0.76256467 0.47163472 0.15793080
0.86168473 0.47070174 0.15154957
0.93855146 0.46865097 0.14474527
0.97702346 0.46364404 0.13811147
1.00205517 0.45744527 0.13154234
1.01165689 0.45346449 0.12795370
1.01162712 0.45048531 0.12569252
1.01131692 0.44827398 0.12407719
1.01106513 0.44684115 0.12304102
1.01083604 0.44550485 0.12211050
1.01073237 0.44489764 0.12167893
1.01062152 0.44423513 0.12122808
1.01058534 0.44402404 0.12107786
1.01053502 0.44372247 0.12087338
1.01048887 0.44344853 0.12067929
1.01042215 0.44304727 0.12040965
0.00000000 0.41798738 0.30359280
0.00000000 0.41797752 0.30358861
0.00000000 0.41796742 0.30358423
0.00000000 0.41790130 0.30355835
0.00000000 0.41782460 0.30352769
0.00000000 0.41770031 0.30347896
0.00000000 0.41755432 0.30342034
0.00000000 0.41730072 0.30332094
0.00000000 0.41696309 0.30318481
0.00000000 0.41640601 0.30289204
0.00000000 0.41556005 0.30236046
0.00000000 0.42717977 0.30034659
0.10845587 0.46677250 0.29493424
0.24805679 0.49348668 0.28169698
0.35467283 0.50247111 0.23771663
0.48708978 0.51020116 0.19792196
0.61630383 0.52089918 0.19834437
0.74245931 0.53398469 0.19876940
0.84580097 0.53389323 0.19197500
0.93297296 0.53209518 0.18502931
0.97786426 0.52637008 0.17961637
1.01105761 0.51998618 0.17464227
1.02354169 0.51641060 0.17214830
1.02377237 0.51410323 0.17082201
1.02379596 0.51256230 0.16992552
1.02363240 0.51161799 0.16937589
1.02350696 0.51089975 0.16895680
1.02343566 0.51049473 0.16871924
1.02337685 0.51016148 0.16852387
1.02335045 0.51001426 0.16843720
1.02332362 0.50986377 0.16834909
1.02328889 0.50966794 0.16823427
1.02325414 0.50947229 0.16811954
0.00000000 0.51048770 0.33931035
0.00000000 0.51048340 0.33930851
0.00000000 0.51047709 0.33930366
0.00000000 0.51044789 0.33929102
0.00000000 0.51040213 0.33925995
0.00000000 0.51034335 0.33923134
0.00000000 0.51026041 0.33917773
0.00000000 0.51013629 0.33911494
0.00000000 0.50995393 0.33900455
0.00000000 0.50966757 0.33885152
0.00000000 0.50923177 0.33852645
0.00000000 0.50793596 0.33650965
0.03378758 0.51389934 0.33219826
0.17137299 0.55143153 0.32370867
0.31814583 0.57865223 0.29054405
0.44571289 0.58911496 0.25089022
0.57229653 0.59469086 0.24785584
0.70297515 0.60813853 0.24835873
0.82072343 0.61616080 0.24837363
0.90936673 0.61573824 0.24006571
0.97837597 0.61137815 0.23453766
1.02005825 0.60506475 0.22711036
1.03186836 0.60043679 0.22237753
1.03303865 0.59724599 0.21978511
1.03307479 0.59534254 0.21827776
1.03296913 0.59422974 0.21742531
1.03287782 0.59329584 0.21669577
1.03283387 0.59283002 0.21634499
1.03278973 0.59238245 0.21599381
1.03277475 0.59221885 0.21587216
1.03275451 0.59201616 0.21571367
1.03273511 0.59180662 0.21556070
1.03270819 0.59153707 0.21534883
0.00000000 0.61557401 0.40733893
0.00000000 0.61556855 0.40733630
0.00000000 0.61556309 0.40733367
0.00000000 0.61552621 0.40731592
0.00000000 0.61548469 0.40729620
0.00000000 0.61541415 0.40726142
0.00000000 0.61533493 0.40722396
0.00000000 0.61519013 0.40715341
0.00000000 0.61500594 0.40706738
0.00000000 0.61468273 0.40690946
0.00000000 0.61421333 0.40668909
0.00000000 0.61267744 0.40397539
0.02788453 0.60899676 0.39663527
0.09862946 0.61432417 0.37697999
0.24831974 0.64040514 0.32841910
0.38950063 0.66354014 0.29961991
0.51973163 0.66914976 0.29774879
0.65956428 0.67464899 0.29579172
0.77373546 0.68287773 0.29580160
0.88560888 0.69059449 0.29578834
0.96751980 0.68744433 0.29275857
1.02107518 0.68232053 0.28928188
1.03971436 0.67820586 0.28628460
1.04362054 0.67474194 0.28384421
1.04489218 0.67264112 0.28235214
1.04478963 0.67168315 0.28170572
1.04470618 0.67092003 0.28118332
1.04466061 0.67050259 0.28089951
1.04462132 0.67014659 0.28065471
1.04460502 0.66999386 0.28055026
1.04458730 0.66983106 0.28043809
1.04456464 0.66962718 0.28029884
1.04454126 0.66941890 0.28015538
0.00000000 0.68468035 0.43103756
0.00000000 0.68467684 0.43103678
0.00000000 0.68467124 0.43103415
0.00000000 0.68464913 0.43102868
0.00000000 0.68460774 0.43100991
0.00000000 0.68456105 0.43099599
0.00000000 0.68448640 0.43096369
0.00000000 0.68438831 0.43093217
0.00000000 0.68422590 0.43086563
0.00000000 0.68399444 0.43078723
0.00000000 0.68360682 0.43063694
0.00000000 0.68273699 0.43015302
0.00000000 0.68025843 0.42645793
0.06105747 0.67948553 0.41689785
0.20165857 0.69472790 0.39028563
0.34274241 0.72011135 0.33494573
0.48643657 0.73599344 0.32284139
0.62103936 0.74077564 0.32135767
0.73671775 0.74646987 0.31661193
0.85834260 0.75335405 0.31660169
0.95245935 0.75539247 0.31693754
1.00731409 0.75152799 0.31492526
1.04067102 0.74808668 0.31436689
1.04753410 0.74511710 0.31339566
1.04862696 0.74333298 0.31264308
1.04858379 0.74255353 0.31236637
1.04853930 0.74195820 0.31212262
1.04852671 0.74165606 0.31201585
1.04850209 0.74136902 0.31189391
1.04849968 0.74126344 0.31185975
1.04848947 0.74113373 0.31180554
1.04848867 0.74099992 0.31176598
1.04847163 0.74082558 0.31168900
0.00000000 0.74924885 0.44993908
0.00000000 0.74924587 0.44993853
0.00000000 0.74924275 0.44993787
0.00000000 0.74922315 0.44993329
0.00000000 0.74920130 0.44992833
0.00000000 0.74916097 0.44991743
0.00000000 0.74911826 0.44990752
0.00000000 0.74903721 0.44988538
0.00000000 0.74894038 0.44986224
0.00000000 0.74875902 0.44981280
0.00000000 0.74851129 0.44975431
0.00000000 0.74782664 0.44940663
0.00000000 0.74637514 0.44854928
0.02658204 0.74678873 0.44379650
0.17064005 0.75654119 0.42810405
0.31986823 0.77044873 0.40270350
0.45715464 0.79040062 0.37231131
0.57911614 0.80872334 0.34631893
0.69857451 0.81666119 0.33962630
0.81498344 0.82487824 0.33418728
0.89968012 0.82773730 0.33452465
0.98862182 0.82886579 0.33495618
1.02965701 0.82500919 0.33476062
1.04790995 0.82088642 0.33512238
1.05281756 0.81838122 0.33483298
1.05286313 0.81736207 0.33468241
1.05285726 0.81657735 0.33452142
1.05286901 0.81621781 0.33445775
1.05286396 0.81589002 0.33438532
1.05286853 0.81575856 0.33436249
1.05286792 0.81561081 0.33433132
1.05287380 0.81543639 0.33430046
1.05287236 0.81524780 0.33426012
0.00000000 0.79158066 0.45893172
0.00000000 0.79157850 0.45893162
0.00000000 0.79157491 0.45893111
0.00000000 0.79156165 0.45892871
0.00000000 0.79153530 0.45892413
0.00000000 0.79150806 0.45891919
0.00000000 0.79145815 0.45891031
0.00000000 0.79139981 0.45889994
0.00000000 0.79129380 0.45888062
0.00000000 0.79115689 0.45885546
0.00000000 0.79090436 0.45880968
0.00000000 0.79059896 0.45875438
0.00000000 0.78951656 0.45831000
0.00000000 0.78732873 0.45659612
0.08292841 0.78962977 0.44786975
0.23605109 0.80300430 0.43254367
0.40922263 0.84020286 0.41123509
0.53088692 0.85803328 0.38263261
0.65678305 0.86817950 0.37016789
0.77076994 0.87262559 0.36028291
0.87115850 0.87601527 0.35767830
0.96478705 0.87659394 0.35849156
1.01847155 0.87668424 0.35745149
1.04053231 0.87481084 0.35777302
1.04888975 0.87331903 0.35772476
1.04922293 0.87265401 0.35733723
1.04925391 0.87221725 0.35712225
1.04927129 0.87202163 0.35700394
1.04928004 0.87184017 0.35690472
1.04928761 0.87177084 0.35686193
1.04929226 0.87168781 0.35681711
1.04930378 0.87159963 0.35676055
1.04930762 0.87150714 0.35670217
0.00000000 0.83431093 0.46562664
0.00000000 0.83430891 0.46562664
0.00000000 0.83430649 0.46562654
0.00000000 0.83429254 0.46562440
0.00000000 0.83427612 0.46562187
0.00000000 0.83424553 0.46561720
0.00000000 0.83421457 0.46561240
0.00000000 0.83415078 0.46560286
0.00000000 0.83408003 0.46559229
0.00000000 0.83393802 0.46557046
0.00000000 0.83375772 0.46554260
0.00000000 0.83346500 0.46549808
0.00000000 0.83310413 0.46544328
0.00000000 0.83136532 0.46415407
0.04557226 0.82676832 0.45892989
0.13989702 0.83147127 0.45027579
0.32088756 0.86439760 0.43322237
0.49193538 0.88499316 0.41193046
0.61504701 0.90103982 0.40153621
0.73305046 0.91987654 0.39298750
0.83652518 0.92594417 0.39051052
0.92364700 0.93167924 0.38948728
0.98206857 0.93187196 0.38829989
1.02953742 0.93155205 0.38605454
1.04276036 0.92931518 0.38559727
