public/luts/Shot_by_Alice_Sony_LUT-FERN.cube
TITLE "Shot_by_Alice_Sony_LUT-FERN"
LUT_3D_SIZE 5
# MLUTS-Log3/Sony S-Gamut3.cine -> LA - Shot_by_Alice_Sony_LUT-FERN/LA - Shot_by_Alice_Sony_LUT-FERN, CineEI Shift 0.00, Black Level -5.09% IRE, Input 109% -> Output 100% - Created with LUTCalc v4.09 by Ben Turley February 2025
0.00000000 0.00000000 0.00000000
0.03290488 0.00000000 0.00000000
0.72242305 0.03662176 0.00000000
0.97089253 0.04731500 0.00000000
0.97235768 0.04197472 0.00000000
0.00000000 0.02295713 0.00822029
0.00809944 0.03801671 0.00000000
0.70760603 0.09513346 0.00000000
0.96874695 0.06061337 0.00000000
0.96959125 0.05604915 0.00000000
0.00000000 0.51048770 0.33931035
0.00000000 0.50995393 0.33900455
0.57229653 0.59469086 0.24785584
1.03307479 0.59534254 0.21827776
1.03270819 0.59153707 0.21534883
0.00000000 0.85657365 0.46939375
0.00000000 0.85657365 0.46939375
0.21181851 0.87375271 0.45413691
1.01896753 0.97394080 0.40753284
1.03467778 0.97430736 0.40721166
0.00000000 0.85657365 0.46939375
0.00000000 0.85657365 0.46939375
0.16363421 0.87199399 0.45909385
0.99284699 0.97344326 0.40782528
1.03467778 0.97430736 0.40721166
0.00000000 0.00000000 0.00000000
0.06265542 0.00000000 0.03462002
0.76992999 0.00000000 0.04063191
1.01964678 0.00000000 0.03792666
1.02107845 0.00000000 0.04388565
0.00000000 0.03877831 0.04327055
0.01798938 0.03317399 0.03493672
0.74054364 0.00000000 0.00000000
1.01695465 0.00000000 0.01714911
1.01944182 0.00000000 0.02942429
0.00000000 0.50659199 0.33721813
0.00000000 0.50605385 0.33693957
0.57082008 0.58976662 0.24590230
1.03289825 0.59031411 0.21684542
1.03257191 0.58638009 0.21422126
0.00000000 0.85657365 0.46939375
0.00000000 0.85657365 0.46939375
0.20940890 0.87358705 0.45430062
1.01833185 0.97392789 0.40754266
1.03467778 0.97430736 0.40721166
0.00000000 0.85657365 0.46939375
0.00000000 0.85657365 0.46939375
0.16233283 0.87176164 0.45918314
0.99192420 0.97342464 0.40783160
1.03467778 0.97430736 0.40721166
0.00000000 0.25706376 0.45853760
0.00097728 0.25832543 0.46421349
0.82233415 0.19497598 0.61038639
1.08527849 0.18737889 0.60280475
1.08553283 0.18793367 0.60408494
0.00000000 0.25517277 0.45632090
0.00000000 0.25517745 0.45762067
0.81164364 0.19359753 0.60753551
1.08492085 0.18635009 0.60041142
1.08517649 0.18689750 0.60170642
0.00000000 0.58612439 0.54425214
0.00000000 0.58596777 0.54503011
0.59336384 0.57331673 0.55403897
1.08707407 0.49701142 0.49308253
1.08696079 0.49293241 0.49419696
0.00000000 0.94275462 0.62592295
0.00000000 0.94277279 0.62600593
0.13282257 0.95877162 0.62678957
1.03686617 1.01748996 0.53733855
1.07045788 1.01423060 0.53020790
0.00000000 0.93955485 0.61926112
0.00000000 0.93958632 0.61935117
0.07906320 0.94597995 0.61541688
1.00203702 1.01609702 0.52856599
1.06754895 1.01463694 0.51837298
0.01709321 0.41968514 0.73552606
0.01709475 0.41969016 0.73553508
0.80971788 0.34402180 0.94785984
1.09018265 0.33974791 0.93935170
1.09018265 0.33977796 0.93948783
0.01707901 0.41962197 0.73542058
0.01708055 0.41962735 0.73542987
0.80104857 0.34422287 0.94772102
1.09018265 0.33969965 0.93913293
1.09018265 0.33972964 0.93927034
0.00000000 0.60780570 0.89030476
0.00000000 0.60706222 0.88981445
0.49923803 0.51998943 0.93176309
1.09018265 0.47888507 0.94105867
1.09018265 0.47557937 0.94076269
0.00000000 0.97900080 0.86691921
0.00000000 0.97917168 0.86718706
0.00000000 0.97591623 0.86800232
1.05714603 1.02545780 0.98269771
1.09018265 1.02069597 0.97847112
0.00000000 0.96779799 0.82783517
0.00000000 0.96788277 0.82808203
0.00000000 0.96279939 0.81898339
1.01819940 1.06835949 0.98048830
1.09018265 1.06844202 0.97793236
0.01730008 0.42058403 0.73701385
0.01730008 0.42058403 0.73701385
0.79633573 0.34550355 0.95015090
1.09018265 0.34029123 0.94178803
1.09018265 0.34029123 0.94178803
0.01730008 0.42058403 0.73701385
0.01730008 0.42058403 0.73701385
0.78652834 0.34608704 0.95007788
1.09018265 0.34029123 0.94178803
1.09018265 0.34029123 0.94178803
0.00000000 0.57085700 0.87352033
0.00000000 0.56998554 0.87300979
0.50574185 0.49166535 0.96570802
1.09018265 0.46240565 0.94888096
1.09018265 0.46069823 0.94860399
0.00000000 0.99347869 0.90382211
0.00000000 0.99354972 0.90432209
0.00000000 0.99062284 0.92395773
1.05083986 1.01730642 1.03434844
1.09018265 1.01321519 1.03195237
0.00000000 0.98658754 0.87502318
0.00000000 0.98659671 0.87503497
0.00000000 0.98556605 0.87497145
0.95692578 1.02343424 0.98377018
1.09018265 1.07232057 1.03890707
