public/luts/Shot_by_Alice_Sony_LUT-FERN.cube
TITLE "Shot_by_Alice_Sony_LUT-FERN"
LUT_3D_SIZE 9
# MLUTS-Log3/Sony S-Gamut3.cine -> LA - Shot_by_Alice_Sony_LUT-FERN/LA - Shot_by_Alice_Sony_LUT-FERN, CineEI Shift 0.00, Black Level -5.09% IRE, Input 109% -> Output 100% - Created with LUTCalc v4.09 by Ben Turley February 2025
0.00000000 0.00000000 0.00000000
0.00000000 0.00000000 0.00000000
0.03290488 0.00000000 0.00000000
0.33900552 0.00000000 0.00000000
0.72242305 0.03662176 0.00000000
0.94867361 0.05669502 0.00000000
0.97089253 0.04731500 0.00000000
0.97204736 0.04317570 0.00000000
0.97235768 0.04197472 0.00000000
0.00000000 0.00000000 0.00000000
0.00000000 0.00000000 0.00000000
0.03929017 0.00000000 0.00000000
0.33535380 0.00000000 0.00000000
0.72123915 0.03764239 0.00000000
0.94802253 0.05795602 0.00000000
0.97039624 0.04903250 0.00000000
0.97160155 0.04482171 0.00000000
0.97192452 0.04363690 0.00000000
0.00000000 0.02295713 0.00822029
0.00000000 0.02272271 0.00779531
0.00809944 0.03801671 0.00000000
0.31742814 0.06700970 0.00000000
0.70760603 0.09513346 0.00000000
0.94186449 0.07615601 0.00000000
0.96874695 0.06061337 0.00000000
0.96939369 0.05746146 0.00000000
0.96959125 0.05604915 0.00000000
0.00000000 0.18951225 0.14392147
0.00000000 0.18938501 0.14382889
0.00000000 0.18965845 0.14361138
0.22715494 0.27822705 0.07285910
0.69450406 0.31789376 0.06616573
0.96852736 0.31187675 0.02959956
0.98460008 0.29833632 0.01782062
0.98414542 0.29319566 0.01595150
0.98402545 0.29156847 0.01538738
0.00000000 0.51048770 0.33931035
0.00000000 0.51040213 0.33925995
0.00000000 0.50995393 0.33900455
0.03378758 0.51389934 0.33219826
0.57229653 0.59469086 0.24785584
0.97837597 0.61137815 0.23453766
1.03307479 0.59534254 0.21827776
1.03278973 0.59238245 0.21599381
1.03270819 0.59153707 0.21534883
0.00000000 0.79158066 0.45893172
0.00000000 0.79153530 0.45892413
0.00000000 0.79129380 0.45888062
0.00000000 0.78951656 0.45831000
0.40922263 0.84020286 0.41123509
0.87115850 0.87601527 0.35767830
1.04888975 0.87331903 0.35772476
1.04928004 0.87184017 0.35690472
1.04930762 0.87150714 0.35670217
0.00000000 0.85657365 0.46939375
0.00000000 0.85657365 0.46939375
0.00000000 0.85657365 0.46939375
0.00000000 0.85657365 0.46939375
0.21181851 0.87375271 0.45413691
0.75910171 0.96255471 0.40889833
1.01896753 0.97394080 0.40753284
1.03467778 0.97430736 0.40721166
1.03467778 0.97430736 0.40721166
0.00000000 0.85657365 0.46939375
0.00000000 0.85657365 0.46939375
0.00000000 0.85657365 0.46939375
0.00000000 0.85657365 0.46939375
0.16997356 0.87286992 0.45848224
0.73273677 0.95992503 0.41087131
0.99971420 0.97356910 0.40778120
1.03467778 0.97430736 0.40721166
1.03467778 0.97430736 0.40721166
0.00000000 0.85657365 0.46939375
0.00000000 0.85657365 0.46939375
0.00000000 0.85657365 0.46939375
0.00000000 0.85657365 0.46939375
0.16363421 0.87199399 0.45909385
0.72487045 0.95913238 0.41145754
0.99284699 0.97344326 0.40782528
1.03467778 0.97430736 0.40721166
1.03467778 0.97430736 0.40721166
0.00000000 0.00000000 0.00000000
0.00000000 0.00000000 0.00000000
0.03877360 0.00000000 0.00000000
0.35231722 0.00000000 0.00000000
0.72739402 0.02193366 0.00000000
0.95427875 0.04168484 0.00000000
0.97523904 0.03164048 0.00000000
0.97743122 0.02410499 0.00000000
0.97801245 0.02183659 0.00000000
0.00000000 0.00000000 0.00000000
0.00000000 0.00000000 0.00000000
0.04194841 0.00000000 0.00000000
0.34664643 0.00000000 0.00000000
0.72538440 0.02405873 0.00000000
0.95310172 0.04350630 0.00000000
0.97447291 0.03403466 0.00000000
0.97651634 0.02745802 0.00000000
0.97713396 0.02516724 0.00000000
0.00000000 0.02272774 0.00921777
0.00000000 0.02262816 0.00901958
0.01015847 0.03624601 0.00000000
0.31756341 0.06378281 0.00000000
0.70867818 0.08419140 0.00000000
0.94380437 0.06571344 0.00000000
0.97142078 0.04876647 0.00000000
0.97258733 0.04367695 0.00000000
0.97299472 0.04188127 0.00000000
0.00000000 0.18858504 0.14323483
0.00000000 0.18846085 0.14314057
0.00000000 0.18869332 0.14290508
0.22682041 0.27640335 0.07230365
0.69412396 0.31704489 0.06562305
0.96829157 0.31081844 0.02998429
0.98457416 0.29618627 0.01759375
0.98410776 0.29038591 0.01581501
0.98398418 0.28852784 0.01527934
0.00000000 0.50985776 0.33894469
0.00000000 0.50977205 0.33889607
0.00000000 0.50932341 0.33864321
0.03338137 0.51328972 0.33200080
0.57205508 0.59389736 0.24736730
0.97830537 0.61069480 0.23400892
1.03300479 0.59460320 0.21771273
1.03271880 0.59163789 0.21542939
1.03263692 0.59079187 0.21478474
0.00000000 0.79124157 0.45887113
0.00000000 0.79119574 0.45886258
0.00000000 0.79095506 0.45881931
0.00000000 0.78917945 0.45824921
0.40883573 0.83976287 0.41115978
0.87109397 0.87576616 0.35746523
1.04892218 0.87304022 0.35756974
1.04930762 0.87154258 0.35672218
1.04933503 0.87125521 0.35651913
0.00000000 0.85657365 0.46939375
0.00000000 0.85657365 0.46939375
0.00000000 0.85657365 0.46939375
0.00000000 0.85657365 0.46939375
0.21144162 0.87372802 0.45416232
0.75891003 0.96253920 0.40890133
1.01886636 0.97393850 0.40753406
1.03467778 0.97430736 0.40721166
1.03467778 0.97430736 0.40721166
0.00000000 0.85657365 0.46939375
0.00000000 0.85657365 0.46939375
0.00000000 0.85657365 0.46939375
0.00000000 0.85657365 0.46939375
0.16973658 0.87285589 0.45851040
0.73254026 0.95990665 0.41088373
0.99959069 0.97356631 0.40778190
1.03467778 0.97430736 0.40721166
1.03467778 0.97430736 0.40721166
0.00000000 0.85657365 0.46939375
0.00000000 0.85657365 0.46939375
0.00000000 0.85657365 0.46939375
0.00000000 0.85657365 0.46939375
0.16346250 0.87195882 0.45910738
0.72467361 0.95911216 0.41147069
0.99269536 0.97343983 0.40782615
1.03467778 0.97430736 0.40721166
1.03467778 0.97430736 0.40721166
0.00000000 0.00000000 0.00000000
0.00000000 0.00000000 0.00000000
0.06265542 0.00000000 0.03462002
0.37307923 0.00000000 0.06870517
0.76992999 0.00000000 0.04063191
0.99008262 0.00000000 0.02633632
1.01964678 0.00000000 0.03792666
1.02079166 0.00000000 0.04257119
1.02107845 0.00000000 0.04388565
0.00000000 0.00000000 0.00000000
0.00000000 0.00000000 0.00000000
0.05874616 0.00000000 0.03292653
0.36918992 0.00000000 0.06722008
0.76859057 0.00000000 0.03891635
0.98937143 0.00000000 0.02339796
1.01936831 0.00000000 0.03607339
1.02053168 0.00000000 0.04070726
1.02082223 0.00000000 0.04204642
0.00000000 0.03877831 0.04327055
0.00000000 0.03850307 0.04321607
0.01798938 0.03317399 0.03493672
0.32783412 0.01375279 0.01792620
0.74054364 0.00000000 0.00000000
0.98377819 0.00000000 0.00000000
1.01695465 0.00000000 0.01714911
1.01895765 0.00000000 0.02683651
1.01944182 0.00000000 0.02942429
0.00000000 0.19223770 0.14894100
0.00000000 0.19214416 0.14889542
0.00000000 0.19121975 0.14813884
0.22784552 0.26961669 0.08903008
0.69296456 0.30894916 0.07255128
0.96742454 0.29743851 0.03759942
0.98444191 0.27129432 0.02501302
0.98396647 0.26088180 0.02278451
0.98384436 0.25780699 0.02214086
0.00000000 0.50659199 0.33721813
0.00000000 0.50650586 0.33717272
0.00000000 0.50605385 0.33693957
0.03136680 0.51017754 0.33137372
0.57082008 0.58976662 0.24590230
0.97800616 0.60688120 0.23276451
1.03289825 0.59031411 0.21684542
1.03264348 0.58725691 0.21479047
1.03257191 0.58638009 0.21422126
0.00000000 0.78945896 0.45854794
0.00000000 0.78941269 0.45853992
0.00000000 0.78917004 0.45849517
0.00000000 0.78740777 0.45793045
0.40682321 0.83740399 0.41075740
0.87075233 0.87439861 0.35634902
1.04908472 0.87151453 0.35667142
1.04945714 0.87021233 0.35575382
1.04948341 0.86992398 0.35555252
0.00000000 0.85657365 0.46939375
0.00000000 0.85657365 0.46939375
0.00000000 0.85657365 0.46939375
0.00000000 0.85657365 0.46939375
0.20940890 0.87358705 0.45430062
0.75789681 0.96245917 0.40891367
1.01833185 0.97392789 0.40754266
1.03467778 0.97430736 0.40721166
1.03467778 0.97430736 0.40721166
0.00000000 0.85657365 0.46939375
0.00000000 0.85657365 0.46939375
0.00000000 0.85657365 0.46939375
0.00000000 0.85657365 0.46939375
0.16847480 0.87275983 0.45865423
0.73149666 0.95980932 0.41095028
0.99896242 0.97355103 0.40778717
1.03467778 0.97430736 0.40721166
1.03467778 0.97430736 0.40721166
0.00000000 0.85657365 0.46939375
0.00000000 0.85657365 0.46939375
0.00000000 0.85657365 0.46939375
0.00000000 0.85657365 0.46939375
0.16233283 0.87176164 0.45918314
0.72365432 0.95899894 0.41154251
0.99192420 0.97342464 0.40783160
1.03467778 0.97430736 0.40721166
1.03467778 0.97430736 0.40721166
0.00000000 0.06896166 0.16067414
0.00000000 0.06905721 0.16107931
0.04274169 0.06923418 0.19916741
0.37982073 0.05413318 0.29334746
0.78253722 0.06091407 0.31376419
1.00978243 0.05308106 0.30756765
1.03277915 0.05239540 0.30830810
1.03293735 0.05336519 0.30969709
1.03298424 0.05364511 0.31008263
0.00000000 0.06860600 0.16006008
0.00000000 0.06865644 0.16021536
0.03749237 0.06901980 0.19367358
0.37585865 0.05363211 0.29231694
0.78135420 0.06067211 0.31327255
1.00932392 0.05273322 0.30705390
1.03271002 0.05203492 0.30778843
1.03286898 0.05299413 0.30918835
1.03291568 0.05327055 0.30957641
0.00000000 0.07698607 0.16457715
0.00000000 0.07691922 0.16455967
0.00000000 0.07448067 0.17256083
0.35146357 0.05773228 0.28365444
0.77363887 0.06066490 0.30954998
1.00680074 0.05145754 0.30401307
1.03232805 0.05020391 0.30499835
1.03249074 0.05111300 0.30646969
1.03253956 0.05137491 0.30687562
0.00000000 0.27707642 0.28617534
0.00000000 0.27686121 0.28612804
0.00000000 0.27534225 0.28556816
0.24610359 0.25340977 0.25020870
0.70080756 0.20913266 0.19576823
0.98584092 0.16320314 0.16850887
1.02862243 0.14257046 0.17665997
1.02898117 0.13745959 0.18253581
1.02904914 0.13599271 0.18425109
0.00000000 0.50826881 0.36511400
0.00000000 0.50818503 0.36503788
0.00000000 0.50773484 0.36463181
0.00000000 0.50048788 0.35492347
0.56732756 0.58126345 0.31788970
0.98347839 0.56940671 0.28183429
1.04476400 0.54527120 0.26402533
1.04463226 0.54139863 0.26280903
1.04459864 0.54031175 0.26247953
0.00000000 0.80896218 0.48883291
0.00000000 0.80893151 0.48884544
0.00000000 0.80877544 0.48891554
0.00000000 0.80780988 0.48919817
0.37782135 0.83237613 0.45023086
0.86966711 0.87084987 0.38178553
1.05662566 0.86552320 0.37950784
1.05772693 0.86388269 0.37900615
1.05782640 0.86354744 0.37896258
0.00000000 0.86568498 0.48444372
0.00000000 0.86569680 0.48446345
0.00000000 0.86576264 0.48457637
0.00000000 0.86610110 0.48516203
0.18703697 0.87721657 0.47061329
0.75060698 0.96651474 0.42409587
1.01828370 0.97631285 0.41973646
1.03915702 0.97665572 0.41962448
1.03918817 0.97666454 0.41969698
0.00000000 0.86232314 0.47873436
0.00000000 0.86234007 0.47876191
0.00000000 0.86243441 0.47891674
0.00000000 0.86293132 0.47973496
0.15750530 0.87509595 0.46949542
0.72488455 0.96305959 0.42259305
0.99648758 0.97542126 0.41699191
1.03799462 0.97615857 0.41680183
1.03803351 0.97617464 0.41688862
0.00000000 0.86119407 0.47693100
0.00000000 0.86119677 0.47693509
0.00000000 0.86121080 0.47695729
0.00000000 0.86158355 0.47755055
0.15189816 0.87345801 0.46806178
0.71745368 0.96187392 0.42177055
0.98940608 0.97509043 0.41601311
1.03750697 0.97597616 0.41575798
1.03755397 0.97599269 0.41585543
0.00000000 0.25706376 0.45853760
0.00000000 0.25709031 0.45856901
0.00097728 0.25832543 0.46421349
0.40734747 0.21298313 0.61790929
0.82233415 0.19497598 0.61038639
1.05889770 0.18968593 0.60697371
1.08527849 0.18737889 0.60280475
1.08548075 0.18781092 0.60380362
1.08553283 0.18793367 0.60408494
0.00000000 0.25676295 0.45818826
0.00000000 0.25678950 0.45821867
0.00000000 0.25754665 0.46268698
0.40323515 0.21349804 0.61669570
0.82062605 0.19475418 0.60993303
1.05853608 0.18954006 0.60664154
1.08521816 0.18721397 0.60242429
1.08542128 0.18764512 0.60342533
1.08547337 0.18776763 0.60370655
0.00000000 0.25517277 0.45632090
0.00000000 0.25519946 0.45635263
0.00000000 0.25517745 0.45762067
0.37962616 0.21609963 0.61105045
0.81164364 0.19359753 0.60753551
1.05662042 0.18877287 0.60487714
1.08492085 0.18635009 0.60041142
1.08512441 0.18677624 0.60142158
1.08517649 0.18689750 0.60170642
0.00000000 0.33282549 0.51122627
0.00000000 0.33273964 0.51115799
0.00000000 0.33221742 0.51068023
0.19916092 0.30133373 0.50591191
0.74850745 0.23827697 0.57716286
1.04597128 0.20377942 0.57180981
1.08270534 0.19363118 0.56954296
1.08300807 0.19239020 0.57182557
1.08313221 0.19216555 0.57256729
0.00000000 0.58612439 0.54425214
0.00000000 0.58609777 0.54437424
0.00000000 0.58596777 0.54503011
0.00000000 0.58105521 0.54607107
0.59336384 0.57331673 0.55403897
1.00377205 0.51860900 0.50521904
1.08707407 0.49701142 0.49308253
1.08698748 0.49384568 0.49395809
1.08696079 0.49293241 0.49419696
0.00000000 0.82520023 0.58982542
0.00000000 0.82509824 0.58979004
0.00000000 0.82455977 0.58960485
0.00000000 0.82185090 0.58864369
0.30852555 0.85928145 0.61724882
0.87687287 0.87600045 0.60666318
1.09018265 0.85486410 0.55394994
1.09018265 0.85218262 0.55254352
1.09018265 0.85168549 0.55267784
0.00000000 0.94275462 0.62592295
0.00000000 0.94275886 0.62593683
0.00000000 0.94277279 0.62600593
0.00000000 0.94281880 0.62633500
0.13282257 0.95877162 0.62678957
0.74563208 1.00140289 0.59224987
1.03686617 1.01748996 0.53733855
1.07037697 1.01429935 0.52993517
1.07045788 1.01423060 0.53020790
0.00000000 0.94025515 0.62072909
0.00000000 0.94026045 0.62074310
0.00000000 0.94028309 0.62081589
0.00000000 0.94036386 0.62115256
0.09287252 0.94966725 0.61809123
0.71350272 0.99547932 0.58548152
1.01096035 1.01680849 0.52990418
1.06807320 1.01528645 0.52026718
1.06812144 1.01535540 0.52047607
0.00000000 0.93955485 0.61926112
0.00000000 0.93955976 0.61927617
0.00000000 0.93958632 0.61935117
0.00000000 0.93968234 0.61970315
0.07906320 0.94597995 0.61541688
0.70444557 0.99324868 0.58386270
1.00203702 1.01609702 0.52856599
1.06748147 1.01458078 0.51822315
1.06754895 1.01463694 0.51837298
0.00766375 0.37882063 0.67500576
0.00766588 0.37883040 0.67501743
0.00812180 0.37879556 0.67505610
0.32946028 0.35903181 0.81933043
0.83786990 0.32106564 0.86046224
1.08194687 0.31607055 0.84927350
1.09018265 0.31472894 0.84549542
1.09018265 0.31485308 0.84594986
1.09018265 0.31488802 0.84607933
0.00764555 0.37872227 0.67487374
0.00764767 0.37873056 0.67488603
0.00795546 0.37872291 0.67493208
0.32743714 0.35966661 0.81631446
0.83647481 0.32103249 0.86036212
1.08149179 0.31602862 0.84912369
1.09018265 0.31468074 0.84531325
1.09018265 0.31480476 0.84576915
1.09018265 0.31483979 0.84589978
0.00755025 0.37820367 0.67418265
0.00755171 0.37821194 0.67419435
0.00756020 0.37825777 0.67425528
0.31502084 0.36333885 0.80112625
0.82878994 0.32085568 0.85982651
1.07915041 0.31580653 0.84831520
1.09018265 0.31442534 0.84433060
1.09018265 0.31454883 0.84479744
1.09018265 0.31458449 0.84493126
0.00736725 0.39134434 0.68414408
0.00736659 0.39127144 0.68406405
0.00736421 0.39082105 0.68360854
0.19967280 0.38473080 0.71953723
0.78607783 0.32129006 0.85609360
1.06891206 0.31549085 0.84274430
1.09018265 0.31374080 0.83806826
1.09018265 0.31381452 0.83868994
1.09018265 0.31383542 0.83886734
0.00000000 0.65212150 0.86691092
0.00000000 0.65204422 0.86690413
0.00000000 0.65163499 0.86687268
0.00000000 0.64535079 0.86376001
0.50648781 0.56619053 0.81625257
1.02697575 0.52266669 0.81032974
1.09018265 0.50103011 0.79091658
1.09018265 0.49848938 0.79209068
1.09018265 0.49773136 0.79240232
0.00000000 0.84412624 0.72619273
0.00000000 0.84416467 0.72630507
0.00000000 0.84436840 0.72690969
0.00000000 0.84540099 0.72993259
0.13266894 0.82863622 0.74516698
0.89902166 0.86795268 0.82640438
1.09018265 0.84414507 0.79507243
1.09018265 0.84123096 0.79458349
1.09018265 0.84061591 0.79466633
0.00000000 0.87763265 0.67129512
0.00000000 0.87763101 0.67130537
0.00000000 0.87762453 0.67136720
0.00000000 0.87761330 0.67170146
0.00000000 0.87309637 0.66476345
0.75489380 1.03776382 0.83090266
1.05059003 1.03639112 0.82379247
1.09018265 1.03074197 0.80747303
1.09018265 1.03037021 0.80766963
0.00000000 0.87941587 0.66972824
0.00000000 0.87941507 0.66973465
0.00000000 0.87941257 0.66977370
0.00000000 0.87941284 0.66998762
0.00000000 0.87582729 0.66186209
0.70922263 1.04782172 0.81975339
1.02107199 1.05449792 0.80872581
1.09018265 1.05357492 0.79438988
1.09018265 1.05355279 0.79411387
0.00000000 0.87962220 0.66933145
0.00000000 0.87962113 0.66933724
0.00000000 0.87961612 0.66937213
0.00000000 0.87961049 0.66957510
0.00000000 0.87626743 0.66170545
0.69744706 1.04735703 0.81704512
1.01373170 1.05421677 0.80729784
1.09018265 1.05342588 0.79319217
1.09018265 1.05329876 0.79180060
0.01709321 0.41968514 0.73552606
0.01709398 0.41968603 0.73552743
0.01709475 0.41969016 0.73553508
0.25764352 0.40741322 0.83115644
0.80971788 0.34402180 0.94785984
1.07295280 0.34034409 0.94073234
1.09018265 0.33974791 0.93935170
1.09018265 0.33977195 0.93945962
1.09018265 0.33977796 0.93948783
0.01709089 0.41967509 0.73550858
0.01709167 0.41967598 0.73550994
0.01709244 0.41968011 0.73551773
0.25459984 0.40820018 0.82697240
0.80826013 0.34403826 0.94784284
1.07264135 0.34034383 0.94070891
1.09018265 0.33974027 0.93931613
1.09018265 0.33976418 0.93942508
1.09018265 0.33977020 0.93945329
0.01707901 0.41962197 0.73542058
0.01707916 0.41962287 0.73542208
0.01708055 0.41962735 0.73542987
0.24069205 0.41221041 0.80535502
0.80104857 0.34422287 0.94772102
1.07139847 0.34034229 0.94058728
1.09018265 0.33969965 0.93913293
1.09018265 0.33972364 0.93924212
1.09018265 0.33972964 0.93927034
0.01702055 0.41936697 0.73499666
0.01702055 0.41936786 0.73499803
0.01702209 0.41937253 0.73500611
0.16740629 0.41959739 0.76012424
0.76260210 0.34608329 0.94704385
1.06434864 0.34032971 0.93999334
1.09018265 0.33950887 0.93825799
1.09018265 0.33953303 0.93836792
1.09018265 0.33953898 0.93839555
0.00000000 0.60780570 0.89030476
0.00000000 0.60768657 0.89022523
0.00000000 0.60706222 0.88981445
0.00000000 0.60185092 0.88654872
0.49923803 0.51998943 0.93176309
1.02270665 0.48921488 0.95030658
1.09018265 0.47888507 0.94105867
1.09018265 0.47629785 0.94081299
1.09018265 0.47557937 0.94076269
0.00000000 0.89472489 0.99088047
0.00000000 0.89466183 0.99089916
0.00000000 0.89433100 0.99100296
0.00000000 0.89274402 0.99155044
0.16655608 0.87293834 1.00155393
0.87329449 0.85496181 0.99627414
1.09018265 0.83928875 0.97609152
1.09018265 0.83615521 0.97495096
1.09018265 0.83546712 0.97495485
0.00000000 0.97900080 0.86691921
0.00000000 0.97901294 0.86696272
0.00000000 0.97917168 0.86718706
0.00000000 0.97988039 0.86826562
0.00000000 0.97591623 0.86800232
0.64626895 0.93889670 0.88027056
1.05714603 1.02545780 0.98269771
1.09018265 1.02111160 0.97845307
1.09018265 1.02069597 0.97847112
0.00000000 0.96909181 0.83161923
0.00000000 0.96910446 0.83165602
0.00000000 0.96917214 0.83185704
0.00000000 0.96950507 0.83285083
0.00000000 0.96289190 0.82128595
0.46602704 0.89609716 0.79308372
1.02514619 1.06751502 0.98194372
1.09018265 1.06741028 0.97971137
1.09018265 1.06606182 0.97881814
0.00000000 0.96779799 0.82783517
0.00000000 0.96781169 0.82787589
0.00000000 0.96788277 0.82808203
0.00000000 0.96822349 0.82907439
0.00000000 0.96279939 0.81898339
0.45266683 0.89258675 0.78711746
1.01819940 1.06835949 0.98048830
1.09018265 1.06871565 0.97874785
1.09018265 1.06844202 0.97793236
0.01730008 0.42058403 0.73701385
0.01730008 0.42058403 0.73701385
0.01730008 0.42058403 0.73701385
0.24271152 0.41224584 0.81275650
0.79907170 0.34531030 0.95019112
1.07012297 0.34093233 0.94317927
1.09018265 0.34029123 0.94178803
1.09018265 0.34029123 0.94178803
1.09018265 0.34029123 0.94178803
0.01730008 0.42058403 0.73701385
0.01730008 0.42058403 0.73701385
0.01730008 0.42058403 0.73701385
0.24066741 0.41277647 0.80944297
0.79756225 0.34540481 0.95017354
1.06978489 0.34093931 0.94318833
1.09018265 0.34029123 0.94178803
1.09018265 0.34029123 0.94178803
1.09018265 0.34029123 0.94178803
0.01730008 0.42058403 0.73701385
0.01730008 0.42058403 0.73701385
0.01730008 0.42058403 0.73701385
0.22901411 0.41587478 0.79296744
0.78937487 0.34588648 0.95011328
1.06860595 0.34097400 0.94323223
1.09018265 0.34029123 0.94178803
1.09018265 0.34029123 0.94178803
1.09018265 0.34029123 0.94178803
0.01730008 0.42058403 0.73701385
0.01730008 0.42058403 0.73701385
0.01730008 0.42058403 0.73701385
0.15343057 0.42109592 0.75850666
0.75155683 0.34816669 0.95019879
1.06151343 0.34113316 0.94343564
1.09018265 0.34029123 0.94178803
1.09018265 0.34029123 0.94178803
1.09018265 0.34029123 0.94178803
0.00000000 0.57937900 0.87789023
0.00000000 0.57924192 0.87783069
0.00000000 0.57852218 0.87751975
0.00000000 0.57400774 0.87533326
0.50170503 0.49872352 0.96334606
1.02020666 0.47201790 0.95448076
1.09018265 0.46539731 0.94938197
1.09018265 0.46417630 0.94917968
1.09018265 0.46377154 0.94911205
0.00000000 0.88258388 1.00449999
0.00000000 0.88254537 1.00451145
0.00000000 0.88234420 1.00457763
0.00000000 0.88138403 1.00490874
0.16280729 0.86332670 1.01317623
0.86747811 0.84176090 1.01315512
1.09018265 0.82392444 0.99829196
1.09018265 0.82064312 0.99665950
1.09018265 0.81988384 0.99650607
0.00000000 0.99151486 0.89489127
0.00000000 0.99152702 0.89495633
0.00000000 0.99158644 0.89529916
0.00000000 0.99187935 0.89700803
0.00000000 0.98908597 0.91282112
0.69414082 1.00495778 1.01654567
1.05184797 1.02008257 1.03109125
1.09018265 1.01683781 1.02759334
1.09018265 1.01631387 1.02744558
0.00000000 0.98562924 0.87358661
0.00000000 0.98563086 0.87358958
0.00000000 0.98563902 0.87360402
0.00000000 0.98568124 0.87367578
0.00000000 0.98392481 0.87302564
0.50307458 0.97494226 0.89810475
1.01625926 1.06181305 1.02815294
1.09018265 1.06377058 1.02943144
1.09018265 1.06313583 1.02903131
0.00000000 0.98549979 0.87335785
0.00000000 0.98550064 0.87335953
0.00000000 0.98550704 0.87337081
0.00000000 0.98553690 0.87342521
0.00000000 0.98448119 0.87304045
0.48608153 0.97088541 0.88578832
0.99872510 1.06562919 1.02333957
1.08796036 1.07178322 1.02854763
1.09018265 1.07163668 1.02833306
0.01730008 0.42058403 0.73701385
0.01730008 0.42058403 0.73701385
0.01730008 0.42058403 0.73701385
0.23943877 0.41302292 0.80798278
0.79633573 0.34550355 0.95015090
1.06953861 0.34094577 0.94319699
1.09018265 0.34029123 0.94178803
1.09018265 0.34029123 0.94178803
1.09018265 0.34029123 0.94178803
0.01730008 0.42058403 0.73701385
0.01730008 0.42058403 0.73701385
0.01730008 0.42058403 0.73701385
0.23736057 0.41356244 0.80515933
0.79478314 0.34559988 0.95013630
1.06935565 0.34095289 0.94320525
1.09018265 0.34029123 0.94178803
1.09018265 0.34029123 0.94178803
1.09018265 0.34029123 0.94178803
0.01730008 0.42058403 0.73701385
0.01730008 0.42058403 0.73701385
0.01730008 0.42058403 0.73701385
0.22549071 0.41671522 0.78843110
0.78652834 0.34608704 0.95007788
1.06795701 0.34098746 0.94324893
1.09018265 0.34029123 0.94178803
1.09018265 0.34029123 0.94178803
1.09018265 0.34029123 0.94178803
0.01730008 0.42058403 0.73701385
0.01730008 0.42058403 0.73701385
0.01730008 0.42058403 0.73701385
0.14928467 0.42117087 0.75739675
0.74901321 0.34839169 0.95019448
1.06095946 0.34114539 0.94345152
1.09018265 0.34029123 0.94178803
1.09018265 0.34029123 0.94178803
1.09018265 0.34029123 0.94178803
0.00000000 0.57085700 0.87352033
0.00000000 0.57071761 0.87343912
0.00000000 0.56998554 0.87300979
0.00000000 0.56544604 0.87039286
0.50574185 0.49166535 0.96570802
1.01958948 0.46880747 0.95396087
1.09018265 0.46240565 0.94888096
1.09018265 0.46112277 0.94867400
1.09018265 0.46069823 0.94860399
0.00000000 0.88022181 1.00528280
0.00000000 0.88018715 1.00529197
0.00000000 0.88000234 1.00534420
0.00000000 0.87910434 1.00561032
0.16155026 0.86068164 1.01287897
0.86622535 0.83672450 1.01215679
1.09018265 0.81831295 0.99695574
1.09018265 0.81503252 0.99559153
1.09018265 0.81427265 0.99542902
0.00000000 0.99347869 0.90382211
0.00000000 0.99348998 0.90390118
0.00000000 0.99354972 0.90432209
0.00000000 0.99384234 0.90639025
0.00000000 0.99062284 0.92395773
0.70212920 1.00849017 1.02834913
1.05083986 1.01730642 1.03434844
1.09018265 1.01377610 1.03202336
1.09018265 1.01321519 1.03195237
0.00000000 0.98677364 0.87527453
0.00000000 0.98677468 0.87527654
0.00000000 0.98678525 0.87529029
0.00000000 0.98685348 0.87541934
0.00000000 0.98485430 0.87521583
0.51951404 0.98988565 0.93931736
0.97730245 1.02524461 0.99766764
1.09018265 1.06248649 1.03835458
1.09018265 1.06204133 1.03775223
0.00000000 0.98658754 0.87502318
0.00000000 0.98658857 0.87502460
0.00000000 0.98659671 0.87503497
0.00000000 0.98663207 0.87508400
0.00000000 0.98556605 0.87497145
0.49664719 0.98264515 0.91558313
0.95692578 1.02343424 0.98377018
1.08550136 1.07239062 1.03917289
1.09018265 1.07232057 1.03890707
