public/luts/Shot_by_Alice_Sony_LUT-DUSK.cube
TITLE "Shot_by_Alice_Sony_LUT-DUSK"
LUT_3D_SIZE 9
# MLUTS-Log3/Sony S-Gamut3.cine -> LA - Shot_by_Alice_Sony_LUT-DUSK/LA - Shot_by_Alice_Sony_LUT-DUSK, CineEI Shift 0.00, Black Level -5.74% IRE, Input 109% -> Output 100% - Created with LUTCalc v4.09 by Ben Turley February 2025
0.00000000 0.00000000 0.00000000
0.00000000 0.00000000 0.00000000
0.09439845 0.00000000 0.00000000
0.40890176 0.00000000 0.00000000
0.76497985 0.00000000 0.00000000
1.02613067 0.00000000 0.00608123
1.03719315 0.00000000 0.03550072
1.03722840 0.00000000 0.04317353
1.03723998 0.00000000 0.04546828
0.00000000 0.00000000 0.00000000
0.00000000 0.00000000 0.00000000
0.08875025 0.00000000 0.00000000
0.40662346 0.00000000 0.00000000
0.76391546 0.00000000 0.00000000
1.02611207 0.00000000 0.00088882
1.03717838 0.00000000 0.03161318
1.03721414 0.00000000 0.04032659
1.03722373 0.00000000 0.04240014
0.00000000 0.06667779 0.00000000
0.00000000 0.06619217 0.00000000
0.05940698 0.06425823 0.00000000
0.39412889 0.07503431 0.00000000
0.76248798 0.04631437 0.00000000
1.02606960 0.00000000 0.00000000
1.03709246 0.00000000 0.00993864
1.03713367 0.00000000 0.02015294
1.03714520 0.00000000 0.02310855
0.05107265 0.32789362 0.06444274
0.05102359 0.32770295 0.06437767
0.05063694 0.32623809 0.06247698
0.33653403 0.34733600 0.02409581
0.72356199 0.37140902 0.00000000
1.02355873 0.35541568 0.00000000
1.05257442 0.33263062 0.00000000
1.05210579 0.32496121 0.00000000
1.05197595 0.32272212 0.00000000
0.13623859 0.62379620 0.16551326
0.13621314 0.62371183 0.16548502
0.13607794 0.62326764 0.16533532
0.15851458 0.62076919 0.14318702
0.63454431 0.66805282 0.07224852
0.99962244 0.65848719 0.00000000
1.07226562 0.64911993 0.00000000
1.07210344 0.64667782 0.00000000
1.07205692 0.64598051 0.00000000
0.20594687 0.86952465 0.23805859
0.20593417 0.86947630 0.23804566
0.20586452 0.86922017 0.23797578
0.20552642 0.86797046 0.23763874
0.43395846 0.91365385 0.18540033
0.90328214 0.94386346 0.11663093
1.08758036 0.92279424 0.04681392
1.08823334 0.92044872 0.04537438
1.08820965 0.91990521 0.04513793
0.22774283 0.95157213 0.26200958
0.22774283 0.95157213 0.26200958
0.22774283 0.95157213 0.26200958
0.22774283 0.95157213 0.26200958
0.33866027 0.96823958 0.23090913
0.76841044 1.05908736 0.14367672
1.06590439 1.03994675 0.12343740
1.09018265 1.03776800 0.11313419
1.09018265 1.03776800 0.11313419
0.22774283 0.95157213 0.26200958
0.22774283 0.95157213 0.26200958
0.22774283 0.95157213 0.26200958
0.22774283 0.95157213 0.26200958
0.32744051 0.96840974 0.24448349
0.73946495 1.05472093 0.14571351
1.04245004 1.04273781 0.12740500
1.09018265 1.03776800 0.11313419
1.09018265 1.03776800 0.11313419
0.22774283 0.95157213 0.26200958
0.22774283 0.95157213 0.26200958
0.22774283 0.95157213 0.26200958
0.22774283 0.95157213 0.26200958
0.32250744 0.96712283 0.24546099
0.73118060 1.05323316 0.14625052
1.03674740 1.04358866 0.12796329
1.09018265 1.03776800 0.11313419
1.09018265 1.03776800 0.11313419
0.00000000 0.00000000 0.00000000
0.00000000 0.00000000 0.00000000
0.09320024 0.00000000 0.00000000
0.40626491 0.00000000 0.00000000
0.75836031 0.00000000 0.00000000
1.02372729 0.00000000 0.04102281
1.03732916 0.00000000 0.06419513
1.03736430 0.00000000 0.07264743
1.03737407 0.00000000 0.07510599
0.00000000 0.00000000 0.00000000
0.00000000 0.00000000 0.00000000
0.08758679 0.00000000 0.00000000
0.40546041 0.00000000 0.00000000
0.75780693 0.00000000 0.00000000
1.02353579 0.00000000 0.03806679
1.03731482 0.00000000 0.06092853
1.03735149 0.00000000 0.06933152
1.03736138 0.00000000 0.07178371
0.00000000 0.06312070 0.00000000
0.00000000 0.06265179 0.00000000
0.05718224 0.06067422 0.00000000
0.39376930 0.07052336 0.00000000
0.76035178 0.04031083 0.00000000
1.02295470 0.00000000 0.01161839
1.03723222 0.00000000 0.04401242
1.03727291 0.00000000 0.05182923
1.03728358 0.00000000 0.05411547
0.05071230 0.32648374 0.06396389
0.05066318 0.32629192 0.06389923
0.05027838 0.32481693 0.06201299
0.33641765 0.34569767 0.02400234
0.72337953 0.36997331 0.00000000
1.02349906 0.35395788 0.00000000
1.05230661 0.32789347 0.00000000
1.05183925 0.31963199 0.00000000
1.05170882 0.31721591 0.00000000
0.13604868 0.62317242 0.16530223
0.13602276 0.62308760 0.16527353
0.13588649 0.62263923 0.16512168
0.15820206 0.62011904 0.14297705
0.63439087 0.66727404 0.07206397
0.99951104 0.65789357 0.00000000
1.07222529 0.64851082 0.00000000
1.07206247 0.64606401 0.00000000
1.07201595 0.64536537 0.00000000
0.20585053 0.86916777 0.23796144
0.20583741 0.86911941 0.23794809
0.20576777 0.86886318 0.23787880
0.20542979 0.86761184 0.23754159
0.43362418 0.91315378 0.18533073
0.90322819 0.94347669 0.11653902
1.08755753 0.92233272 0.04660698
1.08821285 0.91996530 0.04516326
1.08818831 0.91942090 0.04492672
0.22774283 0.95157213 0.26200958
0.22774283 0.95157213 0.26200958
0.22774283 0.95157213 0.26200958
0.22774283 0.95157213 0.26200958
0.33854293 0.96821286 0.23099368
0.76820259 1.05907051 0.14369313
1.06577849 1.03995729 0.12348569
1.09018265 1.03776800 0.11313419
1.09018265 1.03776800 0.11313419
0.22774283 0.95157213 0.26200958
0.22774283 0.95157213 0.26200958
0.22774283 0.95157213 0.26200958
0.22774283 0.95157213 0.26200958
0.32729580 0.96837136 0.24451347
0.73924712 1.05469532 0.14572137
1.04230405 1.04275922 0.12741885
1.09018265 1.03776800 0.11313419
1.09018265 1.03776800 0.11313419
0.22774283 0.95157213 0.26200958
0.22774283 0.95157213 0.26200958
0.22774283 0.95157213 0.26200958
0.22774283 0.95157213 0.26200958
0.32234358 0.96708418 0.24548299
0.73097128 1.05319923 0.14626278
1.03664244 1.04360639 0.12797701
1.09018265 1.03776800 0.11313419
1.09018265 1.03776800 0.11313419
0.00000000 0.00000000 0.04003959
0.00000000 0.00000000 0.04017153
0.08427868 0.00000000 0.08239072
0.39260862 0.00000000 0.09890832
0.74559019 0.00000000 0.13346126
1.01655904 0.00000000 0.16036075
1.03591665 0.00000000 0.17376198
1.03583273 0.00000000 0.17836503
1.03580853 0.00000000 0.17963810
0.00000000 0.00000000 0.03853568
0.00000000 0.00000000 0.03866946
0.07805886 0.00000000 0.08004008
0.39051930 0.00000000 0.09683811
0.74465507 0.00000000 0.13117196
1.01631643 0.00000000 0.15841508
1.03595166 0.00000000 0.17197950
1.03586817 0.00000000 0.17665052
1.03584326 0.00000000 0.17794422
0.00000000 0.04866843 0.08426444
0.00000000 0.04817038 0.08449800
0.02972415 0.04161673 0.05526612
0.36485199 0.05439362 0.04628493
0.74127503 0.00000000 0.10430941
1.01504506 0.00000000 0.14829510
1.03614187 0.00000000 0.16232723
1.03605716 0.00000000 0.16728396
1.03603239 0.00000000 0.16866955
0.04706581 0.32045191 0.09418835
0.04700508 0.32026281 0.09424301
0.04964638 0.31793296 0.10702800
0.38043750 0.31878292 0.09770295
0.72333635 0.35430833 0.00836560
1.02293245 0.33000086 0.03298763
1.05133494 0.30114162 0.04860144
1.05085058 0.29111162 0.05325067
1.05071746 0.28828073 0.05466017
0.13503993 0.61983846 0.16417427
0.13501359 0.61975176 0.16414494
0.13487620 0.61929607 0.16399162
0.15648056 0.61665061 0.14186751
0.63360751 0.66309787 0.07113578
0.99893395 0.65472583 0.00000000
1.07195065 0.64445098 0.00000000
1.07177866 0.64163647 0.00000000
1.07172958 0.64081730 0.00000000
0.20533795 0.86727096 0.23744827
0.20532485 0.86722206 0.23743494
0.20525534 0.86696404 0.23736521
0.20491610 0.86570500 0.23702636
0.43187129 0.91047906 0.18496606
0.90293916 0.94139628 0.11604572
1.08743461 0.91985400 0.04551335
1.08810210 0.91738170 0.04404748
1.08807778 0.91682710 0.04382820
0.22774283 0.95157213 0.26200958
0.22774283 0.95157213 0.26200958
0.22774283 0.95157213 0.26200958
0.22774283 0.95157213 0.26200958
0.33788129 0.96805946 0.23143706
0.76709872 1.05898622 0.14378110
1.06512252 1.04001540 0.12373860
1.09018265 1.03776800 0.11313419
1.09018265 1.03776800 0.11313419
0.22774283 0.95157213 0.26200958
0.22774283 0.95157213 0.26200958
0.22774283 0.95157213 0.26200958
0.22774283 0.95157213 0.26200958
0.32648076 0.96815527 0.24468176
0.73809452 1.05456131 0.14576430
1.04145229 1.04287392 0.12749373
1.09018265 1.03776800 0.11313419
1.09018265 1.03776800 0.11313419
0.22774283 0.95157213 0.26200958
0.22774283 0.95157213 0.26200958
0.22774283 0.95157213 0.26200958
0.22774283 0.95157213 0.26200958
0.32141795 0.96686707 0.24560633
0.72985797 1.05303001 0.14632377
1.03606653 1.04369489 0.12805248
1.09018265 1.03776800 0.11313419
1.09018265 1.03776800 0.11313419
0.00000000 0.00000000 0.30106781
0.00000000 0.00000000 0.30113352
0.06008929 0.00000000 0.29343412
0.37935112 0.00000000 0.34582162
0.73335700 0.00000000 0.38141523
1.00389900 0.00000000 0.39625719
1.02702338 0.00000000 0.40012679
1.02697323 0.00000000 0.40192593
1.02696007 0.00000000 0.40243160
0.00000000 0.00000000 0.30032186
0.00000000 0.00000000 0.30038766
0.05337716 0.00000000 0.29174449
0.37711756 0.00000000 0.34491493
0.73231499 0.00000000 0.38067058
1.00356814 0.00000000 0.39558754
1.02703799 0.00000000 0.39946491
1.02698756 0.00000000 0.40126325
1.02697440 0.00000000 0.40176849
0.00000000 0.00000000 0.30091616
0.00000000 0.00000000 0.30094979
0.00500431 0.00000000 0.27735523
0.36454852 0.00000000 0.33943350
0.72622489 0.00000000 0.37595917
1.00200093 0.00000000 0.39210727
1.02710972 0.00000000 0.39602181
1.02705874 0.00000000 0.39781766
1.02704515 0.00000000 0.39832224
0.00000000 0.30641806 0.31907529
0.00000000 0.30616001 0.31921417
0.00000000 0.30211162 0.32707036
0.28924205 0.29167528 0.30657248
0.68659383 0.30660312 0.28702195
1.00854003 0.25691190 0.31993141
1.04900931 0.22641692 0.34551433
1.04852355 0.21756397 0.34941547
1.04835832 0.21500632 0.35049279
0.09331271 0.62211736 0.34151186
0.09326375 0.62204012 0.34153552
0.09300455 0.62163020 0.34165862
0.17250990 0.61049165 0.35323062
0.65435041 0.62914710 0.33595098
0.99226573 0.62818509 0.23511320
1.07161883 0.61549319 0.23636970
1.07144982 0.61240880 0.23911156
1.07140117 0.61153794 0.23988265
0.19448912 0.86415952 0.33626660
0.19446685 0.86411593 0.33629321
0.19434607 0.86388625 0.33644553
0.19373546 0.86277828 0.33727553
0.44056748 0.88785148 0.29881397
0.89595857 0.92726705 0.25766053
1.08675560 0.90496079 0.18994183
1.08819557 0.90261814 0.19023389
1.08817338 0.90213077 0.19061545
0.22591059 0.95341374 0.32415482
0.22590503 0.95341900 0.32423510
0.22587259 0.95345122 0.32467856
0.22570676 0.95361258 0.32692223
0.33496966 0.96483409 0.27567589
0.76091546 1.05235740 0.23780194
1.05766404 1.03832253 0.22316835
1.09018265 1.03618024 0.21447937
1.09018265 1.03616306 0.21492445
0.22721711 0.95221423 0.29977643
0.22721303 0.95221910 0.29990155
0.22718907 0.95224505 0.30060331
0.22706398 0.95238180 0.30429716
0.31561063 0.96500427 0.26330471
0.73226111 1.04966640 0.21794387
1.03597582 1.04130502 0.20750178
1.09018265 1.03639772 0.19598669
1.09018265 1.03639197 0.19659224
0.22746824 0.95192987 0.29171437
0.22746824 0.95192987 0.29173034
0.22746619 0.95193231 0.29181859
0.22740421 0.95200966 0.29430976
0.30697527 0.96368521 0.25530976
0.72394866 1.04917087 0.20948436
1.02948535 1.04237659 0.20085493
1.09018265 1.03646684 0.18865526
1.09018265 1.03646013 0.18934613
0.00000000 0.00000000 0.56950165
0.00000000 0.00000000 0.56953107
0.00000000 0.00000000 0.56366039
0.36969989 0.00000000 0.60645402
0.72020582 0.00000000 0.64862689
0.99992831 0.00000000 0.66234440
1.02720751 0.00000000 0.66250166
1.02721408 0.00000000 0.66337817
1.02721685 0.00000000 0.66362902
0.00000000 0.00000000 0.56917909
0.00000000 0.00000000 0.56920791
0.00000000 0.00000000 0.56362928
0.36735136 0.00000000 0.60553973
0.71911678 0.00000000 0.64820692
0.99958499 0.00000000 0.66202139
1.02720503 0.00000000 0.66217797
1.02721160 0.00000000 0.66303835
1.02721379 0.00000000 0.66328973
0.00000000 0.00000000 0.56747504
0.00000000 0.00000000 0.56750365
0.00000000 0.00000000 0.56680792
0.35542753 0.00000000 0.60059029
0.71336704 0.00000000 0.64597296
0.99778275 0.00000000 0.66038360
1.02719117 0.00000000 0.66052764
1.02719774 0.00000000 0.66133068
1.02719993 0.00000000 0.66155809
0.00000000 0.17843585 0.63657470
0.00000000 0.17814400 0.63650242
0.00000000 0.17659912 0.63612601
0.18007595 0.18350126 0.50532316
0.68309605 0.12584540 0.63196569
0.99141768 0.09636002 0.64226802
1.03572465 0.07428920 0.64716524
1.03535567 0.06500846 0.64837522
1.03522200 0.06194209 0.64871377
0.00000000 0.60644027 0.61304551
0.00000000 0.60633200 0.61310533
0.00000000 0.60576091 0.61341879
0.05428533 0.59268060 0.61314258
0.59747035 0.58783301 0.59834057
0.96680593 0.57780225 0.58971818
1.06993580 0.56281254 0.59931891
1.06971515 0.55943359 0.60041181
1.06965242 0.55847590 0.60071836
0.10799321 0.87973017 0.57939897
0.10796630 0.87968514 0.57941567
0.10782370 0.87944273 0.57950037
0.10713904 0.87825571 0.57992180
0.50747199 0.83959632 0.61448122
0.88212432 0.89576036 0.60243355
1.08522899 0.87923951 0.54625091
1.08878069 0.87676082 0.54605622
1.08876106 0.87626298 0.54628609
0.16530994 0.98927820 0.58139660
0.16529936 0.98928041 0.58142036
0.16524497 0.98928954 0.58154402
0.16497722 0.98933174 0.58215196
0.36686430 0.96706486 0.59419317
0.76428773 1.01591160 0.61600702
1.03764903 1.03708673 0.58572428
1.08732877 1.03334550 0.57652473
1.08733837 1.03320038 0.57676230
0.16880279 0.98805392 0.57314994
0.16879332 0.98805952 0.57317571
0.16874475 0.98808943 0.57331024
0.16851356 0.98823099 0.57395465
0.34325961 0.97087409 0.58728794
0.73826174 1.01108762 0.60227220
1.01217296 1.04284398 0.57599812
1.08698179 1.03662435 0.56588293
1.08697518 1.03662857 0.56619862
0.16971590 0.98751619 0.57067332
0.16970600 0.98752166 0.57069942
0.16965736 0.98755190 0.57083433
0.16942328 0.98769572 0.57148294
0.33617789 0.97112244 0.58394868
0.73049764 1.00913211 0.59816549
1.00449385 1.04370509 0.57315601
1.08696622 1.03658044 0.56231043
1.08705157 1.03658088 0.56261430
0.00000000 0.00000000 0.80370207
0.00000000 0.00000000 0.80372052
0.00000000 0.00000000 0.80381800
0.32527030 0.00000000 0.79794503
0.70362540 0.00000000 0.89800199
0.99350769 0.00000000 0.91024782
1.03001533 0.00000000 0.90842885
1.03002149 0.00000000 0.90900708
1.03002306 0.00000000 0.90917101
0.00000000 0.00000000 0.80349357
0.00000000 0.00000000 0.80351204
0.00000000 0.00000000 0.80361010
0.32228180 0.00000000 0.79727663
0.70256262 0.00000000 0.89766861
0.99311746 0.00000000 0.91000390
1.03001297 0.00000000 0.90822055
1.03001939 0.00000000 0.90878226
1.03002109 0.00000000 0.90894657
0.00000000 0.00000000 0.80238399
0.00000000 0.00000000 0.80240240
0.00000000 0.00000000 0.80250070
0.30556378 0.00000000 0.79353528
0.69690701 0.00000000 0.89592257
0.99105688 0.00000000 0.90878522
1.03000105 0.00000000 0.90717818
1.03000721 0.00000000 0.90768449
1.03000878 0.00000000 0.90782801
0.00000000 0.01201846 0.80892473
0.00000000 0.01194924 0.80891465
0.00000000 0.01155231 0.80884902
0.21045768 0.00941414 0.77046846
0.66715700 0.00000000 0.88520919
0.97902764 0.00000000 0.90217462
1.03115255 0.00000000 0.90048134
1.03109446 0.00000000 0.90106000
1.03107701 0.00000000 0.90122540
0.00000000 0.51093128 0.97130866
0.00000000 0.51080929 0.97130363
0.00000000 0.51016438 0.97128448
0.00000000 0.50493996 0.95390827
0.48735421 0.48961523 0.76707536
0.94370572 0.47879733 0.87822398
1.05761069 0.46461969 0.87170402
1.05730426 0.45984577 0.87243659
1.05721698 0.45849668 0.87263863
0.01899107 0.85923019 0.86801933
0.01895697 0.85916594 0.86806564
0.01877877 0.85882769 0.86831158
0.01790867 0.85717218 0.86951477
0.37723783 0.81302072 0.82978054
0.86792459 0.84943700 0.85644797
1.07703195 0.84339975 0.85563671
1.08540888 0.84151953 0.85615864
1.08535233 0.84100191 0.85632958
0.09786729 1.01676249 0.80388508
0.09785423 1.01674483 0.80391098
0.09778295 1.01665150 0.80405268
0.09742830 1.01618780 0.80475251
0.27832336 0.99486883 0.79072636
0.82081667 0.98934371 0.85406042
1.02506439 1.02444634 0.85594526
1.08653900 1.01921253 0.84187098
1.08663439 1.01880890 0.84183148
0.10287422 1.02517192 0.79566289
0.10286996 1.02517428 0.79568164
0.10284527 1.02518493 0.79578223
0.10272255 1.02523754 0.79627996
0.25770981 1.00783018 0.78501460
0.79974208 0.99809426 0.84670194
0.99327332 1.04807260 0.86077879
1.07947679 1.04310174 0.84663089
1.08148011 1.04301058 0.84645340
0.10327433 1.02495972 0.79393848
0.10327007 1.02496210 0.79395743
0.10324533 1.02497324 0.79405981
0.10312242 1.02502626 0.79456452
0.24745472 1.00885380 0.78404312
0.79284000 0.99684249 0.84366059
0.98668742 1.04748923 0.86000194
1.07508218 1.04326299 0.84562106
1.08148011 1.04295461 0.84474148
0.00000000 0.00000000 0.92061350
0.00000000 0.00000000 0.92062104
0.00000000 0.00000000 0.92065938
0.24787664 0.00000000 0.90856500
0.67892549 0.00000000 0.99982405
0.98202320 0.00000000 1.03017252
1.03190088 0.00000000 1.03130783
1.03190818 0.00000000 1.03144704
1.03191062 0.00000000 1.03148302
0.00000000 0.00000000 0.92052958
0.00000000 0.00000000 0.92053712
0.00000000 0.00000000 0.92057614
0.24484786 0.00000000 0.90828785
0.67784221 0.00000000 0.99958551
0.98157556 0.00000000 1.03012921
1.03189763 0.00000000 1.03126225
1.03190616 0.00000000 1.03140230
1.03190737 0.00000000 1.03143831
0.00000000 0.00000000 0.92009411
0.00000000 0.00000000 0.92010102
0.00000000 0.00000000 0.92014015
0.23180727 0.00000000 0.90610239
0.67203083 0.00000000 0.99827790
0.97938427 0.00000000 1.02990171
1.03188504 0.00000000 1.03102081
1.03189276 0.00000000 1.03116512
1.03189479 0.00000000 1.03120200
0.00000000 0.00000000 0.91798848
0.00000000 0.00000000 0.91799581
0.00000000 0.00000000 0.91803527
0.15748265 0.00000000 0.89476000
0.64268475 0.00000000 0.99119875
0.97041873 0.00000000 1.02880736
1.03182324 0.00000000 1.02997230
1.03183183 0.00000000 1.03009982
1.03183305 0.00000000 1.03013258
0.00000000 0.41385180 1.03427661
0.00000000 0.41367866 1.03424264
0.00000000 0.41277457 1.03406944
0.00000000 0.40758912 1.02836938
0.48743659 0.39695489 0.87655395
0.92528426 0.36036280 1.02432396
1.04986317 0.33622225 1.02587045
1.04942612 0.32630325 1.02615557
1.04931064 0.32329521 1.02624494
0.00000000 0.80302387 1.06109944
0.00000000 0.80294117 1.06110200
0.00000000 0.80250054 1.06112014
0.00000000 0.80033674 1.06122086
0.24282820 0.74775708 1.01262594
0.83141675 0.79283930 0.96761144
1.06481076 0.79933915 1.01672335
1.07776559 0.79710363 1.01578279
1.07774319 0.79652922 1.01588639
0.03008931 0.99953065 1.00997800
0.03006133 0.99948957 1.01001587
0.02991309 0.99926666 1.01022104
0.02919100 0.99815721 1.01121021
0.19400828 0.97303352 0.98712164
0.76353052 0.96856186 0.96907732
1.01833511 0.99691433 1.00194928
1.08410228 0.99556293 1.00113621
1.08495563 0.99516737 1.00124049
0.04782367 1.03372837 0.98978866
0.04781819 1.03372837 0.98981024
0.04778792 1.03372870 0.98992707
0.04763344 1.03372953 0.99051926
0.18572879 1.01717445 0.97161225
0.75606496 1.00956923 0.95077984
0.99681644 1.03994901 1.00085919
1.06794592 1.04454856 0.99858545
1.08107531 1.04380076 0.99716557
0.04835588 1.03371458 0.98772285
0.04834958 1.03371425 0.98774564
0.04831915 1.03371591 0.98786369
0.04816947 1.03371940 0.98844289
0.17297652 1.01853709 0.97159928
0.74843406 1.00909564 0.94829303
0.99243298 1.03996122 0.99930344
1.05819645 1.04583142 0.99845619
1.08048549 1.04603876 0.99635171
0.00000000 0.00000000 0.92784321
0.00000000 0.00000000 0.92784321
0.00000000 0.00000000 0.92784321
0.23316347 0.00000000 0.91656214
0.67098652 0.00000000 1.00161506
0.97780117 0.00000000 1.03271903
1.03207098 0.00000000 1.03495633
1.03207098 0.00000000 1.03495633
1.03207098 0.00000000 1.03495633
0.00000000 0.00000000 0.92784321
0.00000000 0.00000000 0.92784321
0.00000000 0.00000000 0.92784321
0.23100481 0.00000000 0.91613108
0.66985557 0.00000000 1.00142469
0.97742320 0.00000000 1.03269694
1.03207098 0.00000000 1.03495633
1.03207098 0.00000000 1.03495633
1.03207098 0.00000000 1.03495633
0.00000000 0.00000000 0.92784321
0.00000000 0.00000000 0.92784321
0.00000000 0.00000000 0.92784321
0.21805584 0.00000000 0.91388334
0.66373617 0.00000000 1.00041297
0.97547619 0.00000000 1.03258036
1.03207098 0.00000000 1.03495633
1.03207098 0.00000000 1.03495633
1.03207098 0.00000000 1.03495633
0.00000000 0.00000000 0.92784321
0.00000000 0.00000000 0.92784321
0.00000000 0.00000000 0.92784321
0.14539730 0.00000000 0.90330157
0.63408605 0.00000000 0.99492122
0.96606358 0.00000000 1.03202064
1.03207098 0.00000000 1.03495633
1.03207098 0.00000000 1.03495633
1.03207098 0.00000000 1.03495633
0.00000000 0.36752283 1.03361174
0.00000000 0.36730950 1.03354696
0.00000000 0.36620921 1.03321601
0.00000000 0.36058526 1.02823069
0.50129948 0.34047988 0.90003608
0.91846635 0.28308712 1.03750886
1.04709960 0.26963834 1.04178125
1.04715307 0.26601273 1.04173301
1.04710912 0.26493918 1.04172260
0.00000000 0.78049370 1.06374700
0.00000000 0.78042318 1.06374209
0.00000000 0.78004672 1.06372011
0.00000000 0.77820154 1.06361149
0.22409910 0.72950792 1.02035197
0.82198518 0.77541208 0.98842951
1.05762627 0.78364036 1.05292267
1.07622618 0.78139631 1.05251275
1.07619844 0.78075910 1.05250037
0.01693161 0.98591867 1.06239174
0.01692015 0.98585916 1.06241586
0.01686012 0.98554394 1.06255157
0.01657084 0.98398288 1.06320285
0.17443077 0.95745663 1.03818756
0.73549356 0.93665448 1.01314896
1.00981239 0.98243311 1.04149514
1.08068117 0.98425578 1.04809510
1.08182197 0.98380477 1.04804080
0.03097601 1.03371408 1.04674520
0.03096763 1.03371408 1.04677107
0.03092314 1.03371308 1.04689681
0.03070599 1.03370792 1.04752168
0.15884758 1.01603446 1.03024044
0.72811115 0.99767091 0.99876388
0.98706382 1.03010971 1.03564358
1.06303213 1.03644190 1.04166041
1.08104885 1.03649213 1.04207613
0.03166868 1.03373153 1.04474540
0.03166209 1.03373153 1.04476222
0.03162882 1.03373053 1.04484796
0.03146536 1.03372638 1.04526898
0.14440535 1.01863575 1.03002240
0.72272608 1.00206057 0.99510406
0.98346477 1.03842456 1.03244316
1.05376386 1.04574893 1.04031762
1.07952117 1.04652810 1.04107140
0.00000000 0.00000000 0.92784321
0.00000000 0.00000000 0.92784321
0.00000000 0.00000000 0.92784321
0.22944768 0.00000000 0.91608248
0.66899171 0.00000000 1.00126275
0.97706354 0.00000000 1.03267534
1.03207098 0.00000000 1.03495633
1.03207098 0.00000000 1.03495633
1.03207098 0.00000000 1.03495633
0.00000000 0.00000000 0.92784321
0.00000000 0.00000000 0.92784321
0.00000000 0.00000000 0.92784321
0.22718321 0.00000000 0.91567218
0.66784493 0.00000000 1.00106942
0.97668501 0.00000000 1.03265221
1.03207098 0.00000000 1.03495633
1.03207098 0.00000000 1.03495633
1.03207098 0.00000000 1.03495633
0.00000000 0.00000000 0.92784321
0.00000000 0.00000000 0.92784321
0.00000000 0.00000000 0.92784321
0.21299303 0.00000000 0.91378416
0.66168803 0.00000000 1.00004431
0.97472964 0.00000000 1.03253600
1.03207098 0.00000000 1.03495633
1.03207098 0.00000000 1.03495633
1.03207098 0.00000000 1.03495633
0.00000000 0.00000000 0.92784321
0.00000000 0.00000000 0.92784321
0.00000000 0.00000000 0.92784321
0.14104578 0.00000000 0.90297276
0.63193837 0.00000000 0.99443135
0.96524772 0.00000000 1.03197204
1.03207098 0.00000000 1.03495633
1.03207098 0.00000000 1.03495633
1.03207098 0.00000000 1.03495633
0.00000000 0.35198117 1.02895223
0.00000000 0.35172452 1.02888172
0.00000000 0.35039696 1.02851991
0.00000000 0.34361762 1.02304576
0.50370680 0.31415768 0.90544568
0.91689379 0.27249518 1.03728879
1.04674736 0.26172704 1.04171828
1.04683452 0.25801713 1.04170367
1.04679068 0.25692127 1.04170023
0.00000000 0.77584494 1.06347065
0.00000000 0.77577430 1.06346681
0.00000000 0.77540043 1.06344483
0.00000000 0.77356740 1.06333728
0.22068507 0.72537582 1.02037283
0.82007642 0.77095422 0.98766617
1.05621233 0.77894470 1.05271333
1.07602175 0.77665691 1.05249546
1.07599444 0.77600935 1.05246559
0.01518114 0.98032313 1.07312004
0.01517278 0.98026577 1.07312495
0.01513098 0.97995735 1.07315504
0.01492398 0.97864061 1.07330356
0.16903220 0.95199338 1.04646345
0.73022896 0.92861460 1.01939145
1.00743525 0.97866829 1.04595456
1.07959735 0.98069739 1.05603969
1.08150892 0.98026979 1.05611310
0.02575070 1.03358008 1.06706183
0.02574261 1.03358008 1.06709683
0.02569980 1.03357907 1.06728440
0.02528428 1.03264230 1.06825790
0.15016049 1.01356244 1.04620595
0.71913181 0.98948302 1.00992226
0.98160624 1.02440272 1.04443012
1.06059263 1.03348052 1.05202774
1.08076952 1.03380824 1.05351868
0.02654612 1.03360115 1.06354257
0.02654095 1.03360115 1.06356839
0.02650890 1.03360014 1.06370688
0.02635436 1.03359593 1.06439080
0.13524690 1.01868969 1.04579934
0.71519674 0.99883524 1.00632522
0.97904120 1.03740069 1.04239929
1.05176301 1.04552671 1.05099700
1.07925166 1.04658011 1.05325023
