public/luts/Shot_by_Alice_Sony_LUT-DAWN.cube
TITLE "Shot_by_Alice_Sony_LUT-DAWN"
LUT_3D_SIZE 5
# MLUTS-Log3/Sony S-Gamut3.cine -> LA - Shot_by_Alice_Sony_LUT-DAWN/LA - Shot_by_Alice_Sony_LUT-DAWN, CineEI Shift 0.00, Black Level -4.05% IRE, Input 109% -> Output 100% - Created with LUTCalc v4.09 by Ben Turley February 2025
0.00000000 0.00000000 0.00000000
0.12446176 0.00000000 0.00000000
0.87809389 0.12951815 0.00000000
1.06532384 0.16855507 0.00177551
1.06470437 0.16826899 0.00997830
0.00000000 0.11749941 0.03145503
0.09424637 0.11636147 0.00373001
0.86211566 0.18473363 0.00000000
1.06659501 0.17552763 0.00000000
1.06612490 0.17324194 0.00000000
0.13170439 0.68048611 0.30412665
0.13154628 0.67994573 0.30383557
0.67362627 0.70055463 0.17642961
1.07618164 0.71056273 0.13772590
1.07626203 0.70720595 0.13663676
0.21462943 0.99033165 0.48124567
0.21462943 0.99033165 0.48124567
0.41558102 0.99218791 0.48727255
1.06476395 1.05988413 0.30696875
1.07095127 1.05993310 0.30579322
0.21462943 0.99033165 0.48124567
0.21462943 0.99033165 0.48124567
0.38298448 0.99047971 0.48931051
1.04951426 1.05924385 0.30947551
1.07095127 1.05993310 0.30579322
0.00000000 0.00000000 0.01900687
0.11882350 0.00000000 0.09656305
0.86487305 0.12528483 0.11383353
1.05495492 0.16641249 0.13115148
1.05449950 0.16642968 0.13687376
0.00000000 0.09844873 0.10593442
0.08572998 0.08947365 0.09592707
0.86805346 0.14260175 0.07209417
1.05618324 0.16867173 0.11840538
1.05530016 0.16631178 0.12612940
0.13038525 0.67649204 0.30239287
0.13022237 0.67593978 0.30211733
0.67208632 0.69618495 0.17484988
1.07615879 0.70613093 0.14029169
1.07621266 0.70268404 0.14032219
0.21462943 0.99033165 0.48124567
0.21462943 0.99033165 0.48124567
0.41420105 0.99205631 0.48741382
1.06457909 1.05988331 0.30700428
1.07095127 1.05993310 0.30579322
0.21462943 0.99033165 0.48124567
0.21462943 0.99033165 0.48124567
0.38171163 0.99032536 0.48932085
1.04907688 1.05921202 0.30957992
1.07095127 1.05993310 0.30579322
0.00000000 0.00000000 0.40634009
0.00000000 0.00000000 0.43877848
0.81951248 0.12644389 0.66302725
1.03474999 0.17726570 0.66108041
1.03474908 0.17727350 0.66228766
0.00000000 0.00000000 0.40431605
0.00000000 0.00000000 0.41528360
0.81301132 0.12470370 0.66090253
1.03474393 0.17724227 0.65881824
1.03474302 0.17725039 0.66002874
0.00000000 0.65260780 0.65111284
0.00000000 0.65194658 0.65120232
0.65796892 0.62037328 0.60003159
1.06784700 0.63546650 0.60432139
1.06750136 0.63158231 0.60551284
0.10885060 1.03114103 0.70866954
0.10878361 1.03115286 0.70881715
0.22352471 1.01872746 0.67406407
1.06068152 1.05746258 0.52297989
1.06757033 1.05268232 0.63318871
0.11358548 1.02962851 0.69832167
0.11351932 1.02965344 0.69847807
0.18420663 1.02154771 0.67200976
1.04116757 1.05836239 0.49202903
1.06768908 1.05591432 0.62227145
0.00000000 0.00000000 0.74592965
0.00000000 0.00000000 0.74596594
0.75967861 0.12147388 0.97518408
1.03943705 0.18352885 0.99514148
1.03944372 0.18353639 0.99531703
0.00000000 0.00000000 0.74552193
0.00000000 0.00000000 0.74555792
0.75180174 0.11986999 0.97438281
1.03942719 0.18351818 0.99486087
1.03943292 0.18352509 0.99503707
0.00000000 0.43750077 0.94015153
0.00000000 0.43631135 0.93989141
0.58660047 0.40223732 0.95565389
1.04823442 0.45072722 0.99836367
1.04792471 0.44145555 0.99820861
0.02524308 1.03497286 1.02788882
0.02520143 1.03472816 1.02790359
0.07719587 1.02948844 1.02516883
1.05112141 1.01054566 0.97969155
1.06637669 1.01083726 0.99497574
0.03017488 1.06270111 1.02750917
0.03017040 1.06270478 1.02756297
0.05112422 1.06102512 1.02644998
1.01447797 1.04793406 0.98025205
1.06584496 1.05009395 0.99195418
0.00000000 0.00000000 0.75137215
0.00000000 0.00000000 0.75137215
0.74837708 0.11953336 0.97718724
1.03954195 0.18366830 0.99808047
1.03954195 0.18366830 0.99808047
0.00000000 0.00000000 0.75137215
0.00000000 0.00000000 0.75137215
0.74029982 0.11791837 0.97635854
1.03954195 0.18366830 0.99808047
1.03954195 0.18366830 0.99808047
0.00000000 0.36898926 0.93492934
0.00000000 0.36721121 0.93459474
0.57837596 0.32423350 0.95490059
1.04660175 0.40038590 1.00561096
1.04650005 0.39720761 1.00545964
0.02285656 1.02439501 1.06367560
0.02282582 1.02415072 1.06363112
0.06748720 1.01841126 1.05981761
1.04665254 0.99606527 1.04041633
1.06302349 0.99874483 1.03559479
0.02793167 1.06441872 1.06841954
0.02792961 1.06442158 1.06849748
0.04546701 1.06295534 1.06799677
0.99959703 1.04907688 1.03104193
1.06602003 1.04902298 1.03419726
