public/luts/SonyProSW-LUT1_REC709.cube
TITLE "Generated by Resolve"
LUT_3D_SIZE 5
0.0617227 0.062623 0.0629129
0.268544 0.115068 0.0520943
0.652247 0.187442 0.116548
0.926284 0.373312 0.196628
0.926284 0.373312 0.196628
0.12134 0.184924 0.142931
0.217517 0.188464 0.126085
0.657145 0.264958 0.13254
0.925521 0.402289 0.202808
0.926299 0.377295 0.197436
0.24213 0.460365 0.233906
0.238834 0.455421 0.231647
0.601633 0.419089 0.163104
0.914412 0.539376 0.233845
0.926909 0.54789 0.23772
0.484474 0.821988 0.413062
0.481315 0.814984 0.409277
0.519432 0.785168 0.390417
0.827283 0.725231 0.279164
0.93051 0.704845 0.280491
0.497673 0.852888 0.431052
0.497673 0.852888 0.431052
0.497673 0.852888 0.431052
0.776242 0.839078 0.430823
0.931472 0.747723 0.292699
0.0331426 0.206668 0.256931
0.17145 0.189532 0.194385
0.592279 0.263478 0.190616
0.913695 0.33846 0.187381
0.920409 0.328847 0.186526
0.0451514 0.195727 0.210254
0.166339 0.193194 0.199603
0.609445 0.236896 0.120745
0.917693 0.341451 0.188678
0.925429 0.348272 0.191257
0.21767 0.442756 0.233249
0.221363 0.438865 0.227588
0.596368 0.399069 0.15697
0.912169 0.530587 0.231342
0.926604 0.540902 0.235889
0.474968 0.80174 0.402243
0.471901 0.79559 0.398932
0.511467 0.770413 0.38294
0.828122 0.707332 0.272007
0.930358 0.697978 0.278553
0.497673 0.852888 0.431052
0.497673 0.852888 0.431052
0.497673 0.852888 0.431052
0.774334 0.838865 0.430579
0.931472 0.747723 0.292699
0.0797589 0.450629 0.580148
0.0770581 0.438315 0.566613
0.414084 0.417456 0.404257
0.854032 0.552666 0.509194
0.855222 0.546227 0.494942
0.0769665 0.437522 0.560204
0.0754711 0.431968 0.574868
0.385473 0.405951 0.390631
0.85597 0.543725 0.489372
0.857893 0.53666 0.473533
0.0821393 0.456641 0.502037
0.0808118 0.450767 0.496666
0.381003 0.494499 0.52311
0.852293 0.522179 0.432547
0.878904 0.507988 0.396719
0.369879 0.76054 0.506279
0.366781 0.755398 0.502144
0.414267 0.731579 0.469947
0.80676 0.698802 0.350668
0.934295 0.696681 0.305119
0.456504 0.836194 0.483879
0.457435 0.835782 0.481941
0.460166 0.83473 0.476356
0.732433 0.833814 0.46891
0.931579 0.75285 0.294224
0.16846 0.833432 0.994202
0.167956 0.831281 0.993866
0.166094 0.824002 0.992935
0.810315 0.814404 1
0.806119 0.814923 1
0.168475 0.833494 0.994202
0.168276 0.832547 0.994049
0.166186 0.824323 0.992966
0.806958 0.807797 1
0.821149 0.749615 0.930678
0.145892 0.738613 0.897292
0.144671 0.733547 0.892424
0.139971 0.68867 0.858549
0.716838 0.656153 0.738567
0.781964 0.660807 0.733104
0.148135 0.731151 0.81651
0.14876 0.726574 0.812375
0.169253 0.713985 0.797574
0.752956 0.769192 0.786252
0.907698 0.785061 0.789075
0.236255 0.968673 0.869657
0.240696 0.969482 0.867109
0.249546 0.97116 0.860334
0.663676 0.890394 0.718471
0.960113 0.835248 0.557244
0.168414 0.83328 0.994186
0.168017 0.831601 0.993912
0.166018 0.823789 0.992905
0.840024 0.810422 1
0.840024 0.810422 1
0.168414 0.83328 0.994186
0.168292 0.832685 0.994095
0.166094 0.824018 0.992935
0.840024 0.810422 1
0.840024 0.810422 1
0.168902 0.835279 0.994507
0.168872 0.835157 0.994492
0.167147 0.828275 0.99353
0.540795 0.818387 1
0.734981 0.820035 1
0.173205 0.852506 0.99678
0.173129 0.852216 0.99675
0.173083 0.852094 0.996704
0.334768 0.853346 1
0.815106 0.846342 1
0.183932 0.895598 1
0.183932 0.895598 1
0.183932 0.895598 1
0.357473 0.921782 1
1 1 1
