public/luts/SonyProSW-LUT2_REC709.cube
TITLE "Generated by Resolve"
LUT_3D_SIZE 5
0.0251011 0.0489204 0.0751965
0.232547 0.0890211 0.0973983
0.444617 0.145312 0.140948
0.619181 0.202136 0.186374
0.619181 0.202136 0.186374
0.0690013 0.207034 0.084596
0.223484 0.19443 0.0859388
0.47805 0.205051 0.152178
0.638895 0.228275 0.194247
0.622522 0.207355 0.188327
0.268299 0.405097 0.126329
0.265278 0.401755 0.125673
0.505959 0.410574 0.15349
0.757885 0.396384 0.178592
0.764569 0.390021 0.179187
0.433539 0.640726 0.200732
0.431525 0.637568 0.199008
0.487709 0.632563 0.198184
0.731228 0.690181 0.189685
0.852689 0.663035 0.223087
0.441413 0.652537 0.207843
0.441413 0.652537 0.207843
0.441413 0.652537 0.207843
0.69929 0.72163 0.179599
0.875502 0.728756 0.228611
0.0505989 0.131716 0.234546
0.267674 0.131319 0.203952
0.485847 0.169757 0.218418
0.624964 0.213275 0.230655
0.622431 0.2103 0.221195
0.0779278 0.225681 0.242786
0.183703 0.208804 0.230426
0.477058 0.223026 0.215366
0.626413 0.217182 0.218036
0.62002 0.20557 0.204974
0.253071 0.402655 0.128969
0.252644 0.395727 0.126116
0.501381 0.397055 0.151629
0.753033 0.38555 0.178485
0.760937 0.379416 0.179171
0.427359 0.630961 0.195743
0.425269 0.627695 0.19408
0.480781 0.623163 0.191913
0.726665 0.677073 0.19057
0.849027 0.651453 0.22182
0.441413 0.652537 0.207843
0.441413 0.652537 0.207843
0.441413 0.652537 0.207843
0.697978 0.721218 0.179278
0.875502 0.728756 0.228611
0.1019 0.272435 0.451865
0.175418 0.283177 0.467155
0.528634 0.320363 0.394491
0.6907 0.372213 0.416205
0.689815 0.366857 0.409888
0.102174 0.274388 0.443503
0.127352 0.276936 0.452934
0.508156 0.306157 0.382818
0.689448 0.364599 0.407233
0.688563 0.359091 0.400748
0.159701 0.471794 0.504189
0.158282 0.466697 0.50045
0.43064 0.467735 0.473945
0.699702 0.50161 0.466331
0.714031 0.493111 0.456062
0.321004 0.653727 0.417777
0.319585 0.651102 0.414069
0.405524 0.657069 0.410773
0.71104 0.674983 0.238239
0.830854 0.651865 0.253178
0.398688 0.716335 0.363775
0.4 0.714977 0.359792
0.403967 0.711559 0.34757
0.688991 0.735393 0.242161
0.870008 0.742428 0.243214
0.15378 0.449851 0.71104
0.173892 0.461631 0.715267
0.459876 0.456535 0.707622
0.714488 0.468574 0.632746
0.712947 0.466148 0.622904
0.151812 0.442206 0.700465
0.161639 0.44712 0.702602
0.433143 0.452796 0.697887
0.712459 0.465324 0.619348
0.71133 0.463355 0.610895
0.17969 0.530221 0.718746
0.178454 0.525933 0.714763
0.38117 0.544671 0.711376
0.701823 0.530983 0.638224
0.720363 0.528099 0.629816
0.235615 0.734417 0.767452
0.23444 0.729931 0.764233
0.237736 0.712459 0.74548
0.68986 0.709224 0.693584
0.805035 0.705913 0.682216
0.262989 0.90399 0.684962
0.262272 0.900786 0.681788
0.260227 0.891707 0.672633
0.670344 0.830884 0.634546
0.90518 0.822522 0.519677
0.159365 0.472023 0.743053
0.17612 0.48188 0.748577
0.44593 0.490867 0.753704
0.729854 0.489921 0.726116
0.729854 0.489921 0.726116
0.159365 0.472023 0.743053
0.165606 0.475517 0.745617
0.418647 0.493584 0.753231
0.729854 0.489921 0.726116
0.729854 0.489921 0.726116
0.179828 0.534752 0.764401
0.178912 0.531838 0.762936
0.348684 0.558602 0.775845
0.714092 0.529183 0.76968
0.737301 0.521904 0.750256
0.245869 0.757656 0.956237
0.245258 0.755444 0.955581
0.249714 0.747204 0.953475
0.664744 0.732876 0.861219
0.81265 0.711513 0.84686
0.286351 0.958465 1
0.286351 0.958465 1
0.286351 0.958465 1
0.480003 0.981521 1
0.953124 0.990677 0.914687
