public/luts/SonyProSW-LUT2_REC709.cube
TITLE "Generated by Resolve"
LUT_3D_SIZE 33
0.0251011 0.0489204 0.0751965
0.0251011 0.0489204 0.0751965
0.0330663 0.0519875 0.0778515
0.059968 0.0569924 0.0797894
0.09514 0.0642252 0.0812238
0.13257 0.0722057 0.0858778
0.169329 0.0787671 0.0894636
0.202731 0.0840162 0.0930343
0.232547 0.0890211 0.0973983
0.25565 0.0936751 0.101747
0.279973 0.0978561 0.10631
0.306096 0.103258 0.111315
0.334371 0.110979 0.116793
0.362173 0.119097 0.122408
0.387701 0.127062 0.127779
0.415106 0.135805 0.133944
0.444617 0.145312 0.140948
0.47248 0.154391 0.147784
0.500099 0.163424 0.154803
0.528084 0.172564 0.162142
0.55642 0.181781 0.169619
0.583856 0.190753 0.176974
0.611337 0.199649 0.184314
0.619181 0.202136 0.186374
0.619181 0.202136 0.186374
0.619181 0.202136 0.186374
0.619181 0.202136 0.186374
0.619181 0.202136 0.186374
0.619181 0.202136 0.186374
0.619181 0.202136 0.186374
0.619181 0.202136 0.186374
0.619181 0.202136 0.186374
0.619181 0.202136 0.186374
0.0251011 0.0489204 0.0751965
0.0251011 0.0489204 0.0751965
0.0276799 0.0496681 0.0757
0.0487831 0.0557717 0.0802777
0.0852979 0.0619516 0.0806592
0.123537 0.0703136 0.0847028
0.162066 0.0775464 0.0889296
0.19707 0.0830701 0.0922713
0.228931 0.088304 0.0966659
0.252934 0.0931106 0.101274
0.277226 0.0973831 0.105776
0.303365 0.10251 0.110796
0.331945 0.110338 0.116304
0.360098 0.118456 0.121981
0.385992 0.126528 0.127398
0.413306 0.135225 0.133532
0.442908 0.144762 0.140536
0.471 0.153903 0.147417
0.498711 0.162966 0.154437
0.526726 0.172107 0.161791
0.555032 0.181338 0.169253
0.582574 0.190341 0.176623
0.610071 0.199237 0.183993
0.619181 0.202136 0.186374
0.619181 0.202136 0.186374
0.619181 0.202136 0.186374
0.619181 0.202136 0.186374
0.619181 0.202136 0.186374
0.619181 0.202136 0.186374
0.619181 0.202136 0.186374
0.619181 0.202136 0.186374
0.619181 0.202136 0.186374
0.619181 0.202136 0.186374
0.026566 0.0545205 0.0759899
0.0261845 0.0530556 0.0758221
0.025803 0.0515755 0.0756695
0.039292 0.0556802 0.0804303
0.0744335 0.0594492 0.0800031
0.113817 0.0682536 0.0834363
0.15436 0.0762798 0.0883955
0.191196 0.0821393 0.0914778
0.225132 0.0875868 0.0959029
0.249897 0.0924849 0.10071
0.274403 0.0968948 0.105241
0.300557 0.101762 0.110262
0.329458 0.109682 0.115816
0.357977 0.117815 0.121538
0.384222 0.125963 0.127016
0.41146 0.134646 0.133104
0.441169 0.144198 0.140124
0.469474 0.153414 0.147036
0.497307 0.162509 0.154086
0.525338 0.171649 0.161425
0.553628 0.18088 0.168887
0.581277 0.189914 0.176272
0.608759 0.198825 0.183642
0.619181 0.202136 0.186374
0.619181 0.202136 0.186374
0.619181 0.202136 0.186374
0.619181 0.202136 0.186374
0.619181 0.202136 0.186374
0.619181 0.202136 0.186374
0.619181 0.202136 0.186374
0.619181 0.202136 0.186374
0.619181 0.202136 0.186374
0.619181 0.202136 0.186374
0.0327153 0.0809339 0.0789502
0.0323339 0.0790112 0.0787671
0.0319371 0.0770581 0.078584
0.0386511 0.0760204 0.0794385
0.0787213 0.0779126 0.0771038
0.118242 0.0827344 0.0803845
0.153811 0.0884718 0.0863966
0.191897 0.0938125 0.0924392
0.223911 0.0962081 0.0962081
0.2495 0.0986801 0.100984
0.273045 0.100404 0.105318
0.297841 0.10164 0.109834
0.326925 0.10901 0.115328
0.355825 0.117174 0.121096
0.382437 0.125399 0.12665
0.409598 0.134035 0.132677
0.439429 0.143633 0.139696
0.467948 0.152926 0.146654
0.495888 0.162051 0.153719
0.523919 0.171191 0.161044
0.552239 0.180423 0.168521
0.579965 0.189487 0.175921
0.607462 0.198398 0.183291
0.619181 0.202136 0.186374
0.619181 0.202136 0.186374
0.619181 0.202136 0.186374
0.619181 0.202136 0.186374
0.619181 0.202136 0.186374
0.619181 0.202136 0.186374
0.619181 0.202136 0.186374
0.619181 0.202136 0.186374
0.619181 0.202136 0.186374
0.619181 0.202136 0.186374
0.0386816 0.111528 0.0808728
0.0383917 0.109941 0.0808728
0.0380865 0.108309 0.0808881
0.0400702 0.107134 0.0816052
0.0611276 0.106935 0.0739147
0.124025 0.100664 0.0720836
0.167086 0.103487 0.0806744
0.200855 0.107958 0.086305
0.227939 0.112535 0.0915999
0.253239 0.116365 0.0970016
0.280354 0.120287 0.104082
0.305364 0.123033 0.110857
0.330114 0.124041 0.116732
0.357061 0.127031 0.122454
0.381964 0.129641 0.12726
0.407599 0.133486 0.132235
0.437522 0.143023 0.139239
0.466285 0.152377 0.146242
0.494362 0.161532 0.153323
0.522377 0.170687 0.160647
0.550729 0.179934 0.168124
0.578546 0.189014 0.17554
0.606043 0.19794 0.18291
0.619181 0.202136 0.186374
0.619181 0.202136 0.186374
0.619181 0.202136 0.186374
0.619181 0.202136 0.186374
0.619181 0.202136 0.186374
0.619181 0.202136 0.186374
0.619181 0.202136 0.186374
0.619181 0.202136 0.186374
0.619181 0.202136 0.186374
0.619181 0.202136 0.186374
0.0444495 0.137987 0.0801709
0.0441749 0.136782 0.0801709
0.0438849 0.135561 0.0801556
0.0436103 0.13431 0.0801556
0.0598459 0.1346 0.079408
0.103731 0.128679 0.0673991
0.163348 0.121874 0.072755
0.207538 0.123644 0.0843366
0.240513 0.128878 0.0935073
0.268055 0.133303 0.100008
0.293233 0.137057 0.105959
0.31841 0.140902 0.11194
0.342519 0.14403 0.117906
0.366903 0.146532 0.124636
0.389975 0.148501 0.130434
0.41323 0.149706 0.13579
0.440284 0.153979 0.141741
0.46656 0.158083 0.147494
0.493019 0.162524 0.153307
0.520562 0.170108 0.160159
0.548943 0.17937 0.167651
0.576898 0.188479 0.175097
0.604379 0.197406 0.182467
0.619181 0.202136 0.186374
0.619181 0.202136 0.186374
0.619181 0.202136 0.186374
0.619181 0.202136 0.186374
0.619181 0.202136 0.186374
0.619181 0.202136 0.186374
0.619181 0.202136 0.186374
0.619181 0.202136 0.186374
0.619181 0.202136 0.186374
0.619181 0.202136 0.186374
0.0507057 0.163058 0.0795148
0.0504005 0.162142 0.0795453
0.0501411 0.161257 0.07953
0.0498817 0.160327 0.07953
0.0556344 0.160388 0.0789502
0.0966964 0.156603 0.0768139
0.145083 0.149966 0.0715953
0.200671 0.141985 0.0782788
0.2448 0.143664 0.0907149
0.277195 0.148058 0.100679
0.30518 0.152255 0.108171
0.329793 0.155779 0.114717
0.354635 0.159335 0.12076
0.379034 0.163256 0.126741
0.402625 0.166369 0.132601
0.426047 0.169741 0.13843
0.448905 0.17116 0.14406
0.473579 0.174273 0.150988
0.498482 0.177203 0.157473
0.524529 0.181796 0.163546
0.550362 0.186252 0.169589
0.576562 0.191135 0.175692
0.602426 0.19678 0.181949
0.619181 0.202136 0.186374
0.619181 0.202136 0.186374
0.619181 0.202136 0.186374
0.619181 0.202136 0.186374
0.619181 0.202136 0.186374
0.619181 0.202136 0.186374
0.619181 0.202136 0.186374
0.619181 0.202136 0.186374
0.619181 0.202136 0.186374
0.619181 0.202136 0.186374
0.0576638 0.185657 0.080705
0.0574807 0.184955 0.0805524
0.0572976 0.184268 0.080415
0.0571145 0.183551 0.0802625
0.0569162 0.182788 0.0800946
0.0818341 0.185428 0.0773785
0.139712 0.176242 0.0765698
0.184588 0.170794 0.0785687
0.237217 0.162951 0.0852979
0.279469 0.162142 0.0960708
0.313161 0.166537 0.106828
0.341375 0.170657 0.116625
0.36524 0.173892 0.123461
0.391348 0.178119 0.129961
0.415793 0.181659 0.136248
0.440253 0.185718 0.142519
0.462821 0.188312 0.147784
0.487175 0.192477 0.154955
0.51133 0.196124 0.161364
0.534615 0.197955 0.167727
0.559716 0.202182 0.173663
0.584787 0.206348 0.180209
0.610376 0.210971 0.186603
0.626657 0.213001 0.190433
0.624094 0.209552 0.189136
0.621668 0.206149 0.187869
0.619425 0.202823 0.186618
0.619181 0.202136 0.186374
0.619181 0.202136 0.186374
0.619181 0.202136 0.186374
0.619181 0.202136 0.186374
0.619181 0.202136 0.186374
0.619181 0.202136 0.186374
0.0690013 0.207034 0.084596
0.0684825 0.206409 0.0845045
0.0679484 0.205783 0.0843977
0.0674144 0.205142 0.0843061
0.0668193 0.20444 0.0841993
0.0752117 0.204654 0.0835889
0.125139 0.206058 0.082948
0.178317 0.200946 0.0833295
0.223484 0.19443 0.0859388
0.272312 0.182849 0.0909285
0.316548 0.181262 0.10164
0.350347 0.185245 0.11426
0.379889 0.189746 0.12549
0.403616 0.193149 0.132265
0.42855 0.197024 0.139284
0.453712 0.201266 0.14609
0.47805 0.205051 0.152178
0.502297 0.209903 0.15877
0.526833 0.214328 0.164843
0.551339 0.218509 0.170977
0.575143 0.222354 0.177264
0.598978 0.226154 0.184115
0.622629 0.229618 0.190066
0.641337 0.231327 0.195224
0.638895 0.228275 0.194247
0.63621 0.224948 0.193393
0.633661 0.221744 0.192584
0.631189 0.218692 0.191836
0.628717 0.21561 0.191073
0.62652 0.212802 0.190372
0.62501 0.210788 0.189609
0.623682 0.208972 0.188922
0.622522 0.207355 0.188327
0.0810254 0.229191 0.0890822
0.0807965 0.228687 0.0889601
0.0805829 0.228183 0.088838
0.080354 0.227665 0.088716
0.0801099 0.227115 0.0885786
0.0798199 0.226459 0.0884108
0.112932 0.227237 0.0882277
0.168719 0.227802 0.0898756
0.219455 0.226535 0.0922103
0.257877 0.218235 0.092958
0.309071 0.205386 0.0972457
0.353628 0.200793 0.107576
0.386496 0.203952 0.120592
0.415946 0.208438 0.132937
0.441672 0.212787 0.141207
0.466896 0.216815 0.149142
0.492363 0.221653 0.15639
0.516503 0.225788 0.162417
0.541619 0.230777 0.167987
0.56643 0.23563 0.173175
0.590738 0.240665 0.177691
0.617044 0.247227 0.182635
0.642161 0.252903 0.188037
0.664866 0.257038 0.193164
0.660914 0.252735 0.193805
0.65713 0.248539 0.194263
0.653452 0.244511 0.19469
0.649851 0.240665 0.195087
0.646494 0.237095 0.195453
0.643381 0.233814 0.195789
0.641749 0.231846 0.195392
0.640497 0.230274 0.194888
0.639399 0.228901 0.194446
0.10428 0.251209 0.094377
0.103746 0.25069 0.094255
0.103197 0.250172 0.0941329
0.102647 0.249638 0.0940261
0.102052 0.249058 0.0938888
0.101335 0.248386 0.0937362
0.103899 0.247807 0.0934768
0.160861 0.251041 0.0937667
0.213077 0.251972 0.0962234
0.256077 0.250385 0.100862
0.293996 0.240513 0.10135
0.34551 0.227726 0.105592
0.390295 0.221683 0.114839
0.422843 0.223148 0.127947
0.454093 0.228122 0.141527
0.480201 0.232639 0.15024
0.505974 0.237201 0.158343
0.531197 0.241901 0.164492
0.555474 0.246723 0.170138
0.581094 0.252232 0.175494
0.606439 0.258259 0.180133
0.631647 0.264485 0.184054
0.657847 0.271122 0.18732
0.683345 0.277729 0.189654
0.68304 0.27599 0.189761
0.680537 0.273548 0.189761
0.678126 0.271153 0.190005
0.675761 0.268772 0.190906
0.673594 0.26656 0.191745
0.671199 0.263966 0.192157
0.668986 0.26154 0.192508
0.667018 0.259388 0.192828
0.665263 0.257481 0.193103
0.128496 0.276661 0.0981918
0.127977 0.276204 0.098085
0.127443 0.275746 0.0979782
0.126909 0.275288 0.0978714
0.126329 0.274784 0.0977493
0.125719 0.274174 0.0976425
0.125124 0.273411 0.0975509
0.152453 0.273426 0.0982223
0.206195 0.275334 0.0994736
0.253986 0.277134 0.104692
0.292699 0.275074 0.109575
0.331044 0.2654 0.110399
0.382757 0.252262 0.114244
0.427024 0.243717 0.122469
0.460441 0.243641 0.135454
0.492363 0.248371 0.148943
0.51899 0.252934 0.158434
0.545754 0.258259 0.165957
0.570001 0.263127 0.171191
0.595056 0.26862 0.176349
0.620859 0.274632 0.181018
0.645457 0.280507 0.184451
0.670634 0.286961 0.186862
0.696529 0.293996 0.188998
0.701259 0.294148 0.189349
0.699306 0.292073 0.189502
0.697444 0.290105 0.189639
0.695552 0.288243 0.189654
0.693797 0.286534 0.18967
0.69221 0.284977 0.18967
0.690776 0.283574 0.189685
0.689509 0.282322 0.1897
0.68838 0.281209 0.189715
0.15845 0.301259 0.103914
0.157931 0.300847 0.103822
0.157412 0.300435 0.103716
0.156878 0.300023 0.103624
0.156298 0.299565 0.103517
0.155627 0.299046 0.103395
0.154818 0.298405 0.103243
0.153872 0.297673 0.103075
0.198001 0.298161 0.104356
0.247837 0.300572 0.105913
0.29337 0.304326 0.113527
0.329015 0.300908 0.117968
0.36846 0.292165 0.119646
0.419715 0.276524 0.121874
0.464744 0.26598 0.129519
0.498314 0.264805 0.142138
0.530541 0.269398 0.155428
0.557717 0.274037 0.165148
0.583566 0.279164 0.17174
0.607965 0.284474 0.175814
0.634638 0.290883 0.18024
0.658885 0.296727 0.183627
0.682826 0.302815 0.185763
0.707835 0.309712 0.187366
0.718029 0.311925 0.187945
0.716258 0.310109 0.188083
0.714672 0.3084 0.188235
0.713191 0.306828 0.188373
0.711818 0.305364 0.188495
0.710567 0.304036 0.188586
0.709438 0.302831 0.188678
0.708446 0.301778 0.188769
0.707576 0.300847 0.188846
0.188296 0.328573 0.109972
0.187915 0.328222 0.109895
0.187518 0.327855 0.109804
0.187121 0.327504 0.109728
0.186694 0.327108 0.109636
0.186175 0.32665 0.109529
0.18558 0.326101 0.109422
0.184863 0.325444 0.10927
0.191608 0.323766 0.109285
0.238636 0.324544 0.110628
0.28777 0.329397 0.114534
0.331701 0.332189 0.122225
0.365347 0.328115 0.125826
0.403952 0.318013 0.128481
0.455482 0.303624 0.130129
0.50106 0.291478 0.136324
0.534997 0.288472 0.147341
0.566064 0.291295 0.158251
0.593912 0.295903 0.167712
0.619333 0.300816 0.173907
0.644266 0.306477 0.177935
0.669947 0.313008 0.181262
0.693584 0.319387 0.183795
0.717571 0.32668 0.184878
0.733608 0.331228 0.185626
0.732311 0.329427 0.185855
0.73106 0.327733 0.186069
0.729885 0.326162 0.186267
0.728801 0.324712 0.18645
0.727825 0.3234 0.186603
0.72694 0.32224 0.186755
0.726162 0.321187 0.186877
0.725475 0.320287 0.186984
0.215091 0.352026 0.115343
0.21474 0.351736 0.115282
0.214374 0.351461 0.115206
0.214008 0.351156 0.115145
0.213611 0.350851 0.115053
0.213153 0.350469 0.114977
0.212589 0.350027 0.114855
0.211948 0.349508 0.114733
0.211185 0.348913 0.11458
0.233417 0.348318 0.11519
0.278859 0.352758 0.116777
0.328908 0.358618 0.123934
0.369757 0.359869 0.130953
0.400977 0.356435 0.134081
0.439704 0.347738 0.137423
0.490211 0.3337 0.139376
0.536538 0.320577 0.143664
0.569635 0.314839 0.150591
0.600626 0.31635 0.160327
0.628534 0.320272 0.168658
0.653468 0.324788 0.174655
0.677409 0.330892 0.178195
0.701411 0.337819 0.180453
0.724926 0.345022 0.182071
0.746761 0.35201 0.182742
0.745754 0.35024 0.182986
0.744808 0.348592 0.183215
0.743923 0.347051 0.183444
0.743114 0.345632 0.183642
0.742397 0.344396 0.18381
0.741772 0.343282 0.183948
0.741207 0.342306 0.18407
0.740719 0.341436 0.184176
0.242191 0.378149 0.120897
0.241871 0.377829 0.120836
0.24155 0.377523 0.120775
0.241215 0.377188 0.120699
0.240864 0.376852 0.120623
0.240452 0.37644 0.120546
0.239963 0.375952 0.120439
0.239384 0.375387 0.120333
0.238697 0.374716 0.12018
0.237903 0.373953 0.120027
0.273625 0.376501 0.121218
0.319127 0.382284 0.123598
0.36936 0.388724 0.13228
0.40621 0.388006 0.139513
0.435279 0.386954 0.141756
0.474449 0.379248 0.14548
0.522774 0.364889 0.148104
0.569528 0.352819 0.150484
0.602182 0.346029 0.154925
0.632837 0.345342 0.162661
0.659953 0.347158 0.169177
0.684657 0.350988 0.173892
0.708003 0.356741 0.176959
0.730999 0.363806 0.178424
0.754864 0.372137 0.179324
0.758022 0.372015 0.17966
0.75729 0.370398 0.179873
0.756497 0.369039 0.180117
0.755779 0.367788 0.180331
0.755123 0.366674 0.180545
0.754528 0.365667 0.180713
0.754025 0.364782 0.18088
0.753567 0.363973 0.180987
0.268299 0.405097 0.126329
0.268025 0.404791 0.126268
0.26775 0.404486 0.126207
0.26746 0.404166 0.126146
0.267155 0.40383 0.126085
0.266789 0.403433 0.125994
0.266377 0.40296 0.125902
0.265858 0.402411 0.125795
0.265278 0.401755 0.125673
0.264591 0.401007 0.125536
0.270069 0.400763 0.125521
0.313726 0.406195 0.126345
0.35935 0.413504 0.12932
0.406012 0.419806 0.138705
0.441917 0.418097 0.147173
0.469383 0.419242 0.148745
0.505959 0.410574 0.15349
0.55378 0.399069 0.157015
0.599786 0.38822 0.159152
0.632349 0.381323 0.161089
0.660822 0.377722 0.164477
0.68777 0.377203 0.169909
0.712093 0.381277 0.173999
0.734997 0.38761 0.176761
0.757885 0.396384 0.178592
0.768109 0.399756 0.179248
0.767407 0.397925 0.179232
0.766781 0.396231 0.179217
0.766201 0.39469 0.179202
0.765698 0.393301 0.179202
0.76527 0.392065 0.179187
0.764904 0.390967 0.179187
0.764569 0.390021 0.179187
0.293339 0.43418 0.134096
0.29308 0.43386 0.133974
0.292821 0.433539 0.133867
0.292561 0.433219 0.133745
0.292287 0.432868 0.133623
0.291936 0.432456 0.133471
0.291554 0.431968 0.133303
0.291081 0.431403 0.133089
0.290532 0.430732 0.132845
0.289906 0.429938 0.13257
0.289174 0.429038 0.13225
0.31017 0.43064 0.133196
0.352758 0.436011 0.132342
0.398932 0.4448 0.136141
0.440726 0.44918 0.145892
0.474281 0.449332 0.152667
0.503426 0.451743 0.155535
0.538796 0.445045 0.160876
0.583947 0.434852 0.165026
0.626902 0.425925 0.168185
0.656657 0.418311 0.169482
0.685603 0.414557 0.171801
0.712459 0.413046 0.175769
0.735988 0.416251 0.17818
0.758938 0.422644 0.180133
0.777752 0.429496 0.181643
0.777203 0.427695 0.18143
0.776684 0.426032 0.181247
0.776226 0.424521 0.181079
0.775814 0.423148 0.180926
0.775448 0.421942 0.180789
0.775113 0.420859 0.180667
0.774823 0.419928 0.18056
0.315801 0.4645 0.137682
0.315587 0.464195 0.137636
0.315358 0.46389 0.137575
0.315129 0.463584 0.13753
0.3149 0.463249 0.137514
0.314626 0.462867 0.137484
0.314305 0.462425 0.137469
0.313924 0.461891 0.137438
0.313481 0.461265 0.137392
0.312978 0.460548 0.137362
0.312367 0.459709 0.137301
0.311681 0.458747 0.13724
0.347448 0.461601 0.139223
0.390661 0.467521 0.138247
0.435019 0.477104 0.14078
0.47303 0.479454 0.150958
0.5075 0.482322 0.158129
0.535409 0.48539 0.161425
0.569299 0.47985 0.167224
0.61146 0.471565 0.17293
0.652857 0.463127 0.177005
0.680552 0.45626 0.178286
0.709194 0.45243 0.179873
0.735241 0.45066 0.181598
0.758938 0.45333 0.183642
0.784237 0.459327 0.18613
0.787457 0.458671 0.186145
0.786877 0.456916 0.185748
0.786328 0.455375 0.185382
0.785824 0.454017 0.185061
0.785382 0.452811 0.184771
0.784985 0.451743 0.184512
0.784634 0.450813 0.184283
0.336629 0.493217 0.142321
0.336461 0.492973 0.14229
0.336278 0.492714 0.142245
0.336095 0.49247 0.142199
0.335897 0.492195 0.142153
0.335668 0.491875 0.142107
0.335393 0.491493 0.142046
0.335073 0.491051 0.14197
0.334691 0.490532 0.141894
0.334249 0.489937 0.141787
0.333745 0.489235 0.14168
0.33315 0.488426 0.141543
0.342733 0.488548 0.141588
0.382757 0.491142 0.141543
0.425467 0.499779 0.142306
0.468193 0.509331 0.14522
0.506386 0.513634 0.156329
0.539162 0.515572 0.163165
0.565698 0.519509 0.166323
0.598123 0.514794 0.172839
0.637644 0.507408 0.179919
0.677806 0.501274 0.185214
0.703853 0.495735 0.186999
0.730587 0.491814 0.188647
0.757809 0.490242 0.190524
0.785245 0.489845 0.192554
0.799008 0.492241 0.193713
0.798413 0.490547 0.193332
0.797879 0.489021 0.192996
0.797391 0.487633 0.192691
0.796963 0.486412 0.192416
0.796582 0.485328 0.192172
0.796246 0.484382 0.191959
0.356161 0.522927 0.157259
0.355962 0.522622 0.157214
0.355764 0.522316 0.157153
0.35555 0.522011 0.157107
0.355337 0.521675 0.157061
0.355077 0.521279 0.157
0.354772 0.520821 0.156924
0.354421 0.520272 0.156832
0.353994 0.519646 0.156725
0.353567 0.518959 0.156435
0.353063 0.518196 0.156008
0.352499 0.517311 0.15552
0.351858 0.516304 0.154971
0.377935 0.51931 0.15639
0.4168 0.522225 0.152575
0.458747 0.531975 0.148882
0.500725 0.54197 0.150576
0.536812 0.54638 0.15996
0.568765 0.548226 0.167544
0.594553 0.552468 0.170672
0.625269 0.548974 0.177584
0.662425 0.542779 0.185183
0.698314 0.537148 0.191302
0.725917 0.532464 0.194278
0.753887 0.529351 0.196948
0.785061 0.527047 0.199405
0.812131 0.52462 0.201221
0.811475 0.523018 0.200855
0.810864 0.521584 0.200534
0.81033 0.520287 0.200229
0.809842 0.519127 0.199969
0.80943 0.518105 0.199725
0.809064 0.51722 0.199527
0.377096 0.555673 0.163851
0.376898 0.555367 0.163745
0.376715 0.555062 0.163653
0.376516 0.554757 0.163561
0.376318 0.554421 0.163455
0.376074 0.55404 0.163333
0.375784 0.553582 0.16318
0.375433 0.553033 0.162997
0.375036 0.552407 0.162799
0.374578 0.551675 0.16257
0.374044 0.55082 0.162295
0.373419 0.549859 0.161975
0.372732 0.548745 0.161624
0.37644 0.548104 0.161486
0.414069 0.546715 0.159457
0.45275 0.553933 0.156344
0.492882 0.563394 0.151644
0.533761 0.574075 0.156191
0.567636 0.577951 0.16408
0.59678 0.580896 0.170947
0.621286 0.585809 0.174014
0.65127 0.584039 0.181201
0.684565 0.578439 0.18909
0.720867 0.572961 0.197269
0.751156 0.569741 0.201404
0.781064 0.565545 0.204883
0.812528 0.562112 0.207614
0.822904 0.559594 0.208133
0.822446 0.5579 0.207813
0.822034 0.556374 0.207523
0.821683 0.555016 0.207263
0.821363 0.553811 0.20705
0.821088 0.552773 0.206851
0.395499 0.581842 0.167926
0.395346 0.581598 0.167788
0.395163 0.581353 0.167636
0.394995 0.581094 0.167483
0.394827 0.580835 0.167315
0.394598 0.580514 0.167132
0.394354 0.580133 0.166903
0.394049 0.579705 0.166659
0.393713 0.579217 0.166644
0.393317 0.578637 0.166613
0.392844 0.577981 0.166567
0.392309 0.577234 0.166537
0.391714 0.576379 0.166476
0.391012 0.575402 0.16643
0.41294 0.574411 0.165515
0.450416 0.576928 0.161883
0.48835 0.58526 0.155001
0.527413 0.596063 0.155062
0.565408 0.605402 0.159976
0.596933 0.608927 0.168658
0.623407 0.612284 0.17435
0.648707 0.618677 0.177722
0.675669 0.618463 0.183749
0.708919 0.613153 0.193408
0.747112 0.609171 0.203037
0.779217 0.605859 0.208377
0.808225 0.60058 0.212192
0.833265 0.597116 0.214771
0.832807 0.595514 0.214527
0.832395 0.594095 0.214313
0.832044 0.592813 0.214099
0.831724 0.591699 0.213931
0.831434 0.590723 0.213779
0.414481 0.610422 0.184512
0.414298 0.610132 0.184344
0.414115 0.609827 0.184176
0.413916 0.609522 0.184009
0.413718 0.609201 0.183825
0.413474 0.60882 0.183612
0.413184 0.608362 0.183352
0.412848 0.607843 0.183047
0.412451 0.607217 0.182712
0.411994 0.606516 0.1823
0.41146 0.605676 0.181827
0.410864 0.60473 0.181292
0.410163 0.603662 0.180667
0.409384 0.602457 0.179965
0.413016 0.601267 0.179461
0.449851 0.601755 0.181292
0.487144 0.608789 0.178195
0.524498 0.617639 0.173297
0.561852 0.628733 0.16405
0.59469 0.634974 0.167254
0.62472 0.640391 0.17174
0.650462 0.644205 0.177478
0.675853 0.652262 0.180499
0.702998 0.65359 0.187121
0.735363 0.648676 0.197559
0.774929 0.644984 0.208698
0.806882 0.64097 0.21471
0.836362 0.63476 0.218997
0.843198 0.632197 0.219837
0.842756 0.630686 0.219669
0.842359 0.629328 0.219501
0.842023 0.628092 0.219333
0.841718 0.627008 0.219165
0.433539 0.640726 0.200732
0.433356 0.640436 0.200565
0.433173 0.640146 0.200397
0.43299 0.639857 0.200229
0.432792 0.639551 0.200061
0.432563 0.639185 0.199847
0.432273 0.638758 0.199588
0.431937 0.638209 0.199313
0.431525 0.637568 0.199008
0.431052 0.63682 0.198642
0.430518 0.63595 0.198215
0.429892 0.634958 0.197726
0.429175 0.633829 0.197177
0.428382 0.632563 0.196551
0.427482 0.631159 0.19585
0.451072 0.628672 0.197269
0.487709 0.632563 0.198184
0.523171 0.63975 0.192874
0.558175 0.648981 0.183429
0.592859 0.658457 0.172137
0.62533 0.667185 0.167514
0.654582 0.672938 0.175296
0.679408 0.679149 0.17966
0.704341 0.686641 0.183413
0.731228 0.690181 0.189685
0.762509 0.684749 0.200916
0.802228 0.680095 0.213535
0.833951 0.674571 0.220233
0.854383 0.66833 0.223651
0.853864 0.666743 0.223484
0.853422 0.665339 0.223331
0.853025 0.664118 0.223209
0.852689 0.663035 0.223087
0.441413 0.652537 0.207843
0.441413 0.652537 0.207843
0.441413 0.652537 0.207843
0.441413 0.652537 0.207843
0.441413 0.652537 0.207843
0.441413 0.652537 0.207843
0.441413 0.652537 0.207843
0.441413 0.652537 0.207843
0.441413 0.652537 0.207843
0.441413 0.652537 0.207843
0.441413 0.652537 0.207843
0.441413 0.652537 0.207843
0.441413 0.652537 0.207843
0.441413 0.652537 0.207843
0.441413 0.652537 0.207843
0.45153 0.651392 0.208972
0.488243 0.653513 0.211841
0.524559 0.661219 0.205737
0.559426 0.671016 0.19736
0.591592 0.680491 0.181079
0.624277 0.691478 0.168612
0.654597 0.70016 0.17052
0.683711 0.70782 0.177798
0.707988 0.713985 0.182467
0.730724 0.7196 0.186221
0.758663 0.72697 0.191882
0.78793 0.720668 0.203098
0.828305 0.713268 0.218067
0.862425 0.704829 0.225986
0.866178 0.702205 0.226642
0.86566 0.700679 0.22652
0.865187 0.699336 0.226413
0.86479 0.698177 0.226322
0.441413 0.652537 0.207843
0.441413 0.652537 0.207843
0.441413 0.652537 0.207843
0.441413 0.652537 0.207843
0.441413 0.652537 0.207843
0.441413 0.652537 0.207843
0.441413 0.652537 0.207843
0.441413 0.652537 0.207843
0.441413 0.652537 0.207843
0.441413 0.652537 0.207843
0.441413 0.652537 0.207843
0.441413 0.652537 0.207843
0.441413 0.652537 0.207843
0.441413 0.652537 0.207843
0.441413 0.652537 0.207843
0.441413 0.652537 0.207843
0.475792 0.650843 0.211261
0.513252 0.658763 0.207889
0.549783 0.667994 0.202716
0.583032 0.679301 0.183902
0.61648 0.692226 0.173144
0.648447 0.704494 0.16875
0.678477 0.71426 0.17525
0.706401 0.723857 0.181353
0.728801 0.730632 0.185031
0.752895 0.739528 0.18851
0.780301 0.744427 0.195224
0.812741 0.74049 0.207492
0.854505 0.733257 0.223056
0.875502 0.728756 0.228611
0.875502 0.728756 0.228611
