public/luts/SonyProSW-LUT1_REC709.cube
TITLE "Generated by Resolve"
LUT_3D_SIZE 9
0.0617227 0.062623 0.0629129
0.111879 0.0948043 0.0874037
0.268544 0.115068 0.0520943
0.446662 0.140978 0.0777295
0.652247 0.187442 0.116548
0.82092 0.266072 0.158053
0.926284 0.373312 0.196628
0.926284 0.373312 0.196628
0.926284 0.373312 0.196628
0.0903182 0.103487 0.0968032
0.101823 0.104387 0.100496
0.249531 0.126284 0.0559701
0.435233 0.149508 0.0778058
0.640223 0.183505 0.11397
0.813474 0.261051 0.155886
0.926284 0.373312 0.196628
0.926284 0.373312 0.196628
0.926284 0.373312 0.196628
0.12134 0.184924 0.142931
0.1205 0.182193 0.141756
0.217517 0.188464 0.126085
0.444404 0.207416 0.0910506
0.657145 0.264958 0.13254
0.804501 0.329778 0.168444
0.925521 0.402289 0.202808
0.926375 0.387579 0.199725
0.926299 0.377295 0.197436
0.145632 0.305013 0.166537
0.144488 0.302693 0.165789
0.187457 0.312261 0.171939
0.408484 0.283406 0.116213
0.65507 0.316609 0.143755
0.80856 0.386496 0.181659
0.921218 0.486671 0.221668
0.920806 0.480537 0.220157
0.922026 0.476219 0.219303
0.24213 0.460365 0.233906
0.240879 0.458488 0.233051
0.238834 0.455421 0.231647
0.344213 0.476753 0.236133
0.601633 0.419089 0.163104
0.78674 0.444968 0.19263
0.914412 0.539376 0.233845
0.927062 0.550988 0.238529
0.926909 0.54789 0.23772
0.364355 0.628092 0.316411
0.363165 0.62649 0.315633
0.361196 0.623896 0.314351
0.357641 0.619196 0.312032
0.529351 0.641901 0.313024
0.741451 0.574212 0.222187
0.875639 0.582238 0.240055
0.928969 0.627375 0.258854
0.928878 0.624765 0.258137
0.484474 0.821988 0.413062
0.483345 0.819409 0.411582
0.481315 0.814984 0.409277
0.477699 0.807355 0.405249
0.519432 0.785168 0.390417
0.684443 0.789105 0.394797
0.827283 0.725231 0.279164
0.930571 0.70782 0.281331
0.93051 0.704845 0.280491
0.497673 0.852888 0.431052
0.497673 0.852888 0.431052
0.497673 0.852888 0.431052
0.497673 0.852888 0.431052
0.509392 0.845975 0.42565
0.633539 0.825772 0.415702
0.803388 0.841077 0.434684
0.926421 0.754665 0.294194
0.931472 0.747723 0.292699
0.497673 0.852888 0.431052
0.497673 0.852888 0.431052
0.497673 0.852888 0.431052
0.497673 0.852888 0.431052
0.497673 0.852888 0.431052
0.604089 0.824201 0.413489
0.776242 0.839078 0.430823
0.881895 0.771069 0.295949
0.931472 0.747723 0.292699
0.0679637 0.110094 0.123354
0.103593 0.104982 0.106004
0.229114 0.135286 0.113024
0.442664 0.140932 0.0771954
0.646052 0.188739 0.11577
0.820264 0.265599 0.157855
0.926284 0.373312 0.196628
0.926284 0.373312 0.196628
0.926284 0.373312 0.196628
0.0778973 0.0971542 0.0995041
0.0903487 0.0939651 0.0949569
0.234501 0.125566 0.0748455
0.421561 0.147295 0.0755474
0.63917 0.183154 0.113741
0.812833 0.260624 0.155703
0.926284 0.373312 0.196628
0.926284 0.373312 0.196628
0.926284 0.373312 0.196628
0.118196 0.176745 0.140581
0.117571 0.173632 0.138369
0.207263 0.173587 0.122118
0.439368 0.202304 0.0892958
0.651484 0.259373 0.130556
0.802457 0.32108 0.166293
0.926452 0.394598 0.201221
0.926314 0.378912 0.197787
0.926284 0.373312 0.196628
0.142214 0.298009 0.164279
0.141054 0.295613 0.1635
0.182025 0.30454 0.16968
0.403357 0.273793 0.112627
0.652918 0.312825 0.142596
0.807309 0.382528 0.180575
0.920119 0.48336 0.220737
0.921843 0.476875 0.219425
0.922713 0.472541 0.218509
0.238361 0.454719 0.231327
0.237095 0.452827 0.230457
0.235019 0.449729 0.229023
0.340429 0.471229 0.233646
0.599878 0.411368 0.160769
0.785962 0.441703 0.19173
0.913542 0.536049 0.232898
0.926925 0.548363 0.237842
0.926772 0.545235 0.237018
0.360754 0.623301 0.314061
0.359548 0.621714 0.313283
0.357595 0.61912 0.312001
0.354025 0.61445 0.309682
0.527077 0.637842 0.311025
0.741054 0.567849 0.220203
0.874693 0.579293 0.239139
0.928893 0.625162 0.258244
0.928801 0.622568 0.257542
0.480858 0.814008 0.408759
0.479622 0.811383 0.407385
0.477638 0.807233 0.405188
0.474144 0.800061 0.401343
0.516518 0.779599 0.387533
0.684398 0.785214 0.392157
0.827634 0.718288 0.276402
0.93051 0.705287 0.280613
0.930449 0.70222 0.279759
0.497673 0.852888 0.431052
0.497673 0.852888 0.431052
0.497673 0.852888 0.431052
0.497673 0.852888 0.431052
0.50869 0.846464 0.425986
0.632792 0.825711 0.415641
0.802853 0.841093 0.434577
0.925612 0.75494 0.294179
0.931472 0.747723 0.292699
0.497673 0.852888 0.431052
0.497673 0.852888 0.431052
0.497673 0.852888 0.431052
0.497673 0.852888 0.431052
0.497673 0.852888 0.431052
0.603449 0.824201 0.413443
0.775509 0.839002 0.430732
0.880781 0.771679 0.296239
0.931472 0.747723 0.292699
0.0331426 0.206668 0.256931
0.0422522 0.199802 0.244907
0.17145 0.189532 0.194385
0.298299 0.235935 0.222675
0.592279 0.263478 0.190616
0.794995 0.291249 0.160479
0.913695 0.33846 0.187381
0.917754 0.332494 0.186816
0.920409 0.328847 0.186526
0.0328679 0.19791 0.243046
0.0321508 0.1935 0.244556
0.155993 0.180179 0.187213
0.285496 0.226978 0.214725
0.587182 0.252522 0.175525
0.790417 0.275456 0.154986
0.917357 0.333074 0.186877
0.92137 0.329793 0.186877
0.924331 0.334585 0.188296
0.0451514 0.195727 0.210254
0.046128 0.191608 0.206378
0.166339 0.193194 0.199603
0.381704 0.204913 0.151583
0.609445 0.236896 0.120745
0.785412 0.270649 0.153307
0.917693 0.341451 0.188678
0.925032 0.341665 0.189822
0.925429 0.348272 0.191257
0.0960403 0.298848 0.22295
0.096437 0.29575 0.219928
0.129549 0.288945 0.207309
0.357504 0.274968 0.157519
0.607156 0.310948 0.135973
0.787823 0.378256 0.176745
0.914443 0.471534 0.21709
0.922911 0.470909 0.218143
0.92163 0.466514 0.216907
0.21767 0.442756 0.233249
0.219165 0.44126 0.230976
0.221363 0.438865 0.227588
0.333745 0.462165 0.22977
0.596368 0.399069 0.15697
0.784726 0.436362 0.190234
0.912169 0.530587 0.231342
0.926711 0.544045 0.236713
0.926604 0.540902 0.235889
0.354879 0.615564 0.310231
0.353658 0.613977 0.309438
0.35169 0.611414 0.308156
0.348074 0.606531 0.30573
0.52372 0.631327 0.307759
0.74023 0.557168 0.216968
0.873182 0.574533 0.237675
0.928771 0.621576 0.257267
0.928725 0.619043 0.25658
0.474968 0.80174 0.402243
0.473793 0.799359 0.400977
0.471901 0.79559 0.398932
0.468727 0.788998 0.395453
0.511467 0.770413 0.38294
0.683986 0.778363 0.387991
0.828122 0.707332 0.272007
0.930419 0.701045 0.279423
0.930358 0.697978 0.278553
0.497673 0.852888 0.431052
0.497673 0.852888 0.431052
0.497673 0.852888 0.431052
0.497673 0.852888 0.431052
0.507408 0.847272 0.426596
0.631586 0.825635 0.415534
0.801999 0.841123 0.43444
0.924285 0.755367 0.294148
0.931472 0.747723 0.292699
0.497673 0.852888 0.431052
0.497673 0.852888 0.431052
0.497673 0.852888 0.431052
0.497673 0.852888 0.431052
0.497673 0.852888 0.431052
0.602396 0.824186 0.413367
0.774334 0.838865 0.430579
0.87895 0.772686 0.296712
0.931472 0.747723 0.292699
0.0514992 0.316854 0.406058
0.0508888 0.314168 0.414664
0.0605783 0.3028 0.359365
0.230823 0.300114 0.297459
0.471901 0.336278 0.303319
0.731838 0.405966 0.32842
0.890745 0.447868 0.305821
0.892256 0.442237 0.295506
0.893324 0.438437 0.288502
0.0502022 0.310475 0.397589
0.0500496 0.309819 0.399222
0.0514992 0.296864 0.357748
0.209049 0.294926 0.295979
0.459678 0.329946 0.298512
0.724193 0.397696 0.320607
0.892088 0.442847 0.29662
0.893706 0.437049 0.285969
0.894652 0.432792 0.278096
0.0484474 0.301198 0.369635
0.0481117 0.299641 0.368109
0.0480507 0.299123 0.381628
0.205142 0.289525 0.302907
0.45565 0.327214 0.302144
0.714427 0.383032 0.306752
0.894438 0.434287 0.280842
0.895506 0.426917 0.267155
0.895949 0.421988 0.257374
0.051194 0.312856 0.341756
0.0505226 0.309712 0.338933
0.049897 0.306889 0.335714
0.229618 0.325246 0.346151
0.547646 0.321157 0.279423
0.750942 0.353521 0.234974
0.877913 0.398718 0.200763
0.878981 0.383948 0.192401
0.880339 0.374136 0.189792
0.117174 0.465827 0.376135
0.116716 0.46334 0.373709
0.115984 0.459266 0.369696
0.20679 0.445274 0.321904
0.52163 0.428367 0.254856
0.739406 0.453071 0.22298
0.877028 0.530358 0.22678
0.901549 0.541741 0.232731
0.902083 0.537606 0.231754
0.287221 0.598657 0.352468
0.286305 0.596872 0.350637
0.28481 0.593973 0.347646
0.282612 0.588861 0.34258
0.45594 0.61091 0.334127
0.713008 0.562905 0.244266
0.855085 0.572641 0.234821
0.926986 0.619501 0.256489
0.927275 0.616464 0.255695
0.448356 0.775677 0.409552
0.447929 0.773877 0.407782
0.447303 0.771008 0.404822
0.446342 0.765896 0.399145
0.494942 0.753201 0.382345
0.681941 0.766384 0.381384
0.828626 0.687373 0.264256
0.930266 0.693492 0.277287
0.930205 0.690593 0.276463
0.497673 0.852888 0.431052
0.497673 0.852888 0.431052
0.497673 0.852888 0.431052
0.497673 0.852888 0.431052
0.505058 0.848676 0.42771
0.629389 0.825483 0.415351
0.800427 0.841184 0.434165
0.921889 0.75613 0.294102
0.931472 0.747723 0.292699
0.497673 0.852888 0.431052
0.497673 0.852888 0.431052
0.497673 0.852888 0.431052
0.497673 0.852888 0.431052
0.497673 0.852888 0.431052
0.600504 0.824155 0.41323
0.772213 0.838621 0.430304
0.8757 0.774472 0.297566
0.931472 0.747723 0.292699
0.0797589 0.450629 0.580148
0.0793622 0.449165 0.582895
0.0770581 0.438315 0.566613
0.142077 0.428779 0.492607
0.414084 0.417456 0.404257
0.670787 0.462303 0.408988
0.854032 0.552666 0.509194
0.854719 0.548775 0.500572
0.855222 0.546227 0.494942
0.0787366 0.445884 0.574151
0.0785077 0.444862 0.572885
0.0764477 0.435752 0.569528
0.130236 0.424048 0.491234
0.4047 0.412497 0.400076
0.658885 0.455665 0.403693
0.854643 0.549187 0.501488
0.855482 0.545373 0.49305
0.856199 0.542977 0.487709
0.0769665 0.437522 0.560204
0.0767529 0.436606 0.559976
0.0754711 0.431968 0.574868
0.109392 0.415869 0.488762
0.385473 0.405951 0.390631
0.639323 0.44506 0.395148
0.85597 0.543725 0.489372
0.85713 0.539849 0.480766
0.857893 0.53666 0.473533
0.0759899 0.4318 0.527687
0.0757 0.430457 0.526345
0.0754406 0.429236 0.524788
0.102876 0.434592 0.543832
0.376532 0.421271 0.431601
0.628779 0.459037 0.437354
0.845792 0.513054 0.441444
0.846281 0.508995 0.431189
0.847837 0.506981 0.42591
0.0821393 0.456641 0.502037
0.0816205 0.454337 0.499916
0.0808118 0.450767 0.496666
0.0955215 0.45304 0.495628
0.381003 0.494499 0.52311
0.681254 0.498955 0.479866
0.852293 0.522179 0.432547
0.87892 0.516686 0.406882
0.878904 0.507988 0.396719
0.141192 0.633692 0.562127
0.140108 0.6318 0.560265
0.138338 0.628717 0.557229
0.135119 0.623133 0.55169
0.345342 0.610224 0.477272
0.665751 0.591592 0.394858
0.832746 0.609079 0.386618
0.909819 0.64358 0.352346
0.909194 0.639429 0.345129
0.369879 0.76054 0.506279
0.368704 0.758587 0.504662
0.366781 0.755398 0.502144
0.363409 0.749737 0.49752
0.414267 0.731579 0.469947
0.599908 0.744015 0.453468
0.80676 0.698802 0.350668
0.935103 0.700389 0.308751
0.934295 0.696681 0.305119
0.451041 0.839445 0.496712
0.451301 0.839246 0.495888
0.451728 0.838911 0.494591
0.452689 0.8383 0.492348
0.457862 0.835569 0.48777
0.581048 0.820645 0.468498
0.760616 0.837629 0.478645
0.897017 0.765499 0.302022
0.931594 0.75375 0.294484
0.456504 0.836194 0.483879
0.456855 0.836042 0.483131
0.457435 0.835782 0.481941
0.458473 0.83534 0.479774
0.460166 0.83473 0.476356
0.559121 0.818921 0.458396
0.732433 0.833814 0.46891
0.860868 0.80293 0.378622
0.931579 0.75285 0.294224
0.114 0.603906 0.769512
0.113375 0.601251 0.76762
0.110704 0.590173 0.76994
0.113512 0.573343 0.726177
0.299077 0.562097 0.669627
0.599527 0.569162 0.581598
0.849073 0.621881 0.650767
0.849058 0.620233 0.647105
0.849088 0.619043 0.644617
0.112795 0.598596 0.763241
0.112535 0.597513 0.761959
0.109926 0.586725 0.762814
0.1066 0.568933 0.723186
0.28632 0.558038 0.664698
0.586831 0.564446 0.57406
0.849058 0.620417 0.647501
0.849104 0.61857 0.643702
0.84918 0.617212 0.641108
0.110887 0.590249 0.753399
0.110643 0.589197 0.752163
0.108782 0.581506 0.750881
0.104891 0.563851 0.723232
0.265431 0.55169 0.656779
0.569009 0.557137 0.56286
0.849165 0.617639 0.641901
0.849271 0.615595 0.637995
0.849332 0.614252 0.635416
0.10602 0.568032 0.712856
0.105776 0.566995 0.712001
0.105379 0.56527 0.710536
0.103059 0.556054 0.719585
0.239246 0.538125 0.648966
0.540749 0.53814 0.540719
0.832807 0.603769 0.620188
0.845106 0.607813 0.624445
0.849561 0.608957 0.625238
0.106432 0.568246 0.685618
0.106172 0.567147 0.684504
0.10576 0.565362 0.682704
0.105684 0.564858 0.678584
0.250309 0.576089 0.708309
0.564309 0.567575 0.587976
0.784558 0.624231 0.652934
0.830961 0.632624 0.657313
0.829984 0.628977 0.652781
0.114183 0.598932 0.662425
0.113771 0.597147 0.660731
0.1131 0.594247 0.657969
0.112123 0.590036 0.654002
0.230381 0.610391 0.670939
0.587549 0.644678 0.674006
0.786892 0.663722 0.664469
0.887922 0.673426 0.640787
0.887068 0.667826 0.635523
0.179736 0.783307 0.73727
0.178546 0.781643 0.736126
0.176593 0.778958 0.734249
0.172641 0.773663 0.730266
0.222827 0.761318 0.707942
0.535241 0.748196 0.630793
0.780957 0.72665 0.547829
0.928771 0.746136 0.546944
0.932296 0.744198 0.541604
0.342489 0.895354 0.70515
0.343465 0.89485 0.703731
0.345068 0.894057 0.701411
0.348089 0.892668 0.697307
0.353002 0.890486 0.690715
0.545357 0.847822 0.60029
0.705669 0.853941 0.590158
0.883146 0.814847 0.476204
0.950759 0.78294 0.424125
0.359884 0.887526 0.681575
0.360937 0.887098 0.680186
0.362646 0.886381 0.677928
0.365805 0.885145 0.673793
0.370932 0.883238 0.667109
0.521248 0.844663 0.586694
0.676692 0.847868 0.576104
0.843641 0.858457 0.56846
0.948348 0.785672 0.393606
0.16846 0.833432 0.994202
0.16846 0.833448 0.994202
0.167956 0.831281 0.993866
0.166827 0.827054 0.993378
0.166094 0.824002 0.992935
0.321233 0.825925 1
0.810315 0.814404 1
0.807767 0.814725 1
0.806119 0.814923 1
0.16846 0.833463 0.994202
0.16846 0.833463 0.994202
0.168093 0.831815 0.993927
0.166964 0.827512 0.993454
0.16611 0.824094 0.992935
0.290639 0.82652 1
0.808042 0.814694 1
0.805539 0.815 1
0.809277 0.799344 0.997833
0.168475 0.833494 0.994202
0.168475 0.833494 0.994202
0.168276 0.832547 0.994049
0.167193 0.828321 0.993561
0.166186 0.824323 0.992966
0.244953 0.826352 1
0.806958 0.807797 1
0.81677 0.77023 0.957809
0.821149 0.749615 0.930678
0.168536 0.833738 0.994263
0.168536 0.833722 0.994247
0.168521 0.833707 0.994247
0.16759 0.829862 0.993729
0.166323 0.824811 0.993011
0.264439 0.786084 0.963424
0.826261 0.723918 0.898573
0.828412 0.71133 0.870604
0.829267 0.705226 0.852827
0.145892 0.738613 0.897292
0.145418 0.73666 0.895415
0.144671 0.733547 0.892424
0.139696 0.712718 0.871275
0.139971 0.68867 0.858549
0.409491 0.668956 0.836286
0.716838 0.656153 0.738567
0.781079 0.664439 0.738582
0.781964 0.660807 0.733104
0.138521 0.707012 0.843381
0.138216 0.705684 0.842008
0.137713 0.703563 0.839796
0.136828 0.699809 0.835904
0.145373 0.692714 0.819745
0.445747 0.699641 0.842008
0.714199 0.695598 0.748699
0.823056 0.736309 0.787762
0.822339 0.732876 0.784649
0.148135 0.731151 0.81651
0.148379 0.729397 0.814923
0.14876 0.726574 0.812375
0.14844 0.721492 0.807706
0.169253 0.713985 0.797574
0.429648 0.737804 0.813794
0.752956 0.769192 0.786252
0.88867 0.790234 0.796338
0.907698 0.785061 0.789075
0.214481 0.966476 0.887922
0.21442 0.966384 0.886809
0.214313 0.966262 0.885008
0.213474 0.965866 0.881849
0.210651 0.956573 0.882872
0.36672 0.882689 0.825376
0.694148 0.858167 0.748379
0.875349 0.834455 0.653696
0.962036 0.826154 0.661006
0.236255 0.968673 0.869657
0.237949 0.968978 0.868681
0.240696 0.969482 0.867109
0.245609 0.970382 0.864286
0.249546 0.97116 0.860334
0.374136 0.909148 0.806531
0.663676 0.890394 0.718471
0.807309 0.897612 0.698497
0.960113 0.835248 0.557244
0.168414 0.83328 0.994186
0.168414 0.83328 0.994186
0.167971 0.831449 0.993881
0.166842 0.827085 0.993378
0.166018 0.823758 0.992905
0.330404 0.825589 1
0.840024 0.810422 1
0.840024 0.810422 1
0.840024 0.810422 1
0.168414 0.83328 0.994186
0.168414 0.83328 0.994186
0.168093 0.831891 0.993957
0.166964 0.827543 0.993439
0.166033 0.823819 0.99292
0.300938 0.826551 1
0.840024 0.810422 1
0.840024 0.810422 1
0.840024 0.810422 1
0.168414 0.83328 0.994186
0.168414 0.83328 0.994186
0.168261 0.832563 0.994064
0.167163 0.828336 0.993561
0.166079 0.823972 0.992935
0.257725 0.826398 1
0.840024 0.810422 1
0.840024 0.810422 1
0.840024 0.810422 1
0.168414 0.83328 0.994186
0.168414 0.83328 0.994186
0.168414 0.83328 0.994186
0.167529 0.829709 0.993713
0.166201 0.824369 0.992966
0.192874 0.82594 0.999207
0.840024 0.810422 1
0.840024 0.810422 1
0.840024 0.810422 1
0.169009 0.835767 0.994568
0.169009 0.835721 0.994568
0.168994 0.835645 0.994553
0.16878 0.83476 0.9944
0.167376 0.82916 0.993637
0.166186 0.824308 0.992966
0.541466 0.818936 1
0.714137 0.820157 1
0.718944 0.820157 1
0.170947 0.84332 0.995544
0.170916 0.843229 0.995529
0.170886 0.843107 0.995514
0.170825 0.842847 0.995483
0.170733 0.842527 0.995407
0.169345 0.837018 0.99469
0.377371 0.835096 1
0.749096 0.814618 1
0.755795 0.804395 0.987747
0.173465 0.85359 0.996933
0.173419 0.853422 0.996918
0.173358 0.853162 0.996872
0.173251 0.852705 0.996811
0.173266 0.852811 0.996796
0.170916 0.816022 0.95349
0.579385 0.80824 0.950973
0.838926 0.805203 0.882017
0.853452 0.808392 0.873243
0.18378 0.894957 1
0.183764 0.894926 1
0.183749 0.894865 1
0.183719 0.894759 1
0.180011 0.879728 1
0.232975 0.827375 0.921218
0.585916 0.841184 0.918486
0.852827 0.867628 0.884611
0.938338 0.877974 0.894728
0.190829 0.923156 1
0.191684 0.926497 1
0.193027 0.931731 1
0.1953 0.940581 1
0.199069 0.955612 1
0.203632 0.969009 0.976608
0.490135 0.968246 0.922347
0.794476 0.948226 0.852949
0.970367 0.901762 0.740764
0.168414 0.83328 0.994186
0.168414 0.83328 0.994186
0.168017 0.831601 0.993912
0.166873 0.827207 0.993393
0.166018 0.823789 0.992905
0.321004 0.825986 1
0.840024 0.810422 1
0.840024 0.810422 1
0.840024 0.810422 1
0.168414 0.83328 0.994186
0.168414 0.83328 0.994186
0.168124 0.832013 0.993973
0.166995 0.827695 0.993469
0.166049 0.82385 0.99292
0.292576 0.82652 1
0.840024 0.810422 1
0.840024 0.810422 1
0.840024 0.810422 1
0.168414 0.83328 0.994186
0.168414 0.83328 0.994186
0.168292 0.832685 0.994095
0.167208 0.828504 0.993576
0.166094 0.824018 0.992935
0.249775 0.826368 1
0.840024 0.810422 1
0.840024 0.810422 1
0.840024 0.810422 1
0.168414 0.83328 0.994186
0.168414 0.83328 0.994186
0.168414 0.83328 0.994186
0.167575 0.829877 0.993729
0.166201 0.824399 0.992966
0.191119 0.825772 0.998779
0.834409 0.811307 1
0.840024 0.810422 1
0.840024 0.810422 1
0.168902 0.835279 0.994507
0.168887 0.835233 0.994492
0.168872 0.835157 0.994492
0.168627 0.83415 0.994324
0.167147 0.828275 0.99353
0.166079 0.823987 0.992935
0.540795 0.818387 1
0.729488 0.820081 1
0.734981 0.820035 1
0.170718 0.84239 0.995422
0.170687 0.842298 0.995407
0.170657 0.842145 0.995392
0.170581 0.841871 0.995346
0.170428 0.841291 0.99527
0.168933 0.835294 0.99443
0.360769 0.83444 1
0.716091 0.829297 1
0.713558 0.828717 1
0.173205 0.852506 0.99678
0.173175 0.852399 0.996765
0.173129 0.852216 0.99675
0.173053 0.851881 0.996704
0.173083 0.852094 0.996704
0.173892 0.855406 0.997223
0.334768 0.853346 1
0.778866 0.848219 1
0.815106 0.846342 1
0.183764 0.894942 1
0.183764 0.894926 1
0.183749 0.894881 1
0.181262 0.885039 1
0.178653 0.874266 0.999863
0.176883 0.867262 0.998856
0.33254 0.880949 1
0.756924 0.886183 1
0.907027 0.87982 1
0.183932 0.895598 1
0.183932 0.895598 1
0.183932 0.895598 1
0.183932 0.895598 1
0.183932 0.895598 1
0.184985 0.899916 1
0.357473 0.921782 1
0.701564 0.950484 1
1 1 1
