public/luts/SonyProSW-LUT3_REC709.cube
TITLE "Generated by Resolve"
LUT_3D_SIZE 5
0.0448768 0.0508888 0.0543374
0.224018 0.0592203 0.0391089
0.421973 0.081178 0.0217594
0.578592 0.112474 0.0117952
0.578592 0.112474 0.0117952
0.209506 0.208545 0.052079
0.337697 0.223896 0.0395361
0.543816 0.208957 0.011017
0.634165 0.168154 0.00732433
0.592584 0.124559 0.010605
0.498527 0.457176 0.118624
0.494926 0.454185 0.117159
0.679026 0.477394 0.102617
0.805508 0.446265 0.0659342
0.804807 0.433661 0.0580301
0.658 0.609812 0.161959
0.656977 0.608148 0.162951
0.702434 0.616236 0.180529
0.893675 0.635386 0.176471
0.93228 0.606867 0.145068
0.662745 0.615427 0.158053
0.662745 0.615427 0.158053
0.662745 0.615427 0.158053
0.858854 0.659739 0.202426
0.960082 0.647959 0.160281
0.030808 0.071397 0.159335
0.164141 0.0891432 0.177493
0.368399 0.0832837 0.144915
0.504616 0.0733501 0.070634
0.523125 0.0822919 0.0468757
0.101488 0.209689 0.187304
0.220142 0.205371 0.182895
0.43032 0.179431 0.121416
0.561807 0.119554 0.0514076
0.561563 0.106691 0.0258335
0.477623 0.448447 0.131304
0.478874 0.444892 0.121263
0.67155 0.468513 0.0975052
0.799222 0.437064 0.0601663
0.798795 0.423743 0.0531624
0.65481 0.604898 0.164157
0.653696 0.603296 0.164569
0.69662 0.611093 0.180407
0.889647 0.629435 0.172564
0.926741 0.600748 0.142794
0.662745 0.615427 0.158053
0.662745 0.615427 0.158053
0.662745 0.615427 0.158053
0.857771 0.659617 0.202564
0.960082 0.647959 0.160281
0.0314946 0.155825 0.303441
0.127413 0.171313 0.313909
0.360723 0.20264 0.339544
0.524651 0.18056 0.322896
0.524056 0.176471 0.316854
0.0330358 0.166049 0.303304
0.0956436 0.166262 0.301915
0.342153 0.192981 0.331426
0.523888 0.174899 0.31429
0.523476 0.171038 0.307988
0.272877 0.445243 0.392035
0.269596 0.441947 0.389731
0.481773 0.451301 0.401617
0.651591 0.424262 0.351537
0.658518 0.406287 0.335164
0.530556 0.596353 0.345068
0.530922 0.594369 0.345251
0.580377 0.601648 0.372351
0.80119 0.629541 0.364157
0.864561 0.604929 0.315297
0.585061 0.623056 0.299977
0.586664 0.622858 0.296529
0.591394 0.622324 0.286595
0.807141 0.673426 0.323079
0.941772 0.666163 0.265736
0 0.214832 0.424582
0.0350652 0.22208 0.418677
0.254948 0.265629 0.452125
0.499336 0.295064 0.481712
0.503319 0.294255 0.47892
0 0.214649 0.419806
0.0138857 0.218051 0.41561
0.238972 0.261402 0.445579
0.504067 0.293004 0.477028
0.505776 0.289921 0.472511
0.0555581 0.381445 0.467384
0.0541238 0.377142 0.464988
0.288975 0.395575 0.477195
0.552422 0.402838 0.499886
0.572106 0.391959 0.488563
0.307515 0.608911 0.542046
0.308812 0.60679 0.540581
0.378958 0.60293 0.542062
0.674998 0.616083 0.558068
0.777111 0.596368 0.518563
0.317998 0.67129 0.508003
0.320958 0.670726 0.507027
0.329427 0.669123 0.50428
0.710445 0.712749 0.563272
0.921981 0.739895 0.581308
0 0.211048 0.438849
0.00880446 0.218967 0.43241
0.213458 0.266117 0.465827
0.463981 0.296727 0.501686
0.463981 0.296727 0.501686
0 0.211048 0.438849
0 0.213993 0.435859
0.191135 0.263096 0.462257
0.463981 0.296727 0.501686
0.463981 0.296727 0.501686
0 0.319066 0.478965
0 0.314748 0.47747
0.179751 0.348516 0.483711
0.462531 0.358724 0.51986
0.4934 0.345296 0.51989
0.076936 0.559686 0.583658
0.0764324 0.557061 0.582437
0.131533 0.559762 0.584298
0.588037 0.591913 0.612268
0.714046 0.577447 0.608347
0.0328985 0.684459 0.623636
0.0328985 0.684459 0.623636
0.0328985 0.684459 0.623636
0.6065 0.778408 0.695094
0.93254 0.840879 0.745724
