public/luts/SonyProSW-LUT2_REC709.cube
TITLE "Generated by Resolve"
LUT_3D_SIZE 9
0.0251011 0.0489204 0.0751965
0.09514 0.0642252 0.0812238
0.232547 0.0890211 0.0973983
0.334371 0.110979 0.116793
0.444617 0.145312 0.140948
0.55642 0.181781 0.169619
0.619181 0.202136 0.186374
0.619181 0.202136 0.186374
0.619181 0.202136 0.186374
0.0386816 0.111528 0.0808728
0.0611276 0.106935 0.0739147
0.227939 0.112535 0.0915999
0.330114 0.124041 0.116732
0.437522 0.143023 0.139239
0.550729 0.179934 0.168124
0.619181 0.202136 0.186374
0.619181 0.202136 0.186374
0.619181 0.202136 0.186374
0.0690013 0.207034 0.084596
0.0668193 0.20444 0.0841993
0.223484 0.19443 0.0859388
0.379889 0.189746 0.12549
0.47805 0.205051 0.152178
0.575143 0.222354 0.177264
0.638895 0.228275 0.194247
0.628717 0.21561 0.191073
0.622522 0.207355 0.188327
0.15845 0.301259 0.103914
0.156298 0.299565 0.103517
0.198001 0.298161 0.104356
0.36846 0.292165 0.119646
0.530541 0.269398 0.155428
0.634638 0.290883 0.18024
0.718029 0.311925 0.187945
0.711818 0.305364 0.188495
0.707576 0.300847 0.188846
0.268299 0.405097 0.126329
0.267155 0.40383 0.126085
0.265278 0.401755 0.125673
0.35935 0.413504 0.12932
0.505959 0.410574 0.15349
0.660822 0.377722 0.164477
0.757885 0.396384 0.178592
0.766201 0.39469 0.179202
0.764569 0.390021 0.179187
0.356161 0.522927 0.157259
0.355337 0.521675 0.157061
0.353994 0.519646 0.156725
0.351858 0.516304 0.154971
0.500725 0.54197 0.150576
0.625269 0.548974 0.177584
0.753887 0.529351 0.196948
0.810864 0.521584 0.200534
0.809064 0.51722 0.199527
0.433539 0.640726 0.200732
0.432792 0.639551 0.200061
0.431525 0.637568 0.199008
0.429175 0.633829 0.197177
0.487709 0.632563 0.198184
0.62533 0.667185 0.167514
0.731228 0.690181 0.189685
0.854383 0.66833 0.223651
0.852689 0.663035 0.223087
0.441413 0.652537 0.207843
0.441413 0.652537 0.207843
0.441413 0.652537 0.207843
0.441413 0.652537 0.207843
0.453544 0.651225 0.209186
0.600168 0.685542 0.180346
0.717983 0.727565 0.183413
0.825833 0.73872 0.213016
0.875502 0.728756 0.228611
0.441413 0.652537 0.207843
0.441413 0.652537 0.207843
0.441413 0.652537 0.207843
0.441413 0.652537 0.207843
0.441413 0.652537 0.207843
0.576471 0.676982 0.187778
0.69929 0.72163 0.179599
0.789532 0.743358 0.198779
0.875502 0.728756 0.228611
0.0328069 0.0759136 0.134707
0.114046 0.0764935 0.132052
0.248447 0.0936599 0.13402
0.341878 0.119188 0.139681
0.444587 0.147036 0.15082
0.555917 0.181628 0.169482
0.619181 0.202136 0.186374
0.619181 0.202136 0.186374
0.619181 0.202136 0.186374
0.037705 0.102144 0.124102
0.0562142 0.0962844 0.120882
0.213107 0.112657 0.122072
0.325582 0.113664 0.124651
0.436896 0.142824 0.139101
0.550225 0.179782 0.167987
0.619181 0.202136 0.186374
0.619181 0.202136 0.186374
0.619181 0.202136 0.186374
0.0624704 0.203235 0.0868238
0.0607614 0.197848 0.0840314
0.218128 0.18352 0.084123
0.372198 0.183581 0.124147
0.471031 0.198657 0.149981
0.567895 0.214679 0.175479
0.633478 0.221515 0.192538
0.623377 0.20856 0.188769
0.619181 0.202136 0.186374
0.151949 0.296162 0.102724
0.149752 0.294438 0.102327
0.191165 0.292714 0.103105
0.365179 0.285359 0.118013
0.527031 0.265293 0.155871
0.63035 0.287114 0.180163
0.714549 0.308293 0.188251
0.708217 0.301534 0.188785
0.703853 0.296895 0.189136
0.264851 0.401282 0.125582
0.263691 0.4 0.125338
0.261784 0.39791 0.124926
0.355917 0.409277 0.128817
0.504128 0.405432 0.152834
0.659327 0.372519 0.164263
0.756039 0.392294 0.178546
0.764813 0.390723 0.179187
0.763195 0.386007 0.179187
0.353719 0.519219 0.156573
0.353002 0.51809 0.155947
0.351827 0.516258 0.15494
0.349691 0.512932 0.153109
0.498955 0.538521 0.150301
0.623957 0.544411 0.177462
0.752667 0.524849 0.196094
0.809339 0.517876 0.19968
0.807538 0.513512 0.198672
0.431235 0.63711 0.198779
0.430442 0.635828 0.198154
0.429145 0.633783 0.197147
0.426795 0.630091 0.1953
0.485069 0.628962 0.19588
0.623652 0.663584 0.167666
0.729641 0.685374 0.190066
0.852934 0.663844 0.223178
0.85127 0.65861 0.222614
0.441413 0.652537 0.207843
0.441413 0.652537 0.207843
0.441413 0.652537 0.207843
0.441413 0.652537 0.207843
0.452781 0.651286 0.20911
0.599588 0.685298 0.180545
0.717556 0.727428 0.183352
0.82472 0.738857 0.212543
0.875502 0.728756 0.228611
0.441413 0.652537 0.207843
0.441413 0.652537 0.207843
0.441413 0.652537 0.207843
0.441413 0.652537 0.207843
0.441413 0.652537 0.207843
0.575875 0.676768 0.188113
0.698787 0.721462 0.179477
0.788937 0.74342 0.19855
0.875502 0.728756 0.228611
0.0505989 0.131716 0.234546
0.0801556 0.134585 0.235523
0.267674 0.131319 0.203952
0.390036 0.151186 0.212924
0.485847 0.169757 0.218418
0.570352 0.198276 0.224369
0.624964 0.213275 0.230655
0.623285 0.211536 0.225055
0.622431 0.2103 0.221195
0.0503548 0.131563 0.226368
0.0610056 0.128481 0.226856
0.24509 0.123644 0.197269
0.377737 0.144457 0.205417
0.472877 0.164584 0.211154
0.562173 0.194339 0.218387
0.623468 0.211719 0.225681
0.62211 0.209827 0.219745
0.620996 0.208423 0.215442
0.0779278 0.225681 0.242786
0.0766003 0.221683 0.240208
0.183703 0.208804 0.230426
0.335332 0.221363 0.226535
0.477058 0.223026 0.215366
0.57557 0.221744 0.209262
0.626413 0.217182 0.218036
0.619867 0.2065 0.209873
0.62002 0.20557 0.204974
0.107378 0.31632 0.182452
0.10631 0.314366 0.180468
0.132372 0.319966 0.177951
0.346349 0.294011 0.145571
0.515663 0.267597 0.160861
0.624598 0.288045 0.178042
0.710002 0.3066 0.186618
0.702144 0.295064 0.189273
0.697505 0.290166 0.189639
0.253071 0.402655 0.128969
0.252888 0.400046 0.127901
0.252644 0.395727 0.126116
0.34995 0.402396 0.128099
0.501381 0.397055 0.151629
0.656703 0.364904 0.164462
0.753033 0.38555 0.178485
0.762585 0.384207 0.179171
0.760937 0.379416 0.179171
0.350195 0.513726 0.153552
0.349462 0.512596 0.152926
0.348272 0.510765 0.151904
0.346105 0.507424 0.150042
0.49572 0.532525 0.15021
0.621881 0.537102 0.177279
0.750683 0.51751 0.19469
0.806851 0.511849 0.198276
0.805051 0.507469 0.197269
0.427359 0.630961 0.195743
0.426551 0.629709 0.195102
0.425269 0.627695 0.19408
0.422995 0.624094 0.192142
0.480781 0.623163 0.191913
0.620996 0.657572 0.167941
0.726665 0.677073 0.19057
0.850645 0.656641 0.2224
0.849027 0.651453 0.22182
0.441413 0.652537 0.207843
0.441413 0.652537 0.207843
0.441413 0.652537 0.207843
0.441413 0.652537 0.207843
0.451423 0.651408 0.208957
0.598657 0.684916 0.180865
0.716884 0.72723 0.183246
0.822904 0.739116 0.211765
0.875502 0.728756 0.228611
0.441413 0.652537 0.207843
0.441413 0.652537 0.207843
0.441413 0.652537 0.207843
0.441413 0.652537 0.207843
0.441413 0.652537 0.207843
0.574914 0.676432 0.188678
0.697978 0.721218 0.179278
0.787976 0.743542 0.198184
0.875502 0.728756 0.228611
0.0756695 0.199619 0.337346
0.0918593 0.204181 0.341573
0.225299 0.189761 0.336049
0.400732 0.213016 0.289342
0.520104 0.239826 0.301228
0.622766 0.265599 0.311391
0.678508 0.279927 0.314992
0.676738 0.274357 0.309316
0.675547 0.270665 0.305501
0.074342 0.196002 0.332052
0.0797589 0.197147 0.332784
0.192233 0.18819 0.331411
0.388983 0.20708 0.283787
0.512154 0.233783 0.295384
0.617273 0.258976 0.305501
0.676936 0.274937 0.309926
0.675105 0.269337 0.304128
0.673884 0.265568 0.300206
0.090074 0.243 0.342229
0.0889448 0.239551 0.33962
0.138491 0.243488 0.346319
0.358938 0.234455 0.296788
0.493858 0.249424 0.298405
0.607675 0.252186 0.297932
0.674266 0.266743 0.301427
0.672374 0.260914 0.295338
0.671092 0.256962 0.291203
0.118044 0.341711 0.365515
0.11725 0.33901 0.363439
0.120699 0.333776 0.358404
0.304936 0.329854 0.348394
0.460868 0.343832 0.336767
0.596033 0.360296 0.328969
0.694102 0.37322 0.326802
0.691264 0.359106 0.317647
0.68957 0.348653 0.310246
0.154299 0.434424 0.299229
0.153552 0.432349 0.297368
0.152331 0.428946 0.294301
0.269657 0.439979 0.295583
0.473945 0.425177 0.216693
0.631388 0.412314 0.217548
0.735607 0.440879 0.222873
0.748165 0.435477 0.216999
0.746288 0.427649 0.213214
0.291539 0.550713 0.254154
0.29192 0.549096 0.251804
0.292576 0.546441 0.247959
0.293828 0.541619 0.240864
0.470237 0.534722 0.222354
0.609628 0.540047 0.188495
0.744472 0.523537 0.208133
0.799619 0.522835 0.210208
0.798444 0.51606 0.207538
0.414008 0.637064 0.234607
0.413855 0.634821 0.231922
0.413642 0.63122 0.227604
0.413077 0.624552 0.218982
0.470619 0.615656 0.20705
0.616114 0.647181 0.168551
0.72134 0.662364 0.191348
0.846647 0.643656 0.221042
0.845106 0.638514 0.220493
0.441413 0.652537 0.207843
0.441413 0.652537 0.207843
0.441413 0.652537 0.207843
0.441413 0.652537 0.207843
0.448981 0.651637 0.208682
0.596933 0.684276 0.181125
0.715663 0.726864 0.183047
0.819669 0.739544 0.210407
0.875502 0.728756 0.228611
0.441413 0.652537 0.207843
0.441413 0.652537 0.207843
0.441413 0.652537 0.207843
0.441413 0.652537 0.207843
0.441413 0.652537 0.207843
0.573175 0.675837 0.189685
0.696529 0.720745 0.178927
0.786236 0.74374 0.197498
0.875502 0.728756 0.228611
0.1019 0.272435 0.451865
0.110384 0.276661 0.457588
0.175418 0.283177 0.467155
0.372808 0.266911 0.43888
0.528634 0.320363 0.394491
0.634058 0.357427 0.411994
0.6907 0.372213 0.416205
0.690166 0.368994 0.412421
0.689815 0.366857 0.409888
0.100984 0.269581 0.447471
0.100862 0.269047 0.446616
0.151293 0.280751 0.46331
0.354345 0.26186 0.439261
0.521523 0.315267 0.389883
0.628779 0.352636 0.407614
0.690227 0.369345 0.412818
0.689693 0.366094 0.408988
0.689342 0.363928 0.406455
0.102174 0.274388 0.443503
0.101228 0.27126 0.441962
0.127352 0.276936 0.452934
0.321645 0.255985 0.437858
0.508156 0.306157 0.382818
0.620096 0.344564 0.40058
0.689448 0.364599 0.407233
0.688914 0.361288 0.403342
0.688563 0.359091 0.400748
0.129107 0.361578 0.481498
0.128405 0.359167 0.479469
0.128893 0.354467 0.473564
0.260945 0.367361 0.476722
0.472724 0.375433 0.426703
0.598779 0.3991 0.428656
0.691798 0.40856 0.425116
0.689754 0.396048 0.416144
0.68867 0.387655 0.410132
0.159701 0.471794 0.504189
0.159152 0.46981 0.502724
0.158282 0.466697 0.50045
0.170184 0.459297 0.490211
0.43064 0.467735 0.473945
0.577905 0.478828 0.465675
0.699702 0.50161 0.466331
0.715923 0.498573 0.460472
0.714031 0.493111 0.456062
0.184344 0.563134 0.448325
0.183886 0.561624 0.446708
0.183139 0.559167 0.444083
0.181827 0.554681 0.439399
0.408377 0.566079 0.442069
0.58761 0.565576 0.36347
0.727932 0.563409 0.371267
0.783612 0.573358 0.37319
0.782147 0.568689 0.368322
0.321004 0.653727 0.417777
0.32047 0.65272 0.416373
0.319585 0.651102 0.414069
0.317998 0.648219 0.409888
0.405524 0.657069 0.410773
0.588785 0.66305 0.397681
0.71104 0.674983 0.238239
0.832181 0.656992 0.253986
0.830854 0.651865 0.253178
0.391714 0.725017 0.385306
0.392111 0.724498 0.384039
0.392752 0.723659 0.381964
0.393927 0.722164 0.37821
0.401297 0.717968 0.373281
0.582803 0.709819 0.383124
0.7084 0.745495 0.250553
0.807645 0.757122 0.222919
0.869825 0.745846 0.246677
0.398688 0.716335 0.363775
0.399191 0.715785 0.36228
0.4 0.714977 0.359792
0.401511 0.713664 0.355123
0.403967 0.711559 0.34757
0.558907 0.699626 0.360021
0.688991 0.735393 0.242161
0.778866 0.757656 0.207736
0.870008 0.742428 0.243214
0.128374 0.356756 0.579461
0.131182 0.35848 0.580713
0.156024 0.374243 0.590463
0.312322 0.372992 0.584543
0.512428 0.368231 0.544533
0.637003 0.421897 0.515084
0.699596 0.444053 0.529961
0.699351 0.44239 0.52668
0.699199 0.441306 0.524514
0.127642 0.354269 0.575891
0.127474 0.35375 0.575143
0.150729 0.369604 0.585779
0.297337 0.371557 0.581842
0.504189 0.36379 0.543435
0.631724 0.418585 0.510811
0.699382 0.442573 0.527031
0.699153 0.440909 0.523735
0.699001 0.439811 0.521584
0.126421 0.350179 0.570062
0.126268 0.349645 0.569299
0.141924 0.359777 0.576562
0.270191 0.368048 0.578286
0.490486 0.356451 0.541817
0.623056 0.413016 0.503944
0.699046 0.440162 0.522255
0.698817 0.438483 0.518959
0.69868 0.437385 0.516793
0.140322 0.395682 0.579339
0.139681 0.393515 0.577951
0.138628 0.38996 0.575647
0.21854 0.412909 0.594507
0.439094 0.386374 0.560937
0.605432 0.426215 0.508522
0.699382 0.448127 0.521767
0.698512 0.437293 0.512413
0.698192 0.432761 0.507988
0.170062 0.497322 0.629236
0.169589 0.495705 0.627848
0.168841 0.493065 0.625589
0.180301 0.48275 0.601526
0.401679 0.50251 0.599054
0.585473 0.509667 0.560555
0.696986 0.532967 0.566735
0.714702 0.530343 0.561471
0.713497 0.52549 0.556771
0.198871 0.606027 0.639658
0.198459 0.604501 0.638514
0.197772 0.602029 0.636667
0.196628 0.598047 0.633738
0.289403 0.595285 0.618921
0.567803 0.598672 0.590723
0.695247 0.604379 0.583673
0.756069 0.611231 0.579919
0.754055 0.607401 0.577035
0.225605 0.706828 0.606928
0.225162 0.705547 0.606226
0.224445 0.703441 0.605081
0.223117 0.699672 0.60293
0.259403 0.678935 0.584009
0.557809 0.683085 0.563287
0.698589 0.692973 0.492164
0.822187 0.687663 0.502159
0.823316 0.684108 0.500923
0.270741 0.791562 0.535668
0.271733 0.791058 0.5346
0.27335 0.790219 0.53286
0.276295 0.788708 0.529686
0.280629 0.786389 0.524498
0.559792 0.772244 0.526162
0.70074 0.781598 0.524041
0.800855 0.788663 0.381445
0.872862 0.768948 0.346899
0.286305 0.783276 0.517189
0.28716 0.782803 0.516075
0.288563 0.78204 0.514275
0.291112 0.780667 0.511009
0.293019 0.778271 0.506523
0.526085 0.763684 0.511818
0.678904 0.771435 0.514229
0.775219 0.79292 0.405539
0.877836 0.778897 0.297948
0.15378 0.449851 0.71104
0.153613 0.449241 0.710201
0.173892 0.461631 0.715267
0.272023 0.471351 0.720653
0.459876 0.456535 0.707622
0.651652 0.457008 0.685771
0.714488 0.468574 0.632746
0.713405 0.466941 0.626352
0.712947 0.466148 0.622904
0.153033 0.446967 0.707027
0.15288 0.446342 0.706188
0.169451 0.456092 0.710689
0.25452 0.468589 0.717098
0.449882 0.455177 0.703822
0.645243 0.454124 0.682017
0.713466 0.467063 0.626902
0.712779 0.465873 0.621683
0.712322 0.46508 0.618296
0.151812 0.442206 0.700465
0.151659 0.441611 0.699641
0.161639 0.44712 0.702602
0.227726 0.463584 0.710567
0.433143 0.452796 0.697887
0.634562 0.449332 0.676127
0.712459 0.465324 0.619348
0.711772 0.464134 0.614237
0.71133 0.463355 0.610895
0.154314 0.448737 0.692638
0.15375 0.446906 0.691432
0.152819 0.44387 0.689448
0.192065 0.460456 0.697475
0.401038 0.448081 0.688197
0.613611 0.440009 0.666133
0.710674 0.462181 0.606012
0.710079 0.460868 0.60087
0.709682 0.459998 0.597513
0.17969 0.530221 0.718746
0.179217 0.528588 0.717235
0.178454 0.525933 0.714763
0.186389 0.51841 0.698604
0.38117 0.544671 0.711376
0.562554 0.517906 0.691157
0.701823 0.530983 0.638224
0.721767 0.532219 0.634104
0.720363 0.528099 0.629816
0.208835 0.631998 0.769253
0.208453 0.630686 0.768048
0.207828 0.628534 0.76611
0.206683 0.624704 0.762661
0.300435 0.612222 0.723293
0.552163 0.624369 0.70927
0.695567 0.62742 0.681346
0.754192 0.639139 0.683619
0.752407 0.635691 0.680079
0.235615 0.734417 0.767452
0.235157 0.732692 0.766217
0.23444 0.729931 0.764233
0.233204 0.725261 0.760876
0.237736 0.712459 0.74548
0.478309 0.715953 0.730877
0.68986 0.709224 0.693584
0.799527 0.709117 0.68545
0.805035 0.705913 0.682216
0.267796 0.927184 0.704906
0.267491 0.925643 0.703792
0.267002 0.923201 0.701885
0.265599 0.908125 0.706645
0.263005 0.881285 0.717266
0.422431 0.815213 0.681804
0.688396 0.795331 0.664317
0.797787 0.798703 0.59913
0.88397 0.778927 0.589532
0.262989 0.90399 0.684962
0.262715 0.90277 0.683757
0.262272 0.900786 0.681788
0.261479 0.897261 0.678264
0.260227 0.891707 0.672633
0.392966 0.844007 0.651026
0.670344 0.830884 0.634546
0.782788 0.838834 0.619394
0.90518 0.822522 0.519677
0.159365 0.472023 0.743053
0.159365 0.472023 0.743053
0.177249 0.482689 0.748699
0.254902 0.495323 0.753429
0.449134 0.490425 0.753735
0.633814 0.476417 0.749218
0.729854 0.489921 0.726116
0.729854 0.489921 0.726116
0.729854 0.489921 0.726116
0.159365 0.472023 0.743053
0.159365 0.472023 0.743053
0.173526 0.480156 0.748348
0.236042 0.49453 0.752667
0.438712 0.491859 0.753628
0.624659 0.475761 0.749325
0.729854 0.489921 0.726116
0.729854 0.489921 0.726116
0.729854 0.489921 0.726116
0.159365 0.472023 0.743053
0.159365 0.472023 0.743053
0.166949 0.476249 0.746212
0.206912 0.492348 0.750988
0.421881 0.4934 0.753353
0.609796 0.474708 0.749523
0.729854 0.489921 0.726116
0.729854 0.489921 0.726116
0.729854 0.489921 0.726116
0.159365 0.472023 0.743053
0.159365 0.472023 0.743053
0.159365 0.472023 0.743053
0.18854 0.490227 0.74995
0.389654 0.495048 0.752636
0.578912 0.473136 0.750256
0.729854 0.489921 0.726116
0.729854 0.489921 0.726116
0.729854 0.489921 0.726116
0.183642 0.547387 0.771939
0.183291 0.546181 0.771176
0.182696 0.544228 0.76997
0.190677 0.543465 0.766629
0.361059 0.570184 0.780377
0.541619 0.552209 0.783154
0.717128 0.540764 0.774258
0.741238 0.537957 0.758267
0.740215 0.534035 0.756298
0.221027 0.675761 0.904326
0.220615 0.674342 0.902235
0.219959 0.672084 0.898955
0.21883 0.668315 0.893126
0.279911 0.636805 0.804471
0.536889 0.662745 0.823941
0.685786 0.631662 0.809445
0.772 0.632975 0.789212
0.769635 0.628717 0.781552
0.247822 0.765682 0.958541
0.247517 0.76463 0.958236
0.247028 0.762905 0.957732
0.246128 0.759854 0.956863
0.247822 0.740032 0.907042
0.477134 0.727962 0.839765
0.675135 0.726894 0.814389
0.794919 0.720989 0.786587
0.803647 0.719005 0.781613
0.282429 0.944564 0.977539
0.280598 0.93431 0.970397
0.27779 0.919341 0.959731
0.273671 0.897932 0.942519
0.269245 0.874479 0.922286
0.315297 0.830259 0.861021
0.615518 0.82501 0.835615
0.790509 0.807523 0.789792
0.871046 0.796048 0.773159
0.297063 1 0.936049
0.296971 1 0.933059
0.296666 1 0.927626
0.296147 1 0.918395
0.295354 1 0.90486
0.310185 0.977508 0.854734
0.491569 0.937972 0.776272
0.775067 0.902724 0.734966
0.927764 0.882734 0.690745
0.159365 0.472023 0.743053
0.159365 0.472023 0.743053
0.17612 0.48188 0.748577
0.24892 0.495186 0.753262
0.44593 0.490867 0.753704
0.630991 0.476219 0.749249
0.729854 0.489921 0.726116
0.729854 0.489921 0.726116
0.729854 0.489921 0.726116
0.159365 0.472023 0.743053
0.159365 0.472023 0.743053
0.172335 0.479438 0.74815
0.230472 0.494133 0.752361
0.435477 0.492302 0.753582
0.621851 0.475563 0.749371
0.729854 0.489921 0.726116
0.729854 0.489921 0.726116
0.729854 0.489921 0.726116
0.159365 0.472023 0.743053
0.159365 0.472023 0.743053
0.165606 0.475517 0.745617
0.205066 0.492134 0.750896
0.418647 0.493584 0.753231
0.606546 0.474495 0.749554
0.729854 0.489921 0.726116
0.729854 0.489921 0.726116
0.729854 0.489921 0.726116
0.159365 0.472023 0.743053
0.159365 0.472023 0.743053
0.159365 0.472023 0.743053
0.18732 0.489952 0.749966
0.385687 0.495186 0.752834
0.575891 0.473411 0.750393
0.729168 0.489799 0.726528
0.729854 0.489921 0.726116
0.729854 0.489921 0.726116
0.179828 0.534752 0.764401
0.179477 0.533623 0.763821
0.178912 0.531838 0.762936
0.186679 0.533089 0.76286
0.348684 0.558602 0.775845
0.535409 0.539086 0.778042
0.714092 0.529183 0.76968
0.738216 0.526024 0.752331
0.737301 0.521904 0.750256
0.216907 0.661875 0.883604
0.21651 0.660517 0.881788
0.215869 0.658305 0.878859
0.214725 0.654429 0.873899
0.279255 0.627543 0.798917
0.529015 0.652995 0.819791
0.678782 0.623011 0.811597
0.771145 0.626245 0.804013
0.769848 0.623224 0.802502
0.245869 0.757656 0.956237
0.245624 0.756802 0.955978
0.245258 0.755444 0.955581
0.244556 0.752987 0.954864
0.249714 0.747204 0.953475
0.470466 0.727565 0.865309
0.664744 0.732876 0.861219
0.798566 0.714595 0.853086
0.81265 0.711513 0.84686
0.275807 0.902113 0.998383
0.274907 0.896819 0.996765
0.273487 0.888747 0.994263
0.271443 0.87689 0.991104
0.268696 0.861311 0.986648
0.34226 0.833799 0.980728
0.59617 0.824918 0.957488
0.773114 0.812543 0.904158
0.866743 0.79707 0.884565
0.286351 0.958465 1
0.286351 0.958465 1
0.286351 0.958465 1
0.286351 0.958465 1
0.286351 0.958465 1
0.307988 0.966796 1
0.480003 0.981521 1
0.70454 0.982345 0.97879
0.953124 0.990677 0.914687
