public/luts/SonyProSW-LUT1_REC709.cube
TITLE "Generated by Resolve"
LUT_3D_SIZE 33
0.0617227 0.062623 0.0629129
0.0617227 0.062623 0.0629129
0.0671397 0.067155 0.0671702
0.0840162 0.0812848 0.0800793
0.111879 0.0948043 0.0874037
0.147204 0.103212 0.084184
0.188968 0.107393 0.0709697
0.23154 0.110536 0.0551461
0.268544 0.115068 0.0520943
0.307836 0.119966 0.0561379
0.350439 0.126528 0.0623178
0.397391 0.13373 0.069749
0.446662 0.140978 0.0777295
0.498131 0.150332 0.0866712
0.550484 0.160067 0.096025
0.602502 0.171633 0.105989
0.652247 0.187442 0.116548
0.698848 0.20415 0.126833
0.74226 0.223224 0.13727
0.782681 0.243442 0.147509
0.82092 0.266072 0.158053
0.863859 0.297261 0.171206
0.923217 0.349691 0.191241
0.926284 0.373312 0.196628
0.926284 0.373312 0.196628
0.926284 0.373312 0.196628
0.926284 0.373312 0.196628
0.926284 0.373312 0.196628
0.926284 0.373312 0.196628
0.926284 0.373312 0.196628
0.926284 0.373312 0.196628
0.926284 0.373312 0.196628
0.926284 0.373312 0.196628
0.0617227 0.062623 0.0629129
0.0617227 0.062623 0.0629129
0.0636149 0.0640879 0.0642405
0.0771954 0.0762493 0.0758373
0.102937 0.0915084 0.0865492
0.137896 0.10164 0.0860609
0.179965 0.106767 0.0743725
0.224323 0.109941 0.0577249
0.262898 0.114351 0.0516976
0.302235 0.119097 0.055314
0.345632 0.125856 0.0616312
0.392889 0.133059 0.0690318
0.442359 0.140261 0.0770123
0.494179 0.149615 0.0859846
0.546975 0.159365 0.0953689
0.599481 0.170748 0.105364
0.649363 0.186496 0.115923
0.6963 0.20325 0.126268
0.740032 0.222232 0.136721
0.780606 0.242451 0.14699
0.819104 0.264775 0.157504
0.86154 0.295537 0.170489
0.920195 0.346014 0.190021
0.926284 0.373312 0.196628
0.926284 0.373312 0.196628
0.926284 0.373312 0.196628
0.926284 0.373312 0.196628
0.926284 0.373312 0.196628
0.926284 0.373312 0.196628
0.926284 0.373312 0.196628
0.926284 0.373312 0.196628
0.926284 0.373312 0.196628
0.926284 0.373312 0.196628
0.0651102 0.066392 0.0664683
0.06421 0.0653849 0.0655222
0.0633097 0.0643778 0.0645762
0.0715648 0.071458 0.071397
0.0947433 0.0875257 0.0843519
0.128481 0.0997635 0.0874952
0.170504 0.106065 0.0778668
0.21651 0.109377 0.0606241
0.256977 0.113603 0.0512856
0.29659 0.118257 0.0545357
0.34078 0.125185 0.0609293
0.388296 0.132311 0.0683146
0.437995 0.13962 0.0762951
0.490135 0.148898 0.0852674
0.543389 0.158663 0.0947127
0.596185 0.169863 0.104692
0.646418 0.185534 0.115297
0.693736 0.202335 0.125704
0.737774 0.22121 0.136172
0.778515 0.241428 0.146471
0.817273 0.263554 0.15697
0.859205 0.293828 0.169787
0.917494 0.342718 0.188907
0.926284 0.373312 0.196628
0.926284 0.373312 0.196628
0.926284 0.373312 0.196628
0.926284 0.373312 0.196628
0.926284 0.373312 0.196628
0.926284 0.373312 0.196628
0.926284 0.373312 0.196628
0.926284 0.373312 0.196628
0.926284 0.373312 0.196628
0.926284 0.373312 0.196628
0.0787671 0.0838026 0.0818799
0.0778973 0.0825666 0.0808576
0.0770123 0.0813153 0.0798047
0.0805066 0.082414 0.0814374
0.0923934 0.0892042 0.0863661
0.122499 0.10219 0.090898
0.162753 0.10901 0.0826886
0.210101 0.111284 0.0643168
0.253254 0.114076 0.0515602
0.293645 0.11841 0.0543374
0.337545 0.124666 0.060441
0.383673 0.131579 0.0675669
0.433539 0.138979 0.0755779
0.48603 0.14815 0.0845502
0.539757 0.157946 0.0940261
0.592813 0.168978 0.104021
0.643442 0.184558 0.114656
0.691142 0.201419 0.125139
0.7355 0.220188 0.135622
0.776425 0.240391 0.145953
0.815442 0.262348 0.156451
0.856886 0.292134 0.16907
0.914885 0.339513 0.187823
0.926284 0.373312 0.196628
0.926284 0.373312 0.196628
0.926284 0.373312 0.196628
0.926284 0.373312 0.196628
0.926284 0.373312 0.196628
0.926284 0.373312 0.196628
0.926284 0.373312 0.196628
0.926284 0.373312 0.196628
0.926284 0.373312 0.196628
0.926284 0.373312 0.196628
0.0903182 0.103487 0.0968032
0.0897536 0.102419 0.0960403
0.0891585 0.101305 0.0952468
0.089601 0.100267 0.0948348
0.101823 0.104387 0.100496
0.118929 0.106966 0.0960098
0.156359 0.116777 0.0901045
0.202792 0.122377 0.0729076
0.249531 0.126284 0.0559701
0.291524 0.131487 0.0568704
0.336294 0.138186 0.0630961
0.384573 0.144121 0.0701305
0.435233 0.149508 0.0778058
0.48716 0.154849 0.0859693
0.538933 0.160693 0.0943923
0.589166 0.168109 0.103319
0.640223 0.183505 0.11397
0.688334 0.200412 0.124514
0.733043 0.219089 0.135027
0.774166 0.239277 0.145373
0.813474 0.261051 0.155886
0.854429 0.290318 0.168322
0.912184 0.336172 0.186694
0.926284 0.373312 0.196628
0.926284 0.373312 0.196628
0.926284 0.373312 0.196628
0.926284 0.373312 0.196628
0.926284 0.373312 0.196628
0.926284 0.373312 0.196628
0.926284 0.373312 0.196628
0.926284 0.373312 0.196628
0.926284 0.373312 0.196628
0.926284 0.373312 0.196628
0.0991684 0.123018 0.109743
0.0988022 0.122148 0.109178
0.0984207 0.121263 0.108614
0.0980392 0.120348 0.108019
0.109056 0.124102 0.113268
0.124346 0.125933 0.116304
0.149371 0.124025 0.100374
0.195605 0.129946 0.0830243
0.245472 0.134844 0.0630045
0.289403 0.142321 0.0593576
0.335897 0.152209 0.0658885
0.384771 0.163668 0.0741588
0.435737 0.17554 0.0831006
0.487144 0.184909 0.0918593
0.540215 0.192309 0.100801
0.591318 0.199344 0.109606
0.640482 0.205829 0.118181
0.686931 0.212985 0.12665
0.730297 0.221317 0.134997
0.771542 0.237949 0.144717
0.810956 0.259571 0.155184
0.851606 0.288228 0.167437
0.90811 0.33228 0.18526
0.926284 0.373312 0.196628
0.926284 0.373312 0.196628
0.926284 0.373312 0.196628
0.926284 0.373312 0.196628
0.926284 0.373312 0.196628
0.926284 0.373312 0.196628
0.926284 0.373312 0.196628
0.926284 0.373312 0.196628
0.926284 0.373312 0.196628
0.926284 0.373312 0.196628
0.106783 0.142748 0.121584
0.106462 0.142016 0.121126
0.106142 0.141268 0.120653
0.105806 0.140505 0.12018
0.110079 0.140856 0.121584
0.134905 0.149599 0.134127
0.149447 0.146548 0.126543
0.184207 0.140917 0.101366
0.238987 0.143648 0.0742657
0.286625 0.151064 0.0631571
0.335485 0.161288 0.0677653
0.388022 0.173373 0.0766155
0.440238 0.18616 0.0859236
0.493675 0.199344 0.0957656
0.545296 0.212024 0.105531
0.594537 0.224201 0.115053
0.642145 0.235813 0.124361
0.687633 0.246052 0.133211
0.730495 0.254673 0.141451
0.769985 0.263828 0.149477
0.80795 0.275288 0.157794
0.8477 0.292424 0.167636
0.902632 0.327779 0.18352
0.926284 0.373312 0.196628
0.926284 0.373312 0.196628
0.926284 0.373312 0.196628
0.926284 0.373312 0.196628
0.926284 0.373312 0.196628
0.926284 0.373312 0.196628
0.926284 0.373312 0.196628
0.926284 0.373312 0.196628
0.926284 0.373312 0.196628
0.926284 0.373312 0.196628
0.11397 0.162448 0.132525
0.113741 0.161807 0.132174
0.113512 0.161135 0.131807
0.113268 0.160479 0.131441
0.113008 0.159747 0.131044
0.13164 0.16672 0.138338
0.160983 0.176501 0.150301
0.179095 0.167025 0.13138
0.225406 0.15758 0.096437
0.281468 0.160174 0.0707256
0.332464 0.170687 0.0696422
0.387579 0.183444 0.0787213
0.444038 0.196551 0.0886397
0.499504 0.210025 0.0988022
0.552941 0.223972 0.109071
0.602945 0.238102 0.119142
0.649454 0.251926 0.128725
0.691966 0.26569 0.137835
0.731487 0.280049 0.146761
0.768887 0.293309 0.155215
0.805051 0.307225 0.16379
0.842725 0.323751 0.173175
0.890517 0.34966 0.186114
0.92636 0.384848 0.199115
0.926329 0.38024 0.198093
0.926284 0.376043 0.197177
0.926268 0.373266 0.196597
0.926284 0.373312 0.196628
0.926284 0.373312 0.196628
0.926284 0.373312 0.196628
0.926284 0.373312 0.196628
0.926284 0.373312 0.196628
0.926284 0.373312 0.196628
0.12134 0.184924 0.142931
0.121141 0.184268 0.142641
0.120943 0.183612 0.142367
0.120729 0.182925 0.142077
0.1205 0.182193 0.141756
0.125658 0.183932 0.143038
0.157885 0.195605 0.155367
0.189273 0.205325 0.158175
0.217517 0.188464 0.126085
0.271641 0.17496 0.0852827
0.32668 0.181491 0.0742962
0.38468 0.193851 0.0808423
0.444404 0.207416 0.0910506
0.502647 0.22153 0.101732
0.557748 0.235752 0.112276
0.609384 0.250217 0.122606
0.657145 0.264958 0.13254
0.69926 0.280491 0.141985
0.737865 0.295933 0.151003
0.772732 0.311513 0.159625
0.804501 0.329778 0.168444
0.837888 0.350042 0.177951
0.880323 0.373617 0.189654
0.925307 0.406149 0.203601
0.925521 0.402289 0.202808
0.926467 0.398764 0.202152
0.926452 0.394888 0.201282
0.926421 0.391196 0.200488
0.926375 0.387579 0.199725
0.926345 0.384619 0.199069
0.926329 0.381918 0.198474
0.926314 0.379477 0.197925
0.926299 0.377295 0.197436
0.126665 0.210178 0.15053
0.126558 0.209506 0.150408
0.126421 0.20882 0.150271
0.126299 0.208133 0.150134
0.126177 0.20737 0.149996
0.126009 0.206485 0.149813
0.145983 0.214664 0.154147
0.183413 0.227237 0.165927
0.223896 0.234852 0.152132
0.263752 0.20798 0.110414
0.317678 0.197101 0.0868086
0.378393 0.205707 0.0844129
0.440452 0.218723 0.0931106
0.50132 0.233051 0.104097
0.559319 0.247745 0.115099
0.613031 0.262592 0.125765
0.66183 0.277882 0.136019
0.704158 0.293553 0.145525
0.741955 0.309712 0.154559
0.776181 0.326925 0.163439
0.807492 0.345907 0.172396
0.838163 0.367651 0.181888
0.874876 0.394278 0.193423
0.923476 0.432197 0.209247
0.923613 0.427726 0.208255
0.923461 0.423514 0.207279
0.923812 0.419501 0.206409
0.924178 0.415824 0.205631
0.924529 0.412482 0.204929
0.92488 0.409522 0.204303
0.9252 0.406897 0.203754
0.925414 0.40473 0.203311
0.925505 0.403067 0.20296
0.128496 0.239338 0.154406
0.128527 0.238682 0.154345
0.128557 0.238025 0.154269
0.128573 0.237354 0.154208
0.128603 0.236637 0.154131
0.128634 0.235767 0.15404
0.129854 0.235615 0.15375
0.171817 0.249805 0.162325
0.212985 0.262409 0.171557
0.2654 0.261997 0.139788
0.31194 0.230686 0.10573
0.367269 0.222232 0.0925002
0.432578 0.231525 0.0951858
0.496864 0.244877 0.106142
0.557519 0.259754 0.11751
0.612894 0.275151 0.128511
0.662348 0.290715 0.138918
0.706249 0.306569 0.148699
0.744595 0.322911 0.157885
0.7785 0.340612 0.166812
0.809201 0.360265 0.175814
0.839506 0.381918 0.18526
0.872847 0.410254 0.196735
0.918624 0.451408 0.21294
0.923629 0.453574 0.21416
0.923049 0.451026 0.213489
0.922713 0.448463 0.212848
0.923064 0.445609 0.212222
0.923156 0.442435 0.211505
0.923247 0.439536 0.210864
0.923323 0.436957 0.2103
0.923384 0.434653 0.209781
0.923461 0.432639 0.209339
0.134615 0.271168 0.158541
0.134463 0.270542 0.158434
0.13431 0.269902 0.158343
0.134142 0.269245 0.158236
0.133974 0.268544 0.158114
0.133776 0.26772 0.157992
0.133547 0.266728 0.157824
0.151019 0.272572 0.158877
0.201633 0.28658 0.170184
0.248569 0.299886 0.178119
0.310887 0.290455 0.138766
0.359319 0.256336 0.111269
0.418723 0.249256 0.10042
0.487511 0.258686 0.108202
0.551461 0.272053 0.119524
0.608759 0.287785 0.1308
0.660014 0.303578 0.141451
0.705684 0.319722 0.151537
0.744961 0.336126 0.160861
0.779141 0.353704 0.169848
0.809796 0.372992 0.17879
0.839338 0.395163 0.188235
0.871458 0.423194 0.199527
0.912383 0.460212 0.21413
0.922957 0.470069 0.217945
0.922255 0.468208 0.217395
0.921599 0.466453 0.216892
0.921782 0.464851 0.216541
0.922179 0.463386 0.216251
0.92256 0.462074 0.215991
0.922911 0.460883 0.215763
0.923217 0.459831 0.215564
0.923506 0.458915 0.215396
0.145632 0.305013 0.166537
0.145357 0.304463 0.166354
0.145083 0.303883 0.166171
0.144793 0.303319 0.165988
0.144488 0.302693 0.165789
0.144137 0.301961 0.165545
0.143709 0.301091 0.16527
0.143221 0.300069 0.164935
0.187457 0.312261 0.171939
0.23444 0.325078 0.180346
0.288899 0.338628 0.186053
0.357534 0.320424 0.147814
0.408484 0.283406 0.116213
0.472404 0.277577 0.111833
0.540398 0.287129 0.121706
0.60174 0.300618 0.132845
0.65507 0.316609 0.143755
0.701946 0.333013 0.154025
0.742702 0.350057 0.163699
0.777478 0.367437 0.172732
0.80856 0.386496 0.181659
0.837934 0.407813 0.190951
0.86865 0.433845 0.201556
0.907439 0.468544 0.215366
0.921218 0.486671 0.221668
0.920668 0.485023 0.22121
0.920165 0.483467 0.220768
0.920424 0.481941 0.220447
0.920806 0.480537 0.220157
0.921172 0.479255 0.219898
0.921492 0.478111 0.219669
0.921782 0.477104 0.219471
0.922026 0.476219 0.219303
0.164843 0.341573 0.180011
0.164599 0.341054 0.179797
0.16434 0.34052 0.179583
0.164096 0.339986 0.179355
0.163821 0.339406 0.179126
0.163516 0.338704 0.178866
0.163043 0.337896 0.178531
0.162493 0.336934 0.178149
0.167819 0.337896 0.1776
0.22443 0.35288 0.185718
0.271916 0.365179 0.191684
0.331746 0.377356 0.195712
0.404395 0.350866 0.156573
0.459693 0.313481 0.124575
0.523156 0.308034 0.124605
0.589273 0.317586 0.135241
0.646784 0.330755 0.145922
0.695399 0.347021 0.156359
0.737652 0.364157 0.166247
0.773922 0.381613 0.175479
0.805402 0.400153 0.184451
0.834638 0.420996 0.193561
0.864958 0.445609 0.203845
0.900603 0.47686 0.216464
0.923384 0.502083 0.225711
0.923003 0.500694 0.225315
0.922911 0.499397 0.224979
0.922988 0.498222 0.224704
0.923049 0.497154 0.224445
0.923125 0.496193 0.224216
0.923171 0.495323 0.224002
0.923232 0.49456 0.223819
0.923262 0.493874 0.223651
0.189075 0.379705 0.197131
0.188739 0.379187 0.196902
0.188403 0.378668 0.196674
0.188052 0.378149 0.196429
0.187686 0.377569 0.196185
0.187243 0.376913 0.19588
0.18674 0.37612 0.195529
0.18613 0.375189 0.195102
0.185412 0.37409 0.194614
0.211185 0.380835 0.196124
0.261723 0.393362 0.200076
0.312856 0.405921 0.205875
0.378042 0.416587 0.211353
0.451377 0.384985 0.165652
0.508064 0.346471 0.135439
0.571939 0.340932 0.138796
0.634104 0.349676 0.148836
0.686534 0.362051 0.158724
0.729809 0.378576 0.168582
0.767315 0.396139 0.177996
0.800153 0.414603 0.187091
0.829892 0.434897 0.196231
0.859739 0.458442 0.206165
0.893812 0.486824 0.217914
0.925124 0.518715 0.230121
0.925231 0.517327 0.22977
0.925338 0.516014 0.22945
0.925429 0.514794 0.229145
0.925505 0.513695 0.22887
0.925383 0.512703 0.228595
0.925231 0.511818 0.228367
0.925093 0.51104 0.228153
0.924971 0.510353 0.22797
0.214176 0.419196 0.214954
0.21384 0.418708 0.21474
0.213489 0.418219 0.214496
0.213138 0.417716 0.214267
0.212757 0.417166 0.214023
0.212314 0.416526 0.213718
0.211795 0.415778 0.213367
0.21117 0.414893 0.21297
0.210452 0.413855 0.212482
0.209598 0.412634 0.211917
0.256947 0.424689 0.214694
0.300664 0.434623 0.218021
0.35967 0.448173 0.223957
0.425559 0.456962 0.227832
0.497688 0.421653 0.177539
0.555276 0.381659 0.147784
0.618189 0.375036 0.153155
0.673472 0.382757 0.162112
0.720394 0.394751 0.171221
0.759686 0.4112 0.180591
0.793759 0.429389 0.189731
0.824201 0.449119 0.19881
0.853605 0.471565 0.208515
0.886397 0.497765 0.219577
0.923323 0.531106 0.232975
0.926528 0.535531 0.234501
0.926421 0.534188 0.234165
0.926284 0.532982 0.233845
0.926162 0.531884 0.233555
0.92604 0.530892 0.23328
0.925933 0.530007 0.233051
0.925841 0.529229 0.232853
0.92575 0.528542 0.23267
0.24213 0.460365 0.233906
0.241825 0.459907 0.233692
0.24152 0.459449 0.233494
0.241215 0.458991 0.23328
0.240879 0.458488 0.233051
0.240482 0.457893 0.232776
0.240024 0.457191 0.232456
0.239475 0.456382 0.232074
0.238834 0.455421 0.231647
0.238087 0.454292 0.231128
0.245228 0.455238 0.230915
0.298726 0.467506 0.23328
0.344213 0.476753 0.236133
0.407462 0.49044 0.2421
0.472724 0.497734 0.245029
0.542977 0.460136 0.190814
0.601633 0.419089 0.163104
0.658564 0.410224 0.167163
0.709056 0.417136 0.175296
0.7514 0.428672 0.183734
0.78674 0.444968 0.19263
0.817731 0.463859 0.201633
0.846967 0.484993 0.210956
0.878264 0.509422 0.221393
0.914412 0.539376 0.233845
0.92723 0.55436 0.239414
0.927169 0.55314 0.239094
0.927108 0.55201 0.238788
0.927062 0.550988 0.238529
0.927016 0.550072 0.238285
0.92697 0.549249 0.238071
0.92694 0.548516 0.237888
0.926909 0.54789 0.23772
0.270848 0.502144 0.25391
0.270527 0.501701 0.253697
0.270222 0.501259 0.253483
0.269902 0.500816 0.253269
0.269566 0.500343 0.25304
0.269154 0.499779 0.252766
0.268681 0.499107 0.25243
0.268116 0.498329 0.252049
0.26746 0.497414 0.251606
0.266697 0.496345 0.251087
0.265812 0.495109 0.250492
0.295552 0.501091 0.250706
0.338933 0.509239 0.251865
0.389288 0.519265 0.255116
0.455802 0.53312 0.261036
0.519554 0.538476 0.262501
0.585428 0.500038 0.207538
0.643107 0.457755 0.178317
0.695888 0.446357 0.181216
0.741192 0.452522 0.188525
0.779126 0.463523 0.196277
0.810971 0.479072 0.204532
0.839887 0.498848 0.213504
0.869978 0.52137 0.223331
0.905409 0.548608 0.235019
0.92784 0.573297 0.244373
0.92781 0.572168 0.244083
0.927794 0.571115 0.243809
0.927779 0.570169 0.243549
0.927764 0.569314 0.243336
0.927749 0.568551 0.243137
0.927718 0.567895 0.242954
0.927703 0.567315 0.242802
0.301274 0.543984 0.274098
0.300969 0.543572 0.273899
0.300679 0.54316 0.273701
0.300374 0.542733 0.273503
0.300038 0.54229 0.273289
0.299657 0.541756 0.273045
0.299199 0.541131 0.27274
0.298665 0.540398 0.272389
0.298039 0.539528 0.271977
0.297322 0.538521 0.271489
0.296468 0.537377 0.270939
0.295506 0.536034 0.270298
0.342153 0.544869 0.270619
0.38233 0.551034 0.270878
0.43621 0.561669 0.274037
0.504768 0.574731 0.27953
0.563989 0.578164 0.28098
0.625193 0.538766 0.225528
0.680797 0.497093 0.193576
0.72903 0.484276 0.195377
0.769787 0.487968 0.201419
0.803021 0.497917 0.208316
0.832883 0.513603 0.216327
0.861463 0.534157 0.225483
0.894636 0.558419 0.236164
0.927199 0.58819 0.248203
0.92813 0.591348 0.249149
0.92813 0.590402 0.24889
0.92813 0.589532 0.248661
0.92813 0.588769 0.248463
0.92813 0.588083 0.248264
0.928115 0.587411 0.248096
0.9281 0.586831 0.247944
0.332509 0.585946 0.295293
0.332219 0.585565 0.295094
0.331899 0.585153 0.294881
0.331594 0.584756 0.294682
0.331258 0.584329 0.294453
0.330861 0.58381 0.294194
0.330404 0.5832 0.293873
0.329854 0.582498 0.293507
0.329213 0.581674 0.293095
0.328466 0.580713 0.292592
0.327611 0.579599 0.292027
0.326619 0.578332 0.291356
0.340429 0.579767 0.290471
0.385595 0.586526 0.289479
0.42652 0.592386 0.29041
0.483375 0.602518 0.293919
0.550622 0.614176 0.298711
0.606821 0.616938 0.300679
0.663874 0.578408 0.244587
0.713069 0.536477 0.208865
0.757321 0.520638 0.208591
0.794385 0.52285 0.213764
0.825315 0.531975 0.220142
0.853941 0.548089 0.228122
0.884733 0.569741 0.237858
0.919417 0.595895 0.249226
0.928649 0.610315 0.254246
0.928603 0.609339 0.253986
0.928573 0.608438 0.253742
0.928542 0.607645 0.253529
0.928527 0.606928 0.253346
0.928496 0.606317 0.253178
0.928481 0.605768 0.253025
0.364355 0.628092 0.316411
0.364065 0.62771 0.316228
0.363775 0.627314 0.31603
0.363485 0.626917 0.315847
0.363165 0.62649 0.315633
0.362783 0.625986 0.315389
0.362341 0.625391 0.315099
0.361807 0.624704 0.314748
0.361196 0.623896 0.314351
0.360494 0.62295 0.313893
0.35967 0.621851 0.313344
0.358724 0.620615 0.312734
0.357641 0.619196 0.312032
0.391852 0.623499 0.310658
0.426688 0.626017 0.308675
0.471946 0.63267 0.309773
0.529351 0.641901 0.313024
0.593576 0.65182 0.317494
0.647318 0.654139 0.318685
0.696773 0.621424 0.262974
0.741451 0.574212 0.222187
0.783444 0.556359 0.221469
0.817365 0.557488 0.225956
0.846342 0.566079 0.231952
0.875639 0.582238 0.240055
0.909819 0.605264 0.250538
0.92903 0.629206 0.259342
0.929 0.628244 0.259083
0.928969 0.627375 0.258854
0.928939 0.626596 0.25864
0.928923 0.62591 0.258442
0.928893 0.625299 0.258274
0.928878 0.624765 0.258137
0.395956 0.671107 0.337911
0.395666 0.67071 0.337713
0.395377 0.670314 0.337499
0.395071 0.669902 0.337285
0.394751 0.669459 0.337057
0.394385 0.66894 0.336797
0.393927 0.66833 0.336477
0.393408 0.667628 0.33611
0.392798 0.666789 0.335683
0.392096 0.665827 0.33518
0.391272 0.664714 0.334585
0.390326 0.663432 0.333928
0.389258 0.661982 0.333165
0.393957 0.661021 0.33196
0.436027 0.663615 0.329397
0.469444 0.665919 0.32842
0.516289 0.671901 0.329946
0.574548 0.680751 0.333288
0.633082 0.68806 0.336919
0.683268 0.690089 0.336385
0.72723 0.661616 0.290745
0.767315 0.61149 0.235416
0.806516 0.592264 0.234211
0.83917 0.591516 0.23798
0.867826 0.599603 0.243793
0.89984 0.61648 0.252338
0.928557 0.640024 0.262211
0.929366 0.647532 0.264363
0.929351 0.646662 0.264134
0.929335 0.645899 0.26392
0.92932 0.645212 0.263722
0.929305 0.644602 0.263554
0.92929 0.644083 0.263416
0.426871 0.715801 0.360281
0.426596 0.715373 0.360067
0.426307 0.714916 0.359854
0.426017 0.714473 0.35964
0.425711 0.713985 0.359396
0.425345 0.71342 0.359121
0.424903 0.712749 0.358801
0.424369 0.711971 0.358419
0.423774 0.71107 0.357992
0.423102 0.710048 0.357488
0.422309 0.708873 0.356909
0.421408 0.707515 0.356237
0.420371 0.705989 0.355489
0.419211 0.704265 0.354635
0.446464 0.704311 0.351751
0.474403 0.702663 0.347997
0.510369 0.704463 0.347768
0.559579 0.710521 0.34992
0.61529 0.717983 0.353063
0.67039 0.72433 0.356588
0.715633 0.725261 0.358602
0.754482 0.69984 0.31812
0.789425 0.649958 0.251728
0.827314 0.628168 0.246738
0.860792 0.625025 0.249928
0.890913 0.632578 0.25565
0.92282 0.650614 0.264439
0.929747 0.667613 0.269963
0.929732 0.666712 0.269703
0.929717 0.665904 0.269474
0.929702 0.665187 0.269276
0.929686 0.664561 0.269093
0.929671 0.664027 0.26894
0.455924 0.76495 0.383719
0.45565 0.764462 0.38349
0.45536 0.763973 0.383246
0.455085 0.763485 0.383001
0.45478 0.762951 0.382742
0.454429 0.762325 0.382437
0.453971 0.761517 0.382071
0.453437 0.760586 0.381628
0.452811 0.759487 0.381125
0.452094 0.758236 0.380529
0.451331 0.756832 0.379873
0.450446 0.755245 0.379141
0.449454 0.75346 0.378302
0.448325 0.751446 0.377371
0.452583 0.749233 0.375875
0.485679 0.744595 0.370779
0.512169 0.741817 0.368017
0.551598 0.743725 0.368185
0.599405 0.748089 0.37023
0.651514 0.753704 0.373022
0.702846 0.758526 0.376226
0.745693 0.758602 0.37763
0.779828 0.742138 0.349584
0.808835 0.686046 0.262501
0.847929 0.663096 0.259022
0.882979 0.659068 0.262043
0.916411 0.666041 0.267964
0.930037 0.683024 0.274311
0.930144 0.687022 0.275456
0.930114 0.686183 0.275212
0.930098 0.685435 0.274998
0.930098 0.684794 0.274815
0.930083 0.684215 0.274647
0.484474 0.821988 0.413062
0.484199 0.821363 0.412695
0.483925 0.820722 0.412329
0.48365 0.820081 0.411963
0.483345 0.819409 0.411582
0.482963 0.818555 0.411124
0.48249 0.817533 0.410605
0.481941 0.816358 0.409979
0.481315 0.814984 0.409277
0.480583 0.813413 0.408453
0.479744 0.811627 0.407507
0.478782 0.809613 0.406439
0.477699 0.807355 0.405249
0.476493 0.804852 0.403922
0.475151 0.802106 0.402457
0.498344 0.793545 0.395972
0.519432 0.785168 0.390417
0.549401 0.782177 0.388785
0.589136 0.782467 0.389639
0.634745 0.784909 0.391882
0.684443 0.789105 0.394797
0.735058 0.793713 0.398154
0.772198 0.792554 0.401297
0.803052 0.784894 0.390631
0.827283 0.725231 0.279164
0.868437 0.699275 0.271702
0.908186 0.693462 0.274693
0.930358 0.697215 0.278309
0.930571 0.70782 0.281331
0.930556 0.70692 0.281086
0.930541 0.706142 0.280858
0.930526 0.70544 0.280659
0.93051 0.704845 0.280491
0.497673 0.852888 0.431052
0.497673 0.852888 0.431052
0.497673 0.852888 0.431052
0.497673 0.852888 0.431052
0.497673 0.852888 0.431052
0.497673 0.852888 0.431052
0.497673 0.852888 0.431052
0.497673 0.852888 0.431052
0.497673 0.852888 0.431052
0.497673 0.852888 0.431052
0.497673 0.852888 0.431052
0.497673 0.852888 0.431052
0.497673 0.852888 0.431052
0.497673 0.852888 0.431052
0.497673 0.852888 0.431052
0.507515 0.847211 0.426551
0.530007 0.832624 0.415991
0.552285 0.825528 0.412161
0.585 0.82359 0.412146
0.62359 0.821866 0.41294
0.66743 0.822278 0.415152
0.713497 0.824109 0.418036
0.759686 0.826871 0.42121
0.797406 0.826642 0.424903
0.824964 0.818845 0.419226
0.847272 0.770489 0.316686
0.890288 0.736065 0.284825
0.928023 0.72726 0.286534
0.931014 0.727764 0.286992
0.931044 0.728862 0.287297
0.931014 0.727947 0.287037
0.930999 0.727138 0.286809
0.930983 0.726452 0.28661
0.497673 0.852888 0.431052
0.497673 0.852888 0.431052
0.497673 0.852888 0.431052
0.497673 0.852888 0.431052
0.497673 0.852888 0.431052
0.497673 0.852888 0.431052
0.497673 0.852888 0.431052
0.497673 0.852888 0.431052
0.497673 0.852888 0.431052
0.497673 0.852888 0.431052
0.497673 0.852888 0.431052
0.497673 0.852888 0.431052
0.497673 0.852888 0.431052
0.497673 0.852888 0.431052
0.497673 0.852888 0.431052
0.497673 0.852888 0.431052
0.523949 0.836439 0.418799
0.544076 0.82707 0.412711
0.574411 0.82388 0.412009
0.612024 0.824506 0.414038
0.654902 0.827329 0.417746
0.699001 0.830869 0.42211
0.743893 0.835508 0.426902
0.786633 0.840284 0.432181
0.818555 0.840589 0.437507
0.844038 0.832334 0.42678
0.865705 0.781811 0.306294
0.915404 0.757702 0.293843
0.931472 0.74815 0.292866
0.931472 0.747723 0.292699
0.931472 0.747723 0.292699
0.931472 0.747723 0.292699
0.931472 0.747723 0.292699
