public/luts/SonyProSW-LUT3_REC709.cube
TITLE "Generated by Resolve"
LUT_3D_SIZE 33
0.0448768 0.0508888 0.0543374
0.0448768 0.0508888 0.0543374
0.0541848 0.0528725 0.0541238
0.0814984 0.0561379 0.0523842
0.109682 0.0564736 0.05037
0.140597 0.0582742 0.0483711
0.168765 0.0591287 0.046067
0.195956 0.0592203 0.0426947
0.224018 0.0592203 0.0391089
0.248676 0.0597848 0.0369573
0.272053 0.0603647 0.0330205
0.293645 0.0616007 0.0307012
0.319036 0.0653849 0.0287327
0.345769 0.0677348 0.0269474
0.371176 0.0718242 0.0249332
0.396521 0.0767681 0.0231479
0.421973 0.081178 0.0217594
0.448692 0.0859541 0.0200198
0.475883 0.0914015 0.0185702
0.502251 0.0982223 0.0156405
0.526787 0.103883 0.0134432
0.549203 0.107713 0.0130465
0.572137 0.111482 0.0119936
0.578592 0.112474 0.0117952
0.578592 0.112474 0.0117952
0.578592 0.112474 0.0117952
0.578592 0.112474 0.0117952
0.578592 0.112474 0.0117952
0.578592 0.112474 0.0117952
0.578592 0.112474 0.0117952
0.578592 0.112474 0.0117952
0.578592 0.112474 0.0117952
0.578592 0.112474 0.0117952
0.0448768 0.0508888 0.0543374
0.0448768 0.0508888 0.0543374
0.0480964 0.051545 0.0543832
0.0701762 0.0550546 0.0531167
0.102327 0.0565499 0.0507668
0.132998 0.0578012 0.0488594
0.163531 0.059205 0.0464942
0.191012 0.059266 0.0434882
0.219959 0.0591592 0.0394446
0.245716 0.0597086 0.0371862
0.269474 0.0602884 0.033463
0.291661 0.0614481 0.0308385
0.31667 0.0652018 0.0288853
0.343755 0.0675364 0.0270848
0.369497 0.0715038 0.0250706
0.394949 0.0764935 0.0232242
0.420523 0.0809339 0.0218357
0.447227 0.0856489 0.0200809
0.474571 0.0910964 0.0186618
0.500999 0.0978714 0.0157778
0.525643 0.10367 0.013489
0.548211 0.107591 0.0130922
0.571023 0.111299 0.0120394
0.578592 0.112474 0.0117952
0.578592 0.112474 0.0117952
0.578592 0.112474 0.0117952
0.578592 0.112474 0.0117952
0.578592 0.112474 0.0117952
0.578592 0.112474 0.0117952
0.578592 0.112474 0.0117952
0.578592 0.112474 0.0117952
0.578592 0.112474 0.0117952
0.578592 0.112474 0.0117952
0.0470588 0.0538491 0.0544594
0.0463569 0.0530098 0.0544594
0.0456703 0.0521401 0.0544594
0.0610361 0.0550088 0.0540017
0.0941787 0.0566567 0.0512093
0.124788 0.0573129 0.0493935
0.157946 0.0592813 0.046952
0.185809 0.0593271 0.0442969
0.215686 0.0590982 0.0397955
0.242679 0.059617 0.0374762
0.266819 0.0602121 0.0339208
0.289555 0.0613107 0.0309758
0.31429 0.0649577 0.0290684
0.341711 0.0673381 0.0272221
0.367773 0.0711528 0.0252232
0.393194 0.0762036 0.0232853
0.419043 0.0806744 0.021912
0.445731 0.085359 0.0201572
0.473243 0.0907759 0.0187686
0.499718 0.0975357 0.0159152
0.524468 0.103456 0.01355
0.547189 0.107454 0.0131228
0.569894 0.111116 0.0120851
0.578592 0.112474 0.0117952
0.578592 0.112474 0.0117952
0.578592 0.112474 0.0117952
0.578592 0.112474 0.0117952
0.578592 0.112474 0.0117952
0.578592 0.112474 0.0117952
0.578592 0.112474 0.0117952
0.578592 0.112474 0.0117952
0.578592 0.112474 0.0117952
0.578592 0.112474 0.0117952
0.0589151 0.0681468 0.0549477
0.0582284 0.0669871 0.0549783
0.0575418 0.0657969 0.055024
0.0686961 0.0669261 0.0541695
0.101503 0.0704051 0.0514382
0.133349 0.0689403 0.0496223
0.161913 0.0699321 0.0471199
0.191791 0.0709697 0.0439002
0.219654 0.068513 0.0396277
0.246159 0.0665446 0.0372931
0.268849 0.0641489 0.0339361
0.288151 0.061677 0.0310369
0.312032 0.0645609 0.0292515
0.33962 0.0671397 0.0273594
0.366033 0.0708171 0.0253605
0.391379 0.0759594 0.0233463
0.417548 0.080415 0.0219883
0.444221 0.0850538 0.0202182
0.471885 0.0904555 0.0188754
0.498436 0.0971847 0.0160525
0.523293 0.103227 0.0135958
0.546166 0.107332 0.0131533
0.56875 0.110933 0.0121462
0.578592 0.112474 0.0117952
0.578592 0.112474 0.0117952
0.578592 0.112474 0.0117952
0.578592 0.112474 0.0117952
0.578592 0.112474 0.0117952
0.578592 0.112474 0.0117952
0.578592 0.112474 0.0117952
0.578592 0.112474 0.0117952
0.578592 0.112474 0.0117952
0.578592 0.112474 0.0117952
0.0722972 0.0888838 0.0541848
0.0715801 0.0877394 0.0542153
0.0708476 0.0865492 0.0542611
0.0738537 0.0861524 0.0540627
0.115099 0.0930648 0.0502785
0.150103 0.0928817 0.0476997
0.178302 0.0931258 0.0457618
0.208835 0.0934157 0.0399023
0.239521 0.0924392 0.0373999
0.268971 0.092256 0.035172
0.297444 0.0925154 0.0310063
0.324392 0.0918746 0.0267948
0.34464 0.0890516 0.0256657
0.363684 0.0848096 0.0247654
0.379202 0.079942 0.0239872
0.389838 0.0756847 0.0234226
0.41593 0.0801251 0.0220798
0.442573 0.0847334 0.0202945
0.470405 0.090135 0.0189822
0.497032 0.0968032 0.0162203
0.522011 0.102983 0.0136416
0.545068 0.107179 0.0131838
0.567529 0.110735 0.0122072
0.578592 0.112474 0.0117952
0.578592 0.112474 0.0117952
0.578592 0.112474 0.0117952
0.578592 0.112474 0.0117952
0.578592 0.112474 0.0117952
0.578592 0.112474 0.0117952
0.578592 0.112474 0.0117952
0.578592 0.112474 0.0117952
0.578592 0.112474 0.0117952
0.578592 0.112474 0.0117952
0.098558 0.116014 0.0521248
0.0971237 0.114809 0.0523384
0.0956436 0.113558 0.0525521
0.0941939 0.112276 0.0527504
0.124056 0.11603 0.0504311
0.168063 0.12221 0.0458534
0.201999 0.123064 0.0431373
0.23212 0.121538 0.0384833
0.26096 0.121736 0.03505
0.290013 0.119112 0.0328679
0.316487 0.116533 0.0287633
0.345083 0.116884 0.0249027
0.373312 0.115999 0.0229953
0.39704 0.115068 0.0213321
0.415473 0.112306 0.0200198
0.43183 0.110216 0.0206455
0.446601 0.104005 0.0200809
0.459663 0.0966354 0.0189059
0.473304 0.0928511 0.0187533
0.495354 0.0963607 0.0164034
0.520516 0.102708 0.0137179
0.543755 0.107012 0.0132448
0.566079 0.110491 0.0122683
0.578592 0.112474 0.0117952
0.578592 0.112474 0.0117952
0.578592 0.112474 0.0117952
0.578592 0.112474 0.0117952
0.578592 0.112474 0.0117952
0.578592 0.112474 0.0117952
0.578592 0.112474 0.0117952
0.578592 0.112474 0.0117952
0.578592 0.112474 0.0117952
0.578592 0.112474 0.0117952
0.132433 0.143221 0.0504616
0.131075 0.142123 0.0505531
0.129671 0.141009 0.0506294
0.128252 0.139879 0.0507057
0.13904 0.141726 0.0497444
0.181964 0.14844 0.0458991
0.225513 0.155306 0.0412146
0.257755 0.155047 0.0383764
0.288319 0.154055 0.0340887
0.317403 0.151659 0.0304265
0.343069 0.148455 0.0267796
0.369543 0.145861 0.0229343
0.398245 0.145357 0.0208286
0.425528 0.146136 0.0187076
0.450324 0.145403 0.0168612
0.468132 0.142412 0.0165103
0.48542 0.139055 0.0157931
0.500084 0.135271 0.0152438
0.515572 0.129259 0.0148318
0.528969 0.124239 0.0137026
0.540246 0.119844 0.0125582
0.551843 0.114305 0.0121309
0.56437 0.110216 0.0123598
0.578592 0.112474 0.0117952
0.578592 0.112474 0.0117952
0.578592 0.112474 0.0117952
0.578592 0.112474 0.0117952
0.578592 0.112474 0.0117952
0.578592 0.112474 0.0117952
0.578592 0.112474 0.0117952
0.578592 0.112474 0.0117952
0.578592 0.112474 0.0117952
0.578592 0.112474 0.0117952
0.168856 0.174884 0.0510719
0.167605 0.173754 0.0510719
0.166308 0.172625 0.0510567
0.165011 0.17145 0.0510567
0.163592 0.170184 0.0510567
0.196445 0.176226 0.0480812
0.239506 0.182223 0.0448157
0.282551 0.189273 0.0383459
0.314412 0.18854 0.0359197
0.342 0.186954 0.0320897
0.369009 0.184314 0.0276646
0.394339 0.180987 0.0238346
0.421668 0.178302 0.0214084
0.449241 0.177417 0.0183261
0.476188 0.177157 0.0154879
0.499672 0.175677 0.0131838
0.517601 0.172885 0.0117342
0.534554 0.169757 0.0107881
0.549523 0.166079 0.0104219
0.56408 0.160647 0.00962844
0.577264 0.15552 0.00900282
0.589044 0.150301 0.0087129
0.59913 0.143648 0.00874342
0.605264 0.137774 0.00956741
0.597742 0.129717 0.0101778
0.58941 0.121828 0.0108644
0.58053 0.114183 0.0115969
0.578592 0.112474 0.0117952
0.578592 0.112474 0.0117952
0.578592 0.112474 0.0117952
0.578592 0.112474 0.0117952
0.578592 0.112474 0.0117952
0.578592 0.112474 0.0117952
0.209506 0.208545 0.052079
0.208301 0.207584 0.0520485
0.207065 0.206622 0.052018
0.205829 0.205646 0.0519722
0.204471 0.204562 0.0519417
0.212848 0.205646 0.0510567
0.253193 0.211475 0.0491951
0.294118 0.218509 0.0465705
0.337697 0.223896 0.0395361
0.366323 0.224109 0.036347
0.392935 0.222416 0.0312047
0.418952 0.219837 0.0285649
0.44509 0.216953 0.0252537
0.471305 0.214405 0.0203861
0.497368 0.213199 0.0170901
0.523339 0.211917 0.013901
0.543816 0.208957 0.011017
0.56051 0.206073 0.0109102
0.578653 0.203235 0.0103151
0.593057 0.199466 0.00972
0.607828 0.194888 0.00825513
0.620447 0.188449 0.00717174
0.631647 0.183001 0.00706493
0.640024 0.175723 0.00712596
0.634165 0.168154 0.00732433
0.627649 0.161257 0.00782788
0.621286 0.154467 0.00833143
0.615137 0.148119 0.00880446
0.609659 0.142443 0.00921645
0.604898 0.137377 0.00959792
0.600488 0.132662 0.00994888
0.596475 0.128344 0.0102846
0.592584 0.124559 0.010605
0.249653 0.241917 0.0547189
0.248615 0.241077 0.0546426
0.247578 0.240208 0.0545663
0.246509 0.239338 0.05449
0.24535 0.238376 0.0543984
0.243977 0.237247 0.0543069
0.268589 0.240833 0.0541543
0.306386 0.246891 0.0528572
0.347127 0.253895 0.0495766
0.388891 0.259419 0.0415656
0.416876 0.258808 0.038056
0.442374 0.256626 0.0344549
0.466972 0.254322 0.0309758
0.492912 0.251545 0.0260929
0.51841 0.25008 0.0210422
0.543679 0.250065 0.0158694
0.566003 0.245106 0.0136416
0.585794 0.241672 0.0117494
0.60354 0.238743 0.0111086
0.618769 0.236378 0.0103304
0.632822 0.232166 0.00933852
0.646128 0.226352 0.00793469
0.659052 0.220447 0.00672923
0.669429 0.213657 0.00698863
0.664759 0.207752 0.00698863
0.660121 0.201968 0.00698863
0.655726 0.196384 0.00698863
0.651606 0.191058 0.00695811
0.64773 0.186069 0.00695811
0.644205 0.181338 0.00703441
0.640986 0.177005 0.00709544
0.638056 0.173083 0.00717174
0.635431 0.169589 0.00723278
0.290898 0.275807 0.0585489
0.290043 0.275105 0.0584421
0.289174 0.274388 0.0583505
0.288289 0.273655 0.0582589
0.287327 0.272877 0.0581521
0.286198 0.271946 0.0580301
0.287129 0.271199 0.0578622
0.322316 0.277897 0.0572976
0.360388 0.284596 0.0557717
0.399023 0.290776 0.0522316
0.439323 0.296056 0.0453193
0.465965 0.294194 0.0413672
0.489158 0.291752 0.0380713
0.512169 0.289479 0.0349889
0.537285 0.286976 0.0298619
0.562264 0.286061 0.0246128
0.586175 0.285603 0.0185855
0.608042 0.280491 0.0157626
0.62678 0.276921 0.0142214
0.642023 0.27396 0.0144961
0.656367 0.269688 0.0135805
0.669993 0.264561 0.0117647
0.681682 0.258213 0.0101778
0.694377 0.251606 0.00857557
0.692195 0.245899 0.00807202
0.68893 0.240513 0.00756847
0.685771 0.23537 0.0071107
0.682582 0.23064 0.00691234
0.679545 0.226566 0.0068513
0.676738 0.22298 0.00689708
0.674205 0.21973 0.0069276
0.671916 0.216831 0.00695811
0.669902 0.214237 0.00698863
0.329839 0.309972 0.0635996
0.329152 0.309346 0.063447
0.328466 0.308721 0.0632944
0.327764 0.30808 0.0631418
0.326986 0.307393 0.062974
0.326085 0.306584 0.0627756
0.325002 0.305608 0.0625467
0.33962 0.306828 0.0624247
0.374502 0.314046 0.0625925
0.411704 0.320729 0.0615396
0.448264 0.326253 0.0560159
0.487297 0.330632 0.0498512
0.512123 0.328405 0.0464027
0.533837 0.326375 0.0432441
0.555596 0.323629 0.0395056
0.579843 0.321294 0.0340734
0.603845 0.320729 0.0271611
0.627573 0.319997 0.0216526
0.648798 0.31516 0.0182956
0.664027 0.311559 0.0179446
0.678676 0.307301 0.0177768
0.692317 0.301732 0.0167239
0.703197 0.296269 0.0150301
0.714931 0.288975 0.0131075
0.716045 0.284062 0.0121462
0.713405 0.27985 0.0117342
0.710887 0.275837 0.0112764
0.708537 0.272007 0.0107424
0.70631 0.268421 0.0103151
0.704219 0.265141 0.0099794
0.702342 0.262165 0.00967422
0.700664 0.259525 0.00941482
0.699184 0.257176 0.00917067
0.366369 0.342779 0.0717174
0.365774 0.34226 0.0715953
0.365179 0.341726 0.071458
0.364569 0.341176 0.0713207
0.363912 0.340597 0.0711681
0.363149 0.339895 0.0710002
0.362234 0.339071 0.0707866
0.361151 0.338109 0.0705425
0.388113 0.341527 0.0716106
0.422873 0.348241 0.0733349
0.457877 0.354269 0.0712139
0.492592 0.358633 0.0647898
0.531579 0.362966 0.0573434
0.553643 0.362158 0.0556649
0.574197 0.359976 0.0530709
0.594995 0.356893 0.0492866
0.61767 0.355184 0.0428321
0.641978 0.353445 0.0348363
0.665446 0.35198 0.0297246
0.681971 0.347417 0.0270695
0.696406 0.34345 0.025864
0.710674 0.338155 0.0247196
0.72285 0.332555 0.0236667
0.735302 0.326192 0.0208438
0.738857 0.320348 0.0190585
0.736477 0.316579 0.0180514
0.734234 0.312993 0.0170901
0.732128 0.309651 0.0161898
0.730236 0.306584 0.0153658
0.728588 0.303899 0.0146029
0.727108 0.301457 0.0139315
0.725765 0.299351 0.0137179
0.724575 0.29749 0.0135348
0.40267 0.37499 0.0815137
0.402152 0.374533 0.0813611
0.401617 0.37406 0.0811933
0.401068 0.373587 0.0810254
0.400488 0.373068 0.0808576
0.399802 0.372457 0.0806439
0.398978 0.371725 0.0803998
0.398032 0.370871 0.0801099
0.401419 0.37055 0.0801251
0.435065 0.375067 0.0824598
0.466941 0.38117 0.0844434
0.500206 0.386038 0.0807813
0.534676 0.390311 0.0744945
0.570306 0.395468 0.0677195
0.591028 0.394202 0.0665904
0.611063 0.391684 0.0637522
0.632319 0.388235 0.057908
0.655116 0.386191 0.0504921
0.678294 0.38407 0.0428168
0.69749 0.380926 0.0370336
0.713008 0.376837 0.0351873
0.727352 0.372625 0.0341344
0.74049 0.367224 0.0332189
0.752148 0.360067 0.0304875
0.759258 0.353872 0.0278172
0.757427 0.350896 0.0270542
0.755703 0.348089 0.0263218
0.754101 0.34548 0.0256504
0.752651 0.343084 0.0250248
0.751324 0.340902 0.0244602
0.750134 0.338933 0.0239567
0.749081 0.337209 0.0234989
0.74815 0.335668 0.0230869
0.437644 0.40322 0.0926375
0.437201 0.402838 0.0925002
0.436744 0.402472 0.0923476
0.436271 0.40209 0.092195
0.435767 0.401679 0.0920272
0.435172 0.40119 0.0918288
0.43447 0.400626 0.0915999
0.433646 0.399939 0.0913252
0.43267 0.399161 0.0910048
0.446693 0.401175 0.0919966
0.477394 0.407385 0.0943923
0.508766 0.411536 0.096849
0.540764 0.415564 0.0925765
0.574136 0.419852 0.0868238
0.608286 0.425254 0.0790417
0.62855 0.423682 0.0780041
0.647807 0.419898 0.0736553
0.66804 0.416693 0.0675975
0.690318 0.414527 0.059678
0.709682 0.412055 0.0523995
0.727291 0.408637 0.0463111
0.741787 0.404791 0.0453803
0.755169 0.399969 0.0437476
0.767666 0.394293 0.0422217
0.777752 0.386603 0.0387579
0.776333 0.383932 0.0377356
0.77499 0.38143 0.036759
0.773739 0.379095 0.0358434
0.77261 0.376959 0.0350195
0.771588 0.375021 0.0342565
0.770672 0.373281 0.0335851
0.769863 0.37174 0.033051
0.769162 0.370398 0.032578
0.469444 0.431159 0.104295
0.469093 0.430854 0.104112
0.468742 0.430533 0.103929
0.468391 0.430228 0.103746
0.468009 0.429877 0.103548
0.467552 0.429465 0.103304
0.467018 0.428992 0.103029
0.466377 0.428428 0.102693
0.465614 0.427771 0.102358
0.464698 0.426978 0.102052
0.48809 0.431937 0.104036
0.518074 0.436332 0.107393
0.547967 0.439887 0.108736
0.579599 0.443763 0.105562
0.611704 0.447929 0.0996567
0.644877 0.452857 0.0915694
0.664225 0.449882 0.0888685
0.683055 0.446616 0.0839551
0.70248 0.443397 0.0773022
0.722164 0.441306 0.0682231
0.739239 0.438544 0.0615091
0.754986 0.434928 0.0577249
0.768475 0.430564 0.055848
0.78117 0.424994 0.0536965
0.793286 0.418982 0.0512245
0.79411 0.415915 0.0499733
0.792996 0.414023 0.0491951
0.791913 0.412146 0.0484474
0.790845 0.410269 0.0477455
0.789883 0.40856 0.0471046
0.789014 0.407034 0.04654
0.788266 0.405692 0.0460212
0.787594 0.404501 0.0455787
0.498527 0.457176 0.118624
0.498192 0.456901 0.118502
0.497856 0.456626 0.118364
0.49752 0.456336 0.118227
0.497154 0.456046 0.118074
0.496727 0.45568 0.117906
0.496208 0.455268 0.117693
0.495613 0.454765 0.117449
0.494926 0.454185 0.117159
0.494133 0.453468 0.116777
0.497353 0.453513 0.116884
0.526101 0.457725 0.120668
0.55555 0.462806 0.124361
0.584054 0.466896 0.124041
0.61474 0.47039 0.119951
0.646464 0.473991 0.113634
0.679026 0.477394 0.102617
0.698405 0.475181 0.0999161
0.716564 0.471916 0.0950027
0.733166 0.467781 0.0872816
0.750607 0.465644 0.0796521
0.767163 0.463004 0.0726787
0.780957 0.458595 0.0715038
0.793164 0.453147 0.069337
0.805508 0.446265 0.0659342
0.810162 0.442481 0.0636301
0.80914 0.440833 0.0625925
0.808225 0.439307 0.0616312
0.807355 0.437903 0.0607309
0.806607 0.436652 0.0599374
0.80592 0.435523 0.0592203
0.805325 0.434531 0.0585946
0.804807 0.433661 0.0580301
0.527901 0.482765 0.130526
0.527611 0.482506 0.130404
0.527306 0.482231 0.130282
0.526986 0.481971 0.130175
0.52665 0.481682 0.130037
0.526268 0.481331 0.129885
0.525795 0.480934 0.129702
0.525261 0.480461 0.129488
0.52462 0.479896 0.129244
0.523873 0.479255 0.128954
0.523018 0.478508 0.128618
0.53608 0.480858 0.130419
0.563684 0.484779 0.134783
0.591531 0.488899 0.138033
0.618906 0.492546 0.138094
0.648753 0.496025 0.134371
0.679255 0.499535 0.127749
0.713069 0.5028 0.11664
0.731472 0.500465 0.11426
0.746639 0.496361 0.108217
0.762356 0.492195 0.0993515
0.778485 0.489967 0.0927443
0.794202 0.486686 0.0884413
0.806378 0.481682 0.0851301
0.818418 0.474784 0.0818799
0.827314 0.468894 0.0786297
0.826246 0.467308 0.0777905
0.825269 0.465843 0.0770123
0.824369 0.464515 0.0762951
0.82356 0.46331 0.075639
0.822858 0.462242 0.0750591
0.822217 0.461295 0.0745403
0.821668 0.460472 0.0740978
0.553292 0.505058 0.141726
0.553063 0.50486 0.141634
0.552834 0.504646 0.141527
0.55259 0.504448 0.141421
0.552331 0.504219 0.141314
0.552026 0.50396 0.141176
0.551675 0.503639 0.141009
0.551247 0.503273 0.140826
0.550759 0.502846 0.140612
0.550195 0.502358 0.140352
0.549538 0.501778 0.140047
0.548775 0.501106 0.139712
0.571786 0.505562 0.145037
0.59852 0.509071 0.149813
0.625193 0.512734 0.151141
0.652049 0.516274 0.150988
0.680873 0.519783 0.147585
0.712139 0.523293 0.140719
0.744518 0.526284 0.130053
0.759686 0.523293 0.127016
0.774731 0.519173 0.119173
0.789883 0.515023 0.110796
0.806699 0.512444 0.104479
0.818708 0.508156 0.100404
0.830594 0.502068 0.0957504
0.842252 0.49456 0.0920119
0.842878 0.492454 0.090898
0.842191 0.491341 0.0902876
0.841566 0.490349 0.0897078
0.841016 0.489448 0.089189
0.840513 0.488655 0.088716
0.84007 0.487968 0.088304
0.839689 0.487358 0.0879377
0.57612 0.525475 0.152682
0.575921 0.525292 0.152621
0.575738 0.525109 0.152544
0.575555 0.524926 0.152468
0.575341 0.524712 0.152392
0.575113 0.524483 0.1523
0.574823 0.524193 0.152193
0.574487 0.523873 0.152056
0.574105 0.523476 0.151919
0.573632 0.523033 0.151736
0.573114 0.522515 0.151537
0.572519 0.52192 0.151293
0.578668 0.52282 0.152911
0.604776 0.527413 0.160128
0.630838 0.531014 0.163287
0.656962 0.534691 0.163058
0.682628 0.537926 0.162844
0.712703 0.54139 0.159258
0.742229 0.544564 0.15285
0.770153 0.546822 0.141863
0.78558 0.543755 0.137377
0.800977 0.539788 0.129183
0.816114 0.535607 0.121889
0.829435 0.531533 0.116457
0.840391 0.526284 0.111543
0.85211 0.518944 0.105669
0.857099 0.514733 0.102708
0.856367 0.513619 0.102159
0.85568 0.512612 0.101656
0.855085 0.511696 0.101198
0.854551 0.510887 0.100786
0.854078 0.51017 0.10042
0.853666 0.509544 0.100099
0.596429 0.545007 0.159777
0.596231 0.544823 0.159701
0.596017 0.54464 0.159625
0.595804 0.544457 0.159533
0.59559 0.544259 0.159442
0.595315 0.54403 0.159335
0.59501 0.543755 0.159213
0.594644 0.543435 0.15906
0.594217 0.543053 0.158892
0.593713 0.542611 0.158679
0.593164 0.542107 0.15848
0.592538 0.541527 0.158267
0.591821 0.540856 0.158038
0.609155 0.544121 0.162768
0.636347 0.548959 0.170184
0.661097 0.552728 0.172824
0.685725 0.556374 0.174044
0.713115 0.558602 0.173877
0.741604 0.561502 0.169863
0.769375 0.56379 0.16199
0.796384 0.565621 0.150851
0.811704 0.56257 0.145571
0.826429 0.558587 0.137606
0.839063 0.553948 0.131365
0.849744 0.548608 0.126635
0.861524 0.541375 0.120256
0.872007 0.534127 0.114107
0.871244 0.533196 0.113573
0.870558 0.532341 0.113085
0.869947 0.531579 0.112657
0.869398 0.530907 0.112245
0.868925 0.530312 0.11191
0.868513 0.529778 0.111604
0.616175 0.562463 0.165515
0.615976 0.56231 0.165469
0.615793 0.562158 0.165438
0.615595 0.56199 0.165393
0.615396 0.561822 0.165347
0.615152 0.561624 0.165286
0.614862 0.561379 0.165225
0.614527 0.561105 0.165148
0.614145 0.560784 0.165057
0.613672 0.560403 0.16495
0.613153 0.559976 0.164828
0.612543 0.559472 0.164691
0.611856 0.558892 0.164523
0.614084 0.558877 0.165148
0.640848 0.564233 0.17232
0.66688 0.569421 0.17937
0.690578 0.573159 0.18172
0.717479 0.576135 0.182269
0.743206 0.578424 0.181491
0.769665 0.580987 0.176226
0.795193 0.582589 0.167514
0.822095 0.583322 0.157
0.837491 0.580346 0.151385
0.84979 0.576089 0.144488
0.861265 0.570474 0.13901
0.872236 0.563592 0.132692
0.883879 0.555673 0.124865
0.887388 0.552254 0.121752
0.886656 0.551431 0.121462
0.886015 0.550698 0.121202
0.885451 0.550057 0.120958
0.884947 0.549477 0.120745
0.884489 0.548989 0.120577
0.634241 0.579278 0.167529
0.634089 0.57911 0.167529
0.633936 0.578958 0.167544
0.633783 0.57879 0.167544
0.633616 0.578622 0.167544
0.633417 0.578424 0.167544
0.633188 0.57818 0.167544
0.632914 0.577905 0.167544
0.632593 0.577569 0.167544
0.632227 0.577188 0.167544
0.6318 0.576745 0.167529
0.631296 0.576242 0.167514
0.630747 0.575662 0.167514
0.630121 0.575021 0.167483
0.645624 0.578241 0.171664
0.671855 0.584558 0.179446
0.695918 0.588907 0.185382
0.722423 0.592432 0.188571
0.747494 0.595514 0.188449
0.770794 0.59791 0.187182
0.794858 0.599542 0.181765
0.820432 0.600656 0.172763
0.847837 0.600931 0.162203
0.860945 0.597971 0.158297
0.873121 0.592767 0.152163
0.884016 0.58613 0.145861
0.894408 0.578286 0.138247
0.903792 0.571893 0.130968
0.903075 0.571084 0.130556
0.902403 0.570352 0.130144
0.901839 0.569711 0.129809
0.90132 0.569131 0.129488
0.900847 0.568582 0.129259
0.647837 0.594919 0.166339
0.647745 0.594781 0.166369
0.647639 0.594629 0.1664
0.647532 0.594491 0.16643
0.647425 0.594339 0.166461
0.647303 0.594156 0.166491
0.64715 0.593942 0.166537
0.646983 0.593698 0.166583
0.646769 0.593408 0.166644
0.64654 0.593072 0.166705
0.64625 0.592691 0.166766
0.645945 0.592233 0.166842
0.645579 0.59173 0.166918
0.645167 0.591165 0.16701
0.648112 0.591424 0.167895
0.674342 0.597696 0.176104
0.699428 0.603769 0.183703
0.725475 0.608637 0.192264
0.750118 0.612573 0.194675
0.773465 0.614771 0.194095
0.795438 0.616083 0.19411
0.819715 0.617227 0.188296
0.84535 0.618357 0.179721
0.869795 0.618387 0.170077
0.883864 0.614527 0.166995
0.894453 0.608713 0.160388
0.904906 0.601068 0.151537
0.916472 0.592691 0.141482
0.918227 0.590494 0.138842
0.917632 0.589624 0.138552
0.917082 0.588861 0.138293
0.916609 0.58819 0.138064
0.916213 0.58761 0.13785
0.658 0.609812 0.161959
0.657908 0.609659 0.162066
0.657816 0.609491 0.162158
0.657725 0.609339 0.162249
0.657618 0.609171 0.162356
0.657481 0.608972 0.162463
0.657343 0.608743 0.1626
0.657176 0.608469 0.162768
0.656977 0.608148 0.162951
0.656748 0.607767 0.163165
0.656489 0.60734 0.163409
0.656153 0.606867 0.163592
0.655787 0.606302 0.16376
0.65536 0.605692 0.163943
0.654871 0.60499 0.164141
0.674189 0.609522 0.170901
0.702434 0.616236 0.180529
0.727916 0.621515 0.189258
0.752422 0.626993 0.196475
0.776486 0.63154 0.200183
0.797894 0.633112 0.200229
0.820798 0.634775 0.198199
0.845228 0.636316 0.193011
0.869841 0.6365 0.185016
0.893675 0.635386 0.176471
0.905531 0.631357 0.172732
0.916091 0.624491 0.163577
0.926726 0.61619 0.153384
0.934859 0.609659 0.146075
0.934096 0.608835 0.145754
0.93341 0.608103 0.145495
0.932815 0.607446 0.145266
0.93228 0.606867 0.145068
0.662745 0.615427 0.158053
0.662745 0.615427 0.158053
0.662745 0.615427 0.158053
0.662745 0.615427 0.158053
0.662745 0.615427 0.158053
0.662745 0.615427 0.158053
0.662745 0.615427 0.158053
0.662745 0.615427 0.158053
0.662745 0.615427 0.158053
0.662745 0.615427 0.158053
0.662745 0.615427 0.158053
0.662745 0.615427 0.158053
0.662745 0.615427 0.158053
0.662745 0.615427 0.158053
0.662745 0.615427 0.158053
0.670634 0.617807 0.160922
0.700877 0.62594 0.171283
0.729107 0.633326 0.182528
0.753964 0.639048 0.191272
0.777951 0.644388 0.198245
0.800351 0.649409 0.205234
0.822583 0.651087 0.204486
0.845701 0.653117 0.202136
0.868605 0.654108 0.197818
0.892195 0.654353 0.190387
0.913924 0.653391 0.18201
0.926253 0.648875 0.176822
0.936934 0.641382 0.166278
0.94818 0.632563 0.155306
0.94876 0.630426 0.154147
0.948196 0.62948 0.15378
0.947707 0.628672 0.15346
0.947265 0.627955 0.15317
0.662745 0.615427 0.158053
0.662745 0.615427 0.158053
0.662745 0.615427 0.158053
0.662745 0.615427 0.158053
0.662745 0.615427 0.158053
0.662745 0.615427 0.158053
0.662745 0.615427 0.158053
0.662745 0.615427 0.158053
0.662745 0.615427 0.158053
0.662745 0.615427 0.158053
0.662745 0.615427 0.158053
