public/luts/SonyProSW-LUT3_REC709.cube
TITLE "Generated by Resolve"
LUT_3D_SIZE 9
0.0448768 0.0508888 0.0543374
0.109682 0.0564736 0.05037
0.224018 0.0592203 0.0391089
0.319036 0.0653849 0.0287327
0.421973 0.081178 0.0217594
0.526787 0.103883 0.0134432
0.578592 0.112474 0.0117952
0.578592 0.112474 0.0117952
0.578592 0.112474 0.0117952
0.0722972 0.0888838 0.0541848
0.115099 0.0930648 0.0502785
0.239521 0.0924392 0.0373999
0.34464 0.0890516 0.0256657
0.41593 0.0801251 0.0220798
0.522011 0.102983 0.0136416
0.578592 0.112474 0.0117952
0.578592 0.112474 0.0117952
0.578592 0.112474 0.0117952
0.209506 0.208545 0.052079
0.204471 0.204562 0.0519417
0.337697 0.223896 0.0395361
0.44509 0.216953 0.0252537
0.543816 0.208957 0.011017
0.607828 0.194888 0.00825513
0.634165 0.168154 0.00732433
0.609659 0.142443 0.00921645
0.592584 0.124559 0.010605
0.366369 0.342779 0.0717174
0.363912 0.340597 0.0711681
0.388113 0.341527 0.0716106
0.531579 0.362966 0.0573434
0.61767 0.355184 0.0428321
0.696406 0.34345 0.025864
0.738857 0.320348 0.0190585
0.730236 0.306584 0.0153658
0.724575 0.29749 0.0135348
0.498527 0.457176 0.118624
0.497154 0.456046 0.118074
0.494926 0.454185 0.117159
0.55555 0.462806 0.124361
0.679026 0.477394 0.102617
0.750607 0.465644 0.0796521
0.805508 0.446265 0.0659342
0.807355 0.437903 0.0607309
0.804807 0.433661 0.0580301
0.596429 0.545007 0.159777
0.59559 0.544259 0.159442
0.594217 0.543053 0.158892
0.591821 0.540856 0.158038
0.685725 0.556374 0.174044
0.796384 0.565621 0.150851
0.849744 0.548608 0.126635
0.870558 0.532341 0.113085
0.868513 0.529778 0.111604
0.658 0.609812 0.161959
0.657618 0.609171 0.162356
0.656977 0.608148 0.162951
0.655787 0.606302 0.16376
0.702434 0.616236 0.180529
0.797894 0.633112 0.200229
0.893675 0.635386 0.176471
0.934859 0.609659 0.146075
0.93228 0.606867 0.145068
0.662745 0.615427 0.158053
0.662745 0.615427 0.158053
0.662745 0.615427 0.158053
0.662745 0.615427 0.158053
0.672267 0.61828 0.161501
0.784146 0.646998 0.199939
0.876097 0.661555 0.199878
0.945861 0.657771 0.173342
0.960082 0.647959 0.160281
0.662745 0.615427 0.158053
0.662745 0.615427 0.158053
0.662745 0.615427 0.158053
0.662745 0.615427 0.158053
0.662745 0.615427 0.158053
0.76672 0.642252 0.194858
0.858854 0.659739 0.202426
0.935409 0.662852 0.181537
0.960082 0.647959 0.160281
0.0397498 0.0554818 0.0857862
0.087068 0.0603494 0.0931563
0.197299 0.0610208 0.0788128
0.295521 0.0546731 0.0458228
0.417899 0.0802167 0.0270695
0.526375 0.103807 0.0134585
0.578592 0.112474 0.0117952
0.578592 0.112474 0.0117952
0.578592 0.112474 0.0117952
0.0482795 0.0869306 0.0826734
0.0814984 0.0804303 0.0782483
0.210025 0.0791333 0.0585336
0.307088 0.0657054 0.0363317
0.415381 0.0800336 0.0221103
0.521599 0.102907 0.0136721
0.578592 0.112474 0.0117952
0.578592 0.112474 0.0117952
0.578592 0.112474 0.0117952
0.190524 0.197635 0.0585794
0.187594 0.192554 0.0538643
0.325795 0.211536 0.0377966
0.433845 0.202976 0.0236667
0.532891 0.195956 0.0113375
0.596857 0.180636 0.00791943
0.620829 0.153994 0.0083772
0.59556 0.127352 0.0103609
0.578592 0.112474 0.0117952
0.358953 0.336156 0.0700542
0.356435 0.333898 0.0694896
0.379126 0.334524 0.069398
0.527398 0.356573 0.0542458
0.613092 0.348165 0.0399634
0.692027 0.336309 0.0239567
0.734066 0.312749 0.0170291
0.725444 0.298878 0.0136721
0.719539 0.28957 0.0127108
0.494438 0.453742 0.11693
0.493111 0.452537 0.116274
0.490944 0.450553 0.115221
0.551553 0.459098 0.12195
0.676631 0.474159 0.100298
0.748135 0.462089 0.0771496
0.803128 0.442802 0.0637827
0.805188 0.434302 0.0584573
0.802625 0.429999 0.0556802
0.593912 0.542779 0.158755
0.593088 0.542031 0.15845
0.591775 0.540825 0.158022
0.589441 0.538613 0.157259
0.683574 0.553979 0.172824
0.794903 0.56347 0.149187
0.847898 0.546365 0.125307
0.868803 0.530175 0.111818
0.866773 0.527611 0.110307
0.65684 0.607904 0.163088
0.656443 0.607294 0.163439
0.655756 0.606287 0.163775
0.654505 0.604471 0.164279
0.700221 0.614267 0.180529
0.796231 0.630823 0.199557
0.892103 0.633097 0.17499
0.932677 0.607294 0.14522
0.930159 0.604517 0.144228
0.662745 0.615427 0.158053
0.662745 0.615427 0.158053
0.662745 0.615427 0.158053
0.662745 0.615427 0.158053
0.671611 0.618097 0.161273
0.783719 0.646891 0.199802
0.875639 0.661524 0.2
0.945586 0.657938 0.173632
0.960082 0.647959 0.160281
0.662745 0.615427 0.158053
0.662745 0.615427 0.158053
0.662745 0.615427 0.158053
0.662745 0.615427 0.158053
0.662745 0.615427 0.158053
0.766278 0.642145 0.194736
0.858442 0.659693 0.202472
0.935225 0.662959 0.181537
0.960082 0.647959 0.160281
0.030808 0.071397 0.159335
0.0668803 0.0774395 0.163867
0.164141 0.0891432 0.177493
0.268666 0.0863813 0.168063
0.368399 0.0832837 0.144915
0.461479 0.0804456 0.102968
0.504616 0.0733501 0.070634
0.511025 0.0732738 0.0522316
0.523125 0.0822919 0.0468757
0.0304875 0.0749828 0.155032
0.0481117 0.0742199 0.15169
0.148135 0.0830549 0.170703
0.260609 0.083711 0.160006
0.363302 0.0791028 0.134737
0.45687 0.0763409 0.0912032
0.50988 0.0731212 0.0544442
0.527352 0.0855268 0.0450294
0.538918 0.0945449 0.0406043
0.101488 0.209689 0.187304
0.0981765 0.205234 0.184817
0.220142 0.205371 0.182895
0.332387 0.195727 0.15845
0.43032 0.179431 0.121416
0.518914 0.15024 0.0789197
0.561807 0.119554 0.0514076
0.552911 0.104707 0.0351568
0.561563 0.106691 0.0258335
0.286503 0.328389 0.166217
0.285786 0.326101 0.164172
0.308537 0.327596 0.163043
0.463416 0.353567 0.148989
0.565148 0.343053 0.105165
0.662165 0.324971 0.0556039
0.718227 0.301396 0.028687
0.71722 0.285924 0.0123445
0.710979 0.275959 0.0113069
0.477623 0.448447 0.131304
0.47805 0.447105 0.127565
0.478874 0.444892 0.121263
0.54493 0.452979 0.117937
0.67155 0.468513 0.0975052
0.744121 0.456184 0.0729381
0.799222 0.437064 0.0601663
0.801572 0.428305 0.0550088
0.798795 0.423743 0.0531624
0.58999 0.539147 0.157427
0.589212 0.538399 0.157183
0.587961 0.537163 0.156802
0.585718 0.534951 0.156069
0.680095 0.550088 0.170779
0.792538 0.55996 0.14638
0.844953 0.542702 0.123095
0.865995 0.526635 0.109728
0.863981 0.524056 0.108171
0.65481 0.604898 0.164157
0.654383 0.604288 0.164324
0.653696 0.603296 0.164569
0.652476 0.601526 0.164965
0.69662 0.611093 0.180407
0.793561 0.627146 0.198413
0.889647 0.629435 0.172564
0.929198 0.603464 0.143832
0.926741 0.600748 0.142794
0.662745 0.615427 0.158053
0.662745 0.615427 0.158053
0.662745 0.615427 0.158053
0.662745 0.615427 0.158053
0.670558 0.617792 0.160891
0.783032 0.646693 0.199557
0.874907 0.661448 0.200122
0.945144 0.658198 0.17409
0.960082 0.647959 0.160281
0.662745 0.615427 0.158053
0.662745 0.615427 0.158053
0.662745 0.615427 0.158053
0.662745 0.615427 0.158053
0.662745 0.615427 0.158053
0.765545 0.641962 0.194537
0.857771 0.659617 0.202564
0.934951 0.663127 0.181521
0.960082 0.647959 0.160281
0.0283513 0.108431 0.228916
0.0635386 0.113634 0.230182
0.141848 0.125063 0.247089
0.2589 0.139254 0.260502
0.362158 0.131411 0.252979
0.46424 0.124697 0.233127
0.516701 0.121294 0.219089
0.516121 0.117754 0.212024
0.515694 0.115328 0.207141
0.0284428 0.106325 0.225406
0.0396887 0.106355 0.224811
0.128435 0.121614 0.241138
0.249073 0.134035 0.256001
0.355978 0.129 0.248569
0.459403 0.121706 0.228031
0.516182 0.118135 0.212802
0.515541 0.114458 0.205356
0.515099 0.112062 0.200153
0.0514382 0.187015 0.253361
0.0493629 0.182223 0.251377
0.150469 0.185824 0.25507
0.270481 0.188296 0.267948
0.369467 0.16376 0.249042
0.454841 0.121981 0.220279
0.515251 0.112764 0.201816
0.514549 0.10927 0.193469
0.514107 0.10692 0.187701
0.184405 0.336553 0.295293
0.182101 0.334279 0.293614
0.198764 0.331701 0.291966
0.363699 0.338293 0.29807
0.458061 0.328511 0.273655
0.550927 0.309163 0.241779
0.619898 0.28368 0.207645
0.611902 0.26183 0.19115
0.605615 0.245121 0.17911
0.360555 0.441901 0.285145
0.359686 0.440558 0.283192
0.358282 0.438346 0.279957
0.438346 0.444999 0.291859
0.564691 0.465782 0.284901
0.655451 0.454047 0.244297
0.730175 0.435569 0.203342
0.739086 0.425086 0.186435
0.738262 0.419745 0.176547
0.524071 0.532982 0.265614
0.524041 0.532235 0.263676
0.523995 0.531014 0.260487
0.52398 0.528801 0.254582
0.625788 0.547326 0.26067
0.744732 0.557488 0.23032
0.815366 0.541009 0.182361
0.843809 0.525399 0.153903
0.844373 0.521859 0.143694
0.631876 0.600687 0.198215
0.632456 0.600031 0.196597
0.633433 0.598947 0.193896
0.635309 0.597009 0.188815
0.681788 0.60592 0.194491
0.788144 0.620752 0.197848
0.883528 0.622614 0.170489
0.923171 0.596719 0.141192
0.920851 0.594079 0.140078
0.662745 0.615427 0.158053
0.662745 0.615427 0.158053
0.662745 0.615427 0.158053
0.662745 0.615427 0.158053
0.668666 0.617212 0.160204
0.781796 0.646342 0.19913
0.87361 0.661311 0.20032
0.94435 0.658625 0.174899
0.960082 0.647959 0.160281
0.662745 0.615427 0.158053
0.662745 0.615427 0.158053
0.662745 0.615427 0.158053
0.662745 0.615427 0.158053
0.662745 0.615427 0.158053
0.764233 0.641642 0.194171
0.856565 0.65948 0.202731
0.934432 0.663447 0.181476
0.960082 0.647959 0.160281
0.0314946 0.155825 0.303441
0.0469062 0.156909 0.301289
0.127413 0.171313 0.313909
0.232715 0.185992 0.326345
0.360723 0.20264 0.339544
0.465232 0.191287 0.331136
0.524651 0.18056 0.322896
0.524224 0.177951 0.31928
0.524056 0.176471 0.316854
0.031693 0.154238 0.30103
0.0317845 0.153903 0.300511
0.114717 0.167971 0.309163
0.222797 0.183001 0.32285
0.353521 0.198871 0.336294
0.460212 0.189441 0.328466
0.524254 0.178195 0.319661
0.523995 0.175937 0.315984
0.523827 0.174426 0.313527
0.0330358 0.166049 0.303304
0.0325475 0.161608 0.301076
0.0956436 0.166262 0.301915
0.20531 0.177996 0.317159
0.342153 0.192981 0.331426
0.452033 0.186313 0.324025
0.523888 0.174899 0.31429
0.523629 0.17258 0.310521
0.523476 0.171038 0.307988
0.102632 0.312123 0.348882
0.100771 0.309438 0.347585
0.104448 0.305638 0.345815
0.274525 0.31487 0.360647
0.401541 0.318151 0.37055
0.500725 0.292714 0.34992
0.575418 0.260655 0.327092
0.566644 0.241825 0.319493
0.560021 0.228519 0.314
0.272877 0.445243 0.392035
0.271641 0.443992 0.39115
0.269596 0.441947 0.389731
0.342916 0.441596 0.39588
0.481773 0.451301 0.401617
0.567391 0.440116 0.377172
0.651591 0.424262 0.351537
0.660838 0.413504 0.3411
0.658518 0.406287 0.335164
0.412451 0.529671 0.395529
0.411917 0.528817 0.394705
0.411032 0.527413 0.393347
0.409415 0.52488 0.39086
0.539651 0.53724 0.4047
0.654505 0.554894 0.39942
0.734051 0.541863 0.363912
0.774289 0.530251 0.343267
0.772763 0.526802 0.33901
0.530556 0.596353 0.345068
0.530694 0.59559 0.345144
0.530922 0.594369 0.345251
0.53138 0.592172 0.345373
0.580377 0.601648 0.372351
0.695354 0.622995 0.382544
0.80119 0.629541 0.364157
0.866606 0.608255 0.319875
0.864561 0.604929 0.315297
0.576196 0.624323 0.319371
0.576669 0.624247 0.318288
0.577462 0.624125 0.316518
0.578912 0.623896 0.313298
0.584115 0.624353 0.308827
0.711269 0.659525 0.339971
0.817853 0.678492 0.344869
0.911208 0.682536 0.319066
0.937728 0.670192 0.290013
0.585061 0.623056 0.299977
0.585672 0.62298 0.298665
0.586664 0.622858 0.296529
0.588464 0.622644 0.292729
0.591394 0.622324 0.286595
0.701518 0.652522 0.314229
0.807141 0.673426 0.323079
0.90341 0.683268 0.300496
0.941772 0.666163 0.265736
0.0242771 0.196597 0.368521
0.0293431 0.196979 0.367636
0.0951247 0.214374 0.371984
0.193423 0.226246 0.386954
0.321019 0.244312 0.399725
0.4533 0.259998 0.41442
0.522759 0.247288 0.406912
0.522988 0.24535 0.404471
0.52314 0.244068 0.402853
0.0247654 0.19559 0.366812
0.0248722 0.195377 0.366445
0.0815137 0.206027 0.367575
0.184482 0.223651 0.384283
0.313817 0.241993 0.397009
0.447944 0.257435 0.41207
0.522957 0.245563 0.40473
0.523186 0.24361 0.402274
0.523339 0.242329 0.400641
0.0255589 0.193912 0.364004
0.0256504 0.193683 0.363638
0.0591592 0.197086 0.362402
0.168536 0.219089 0.379751
0.301549 0.238041 0.392599
0.439597 0.252903 0.408515
0.523293 0.242725 0.401144
0.523522 0.240757 0.398688
0.523674 0.23946 0.397055
0.049012 0.277958 0.390692
0.0479896 0.275212 0.389487
0.0463264 0.270649 0.387533
0.182437 0.283299 0.396323
0.312078 0.287694 0.409247
0.445762 0.286091 0.416709
0.534936 0.259358 0.400992
0.527108 0.241489 0.393881
0.524269 0.234165 0.390478
0.164218 0.421805 0.434577
0.163012 0.420294 0.433707
0.161013 0.417823 0.432273
0.218616 0.417487 0.43389
0.390799 0.4262 0.451225
0.5122 0.430655 0.460822
0.608743 0.409583 0.437263
0.624033 0.398367 0.428351
0.620737 0.392432 0.425345
0.328374 0.534829 0.475898
0.327733 0.533959 0.475334
0.326711 0.53257 0.474434
0.324636 0.530037 0.47277
0.459693 0.532555 0.487404
0.58056 0.542596 0.489586
0.661601 0.530755 0.4654
0.71133 0.520607 0.448295
0.709834 0.516396 0.4448
0.405676 0.603128 0.477958
0.405829 0.602243 0.477577
0.406088 0.600809 0.476967
0.406531 0.598245 0.475837
0.465919 0.59913 0.479072
0.621683 0.612299 0.494514
0.733074 0.625467 0.489479
0.820905 0.606744 0.447608
0.82034 0.603204 0.44448
0.438544 0.645197 0.435599
0.439445 0.645075 0.434684
0.440757 0.6448 0.433234
0.443046 0.644251 0.430594
0.446693 0.643397 0.426352
0.644297 0.673381 0.473259
0.767727 0.701015 0.481224
0.877455 0.70956 0.469398
0.916259 0.690288 0.444358
0.451774 0.642206 0.420401
0.452537 0.642023 0.419501
0.453803 0.641733 0.418006
0.456062 0.641215 0.415305
0.459709 0.640375 0.410941
0.62945 0.665843 0.459007
0.749798 0.694255 0.469413
0.862089 0.714275 0.46331
0.926833 0.698726 0.436973
0 0.214832 0.424582
0 0.214923 0.424201
0.0350652 0.22208 0.418677
0.127962 0.249989 0.434348
0.254948 0.265629 0.452125
0.395682 0.285939 0.467567
0.499336 0.295064 0.481712
0.501869 0.294697 0.480125
0.503319 0.294255 0.47892
0 0.214939 0.422751
0 0.214908 0.42237
0.026276 0.220295 0.416648
0.121813 0.248371 0.43154
0.24892 0.264073 0.449653
0.390997 0.284855 0.464973
0.501595 0.294743 0.480293
0.503578 0.293828 0.478279
0.50428 0.292622 0.476463
0 0.214649 0.419806
0 0.214603 0.419425
0.0138857 0.218051 0.41561
0.11162 0.245533 0.426719
0.238972 0.261402 0.445579
0.383825 0.282704 0.460792
0.504067 0.293004 0.477028
0.505104 0.291157 0.474296
0.505776 0.289921 0.472511
0.00103761 0.24007 0.424796
0.00106813 0.237705 0.42356
0.0011902 0.233829 0.421515
0.0970016 0.252918 0.42179
0.220096 0.257542 0.438453
0.36994 0.278477 0.452949
0.506752 0.288075 0.469871
0.507713 0.286137 0.467185
0.508278 0.284886 0.46537
0.0555581 0.381445 0.467384
0.0550088 0.379812 0.466468
0.0541238 0.377142 0.464988
0.100801 0.379324 0.465049
0.288975 0.395575 0.477195
0.432792 0.40235 0.493431
0.552422 0.402838 0.499886
0.574838 0.398199 0.491859
0.572106 0.391959 0.488563
0.189349 0.513985 0.511849
0.189319 0.5131 0.511131
0.189273 0.51165 0.509987
0.18912 0.509026 0.507927
0.331563 0.514748 0.514931
0.51043 0.524956 0.529549
0.611612 0.525856 0.531533
0.677958 0.510979 0.511452
0.675212 0.507454 0.508995
0.307515 0.608911 0.542046
0.308019 0.608103 0.541497
0.308812 0.60679 0.540581
0.310231 0.60444 0.538933
0.378958 0.60293 0.542062
0.559548 0.607248 0.562356
0.674998 0.616083 0.558068
0.771298 0.601511 0.524712
0.777111 0.596368 0.518563
0.298207 0.674647 0.514321
0.299458 0.674495 0.513985
0.301457 0.674235 0.513436
0.305638 0.671672 0.513237
0.312306 0.665705 0.513405
0.549447 0.683284 0.550149
0.714092 0.693324 0.569482
0.837125 0.705272 0.556191
0.89601 0.689433 0.533654
0.317998 0.67129 0.508003
0.319127 0.671077 0.507622
0.320958 0.670726 0.507027
0.324224 0.670115 0.505974
0.329427 0.669123 0.50428
0.52015 0.692073 0.533242
0.710445 0.712749 0.563272
0.843702 0.74699 0.562371
0.921981 0.739895 0.581308
0 0.211048 0.438849
0 0.211048 0.438849
0.0115816 0.21976 0.432349
0.0990463 0.249104 0.445609
0.216007 0.266468 0.466239
0.35819 0.286473 0.48539
0.463981 0.296727 0.501686
0.463981 0.296727 0.501686
0.463981 0.296727 0.501686
0 0.211048 0.438849
0 0.211048 0.438849
0.00283818 0.217929 0.433021
0.0914778 0.247822 0.443931
0.207721 0.265324 0.464881
0.351171 0.285466 0.484459
0.463981 0.296727 0.501686
0.463981 0.296727 0.501686
0.463981 0.296727 0.501686
0 0.211048 0.438849
0 0.211048 0.438849
0 0.214725 0.435248
0.078584 0.245747 0.441032
0.193683 0.263447 0.462654
0.339864 0.283833 0.482979
0.463981 0.296727 0.501686
0.463981 0.296727 0.501686
0.463981 0.296727 0.501686
0 0.211048 0.438849
0 0.211048 0.438849
0 0.211048 0.438849
0.0554055 0.241611 0.435477
0.168933 0.260044 0.458656
0.318746 0.280644 0.480308
0.463981 0.296727 0.501686
0.463981 0.296727 0.501686
0.463981 0.296727 0.501686
0 0.336202 0.484932
0 0.334615 0.484367
0 0.332021 0.483452
0.016846 0.336538 0.480522
0.197147 0.366857 0.49073
0.344823 0.369726 0.517006
0.476081 0.374884 0.527352
0.507774 0.368215 0.529351
0.504189 0.362554 0.52697
0.0372625 0.467842 0.537957
0.0367895 0.466743 0.537484
0.0360266 0.464973 0.536706
0.0344091 0.461677 0.535241
0.172229 0.479423 0.542046
0.414054 0.498131 0.554467
0.536767 0.499947 0.575296
0.618555 0.493706 0.576989
0.616831 0.490227 0.573632
0.105669 0.575738 0.582727
0.107454 0.575097 0.581903
0.110292 0.57406 0.58056
0.115221 0.572168 0.578149
0.187457 0.57937 0.580865
0.430716 0.592813 0.595087
0.622354 0.607324 0.605951
0.729198 0.596353 0.5832
0.740902 0.592187 0.57586
0.140108 0.671382 0.593683
0.144381 0.670359 0.593545
0.151141 0.668742 0.593317
0.162814 0.665904 0.592828
0.178698 0.661433 0.591745
0.464942 0.683528 0.616754
0.660731 0.691615 0.630976
0.80351 0.695872 0.613382
0.883558 0.692973 0.612604
0.15053 0.690776 0.57908
0.152041 0.690806 0.578271
0.154467 0.690852 0.576989
0.158801 0.690929 0.574685
0.165545 0.691005 0.571069
0.409812 0.724895 0.601022
0.647623 0.757046 0.626627
0.840146 0.780957 0.644846
0.924926 0.787427 0.668742
0 0.211048 0.438849
0 0.211048 0.438849
0.00880446 0.218967 0.43241
0.0967269 0.248722 0.445075
0.213458 0.266117 0.465827
0.356023 0.286152 0.4851
0.463981 0.296727 0.501686
0.463981 0.296727 0.501686
0.463981 0.296727 0.501686
0 0.211048 0.438849
0 0.211048 0.438849
0.00180056 0.21738 0.433402
0.0891127 0.247425 0.443397
0.205127 0.264973 0.464454
0.34902 0.285145 0.484184
0.463981 0.296727 0.501686
0.463981 0.296727 0.501686
0.463981 0.296727 0.501686
0 0.211048 0.438849
0 0.211048 0.438849
0 0.213993 0.435859
0.0760815 0.245335 0.440467
0.191135 0.263096 0.462257
0.337743 0.283513 0.482704
0.463981 0.296727 0.501686
0.463981 0.296727 0.501686
0.463981 0.296727 0.501686
0 0.211048 0.438849
0 0.211048 0.438849
0 0.211048 0.438849
0.0520485 0.240223 0.434836
0.166278 0.259693 0.458198
0.316426 0.280278 0.480049
0.462852 0.296635 0.501457
0.463981 0.296727 0.501686
0.463981 0.296727 0.501686
0 0.319066 0.478965
0 0.317403 0.478401
0 0.314748 0.47747
0.00987259 0.318212 0.473686
0.179751 0.348516 0.483711
0.330266 0.352453 0.508873
0.462531 0.358724 0.51986
0.497017 0.35111 0.522255
0.4934 0.345296 0.51989
0.0316167 0.456077 0.532769
0.0310521 0.454963 0.532265
0.0301366 0.453132 0.531472
0.0284428 0.449821 0.530022
0.158953 0.467308 0.535515
0.399954 0.486107 0.550103
0.521401 0.487144 0.572152
0.601526 0.485161 0.57966
0.597726 0.481559 0.577874
0.076936 0.559686 0.583658
0.0767529 0.558679 0.583185
0.0764324 0.557061 0.582437
0.0758373 0.554131 0.581079
0.131533 0.559762 0.584298
0.379782 0.579019 0.601389
0.588037 0.591913 0.612268
0.700038 0.581323 0.61651
0.714046 0.577447 0.608347
0.0399939 0.645899 0.624704
0.0417182 0.644617 0.624216
0.0444343 0.642588 0.623423
0.049073 0.639033 0.622019
0.054902 0.633433 0.619821
0.324758 0.674968 0.648905
0.579751 0.685817 0.67013
0.780301 0.687602 0.653468
0.890059 0.702892 0.664775
0.0328985 0.684459 0.623636
0.0328985 0.684459 0.623636
0.0328985 0.684459 0.623636
0.0328985 0.684459 0.623636
0.0328985 0.684459 0.623636
0.271717 0.74258 0.649638
0.6065 0.778408 0.695094
0.823163 0.815351 0.719921
0.93254 0.840879 0.745724
