public/luts/TH_Nordic_Greens_LUT_x33.cube
TITLE "Generated by Resolve"
LUT_3D_SIZE 5
0.00128176 0.00329595 0.00450141
0.116213 0.0519112 0.0308537
0.53724 0.137087 0.0925307
0.784436 0.264317 0.223041
0.789181 0.281163 0.256474
0.0814069 0.147356 0.13344
0.150332 0.145418 0.0985275
0.604227 0.161654 0.0307622
0.805661 0.273472 0.162448
0.812955 0.283803 0.167315
0.330907 0.615732 0.448539
0.417609 0.659312 0.444739
0.748898 0.664775 0.296986
1 0.679789 0.169986
1 0.686656 0.20528
0.519127 0.839887 0.648051
0.535012 0.838666 0.636149
0.69395 0.816144 0.476493
1 0.913588 0.480446
1 0.913603 0.451896
0.426642 0.848478 0.706386
0.43035 0.8477 0.703471
0.457511 0.842878 0.680079
0.969421 0.83566 0.283909
1 0.905318 0.401404
0.00427253 0.0269932 0.0666056
0.0940566 0.0559854 0.0773022
0.520363 0.135485 0.149248
0.774304 0.262638 0.257191
0.780438 0.280552 0.281865
0.0580453 0.110338 0.124666
0.112062 0.116594 0.117769
0.570199 0.151766 0.110201
0.786709 0.271519 0.238132
0.79118 0.28394 0.256229
0.25774 0.594629 0.465537
0.351492 0.625956 0.455146
0.749249 0.646891 0.292851
1 0.6309 0.118517
1 0.677562 0.232517
0.505821 0.841184 0.657786
0.52137 0.841062 0.651164
0.668452 0.813321 0.486
1 0.914305 0.482185
1 0.913924 0.454017
0.422248 0.849607 0.710628
0.425895 0.848875 0.707774
0.453498 0.843748 0.684627
0.970993 0.836011 0.283818
1 0.905531 0.402457
0.065919 0.101335 0.327657
0.154559 0.102876 0.317388
0.485115 0.176501 0.325536
0.750408 0.29836 0.39881
0.756298 0.315282 0.42266
0 0.101091 0.328817
0.102892 0.104784 0.341085
0.531106 0.201266 0.35436
0.754101 0.312444 0.421118
0.757687 0.327871 0.448661
0.185321 0.613703 0.605585
0.198398 0.643565 0.633234
0.642908 0.579904 0.503685
0.852827 0.443763 0.410788
0.848951 0.449348 0.431495
0.412253 0.857359 0.734386
0.425788 0.859312 0.737224
0.527474 0.868116 0.733364
1 0.917815 0.514
1 0.916442 0.476112
0.385077 0.860182 0.744869
0.389227 0.859144 0.741863
0.420706 0.852049 0.718669
0.984115 0.839002 0.282597
1 0.907164 0.410346
0.167666 0.153079 0.464973
0.214435 0.159457 0.465766
0.470085 0.197391 0.465812
0.736294 0.357092 0.561944
0.729564 0.349386 0.559243
0.102861 0.144701 0.462165
0.166903 0.152712 0.464347
0.502281 0.210697 0.475715
0.743526 0.368399 0.571099
0.730755 0.351003 0.56025
0.134096 0.576547 0.733257
0.135592 0.583658 0.743084
0.506722 0.437675 0.626703
0.800839 0.460136 0.615686
0.74316 0.367849 0.570794
0.409796 0.947723 0.966766
0.422538 0.94583 0.963821
0.493553 0.929824 0.933516
1 0.933608 0.861372
1 0.898604 0.826642
0.284062 0.931823 0.976211
0.284062 0.931823 0.976211
0.284199 0.93196 0.976318
0.585824 0.917174 0.890501
1 0.93727 0.60676
0.185855 0.158083 0.47361
0.22797 0.165545 0.474861
0.480369 0.205356 0.480293
0.740551 0.364324 0.568582
0.746059 0.372641 0.573129
0.119554 0.147723 0.468788
0.182895 0.157656 0.473274
0.512047 0.212772 0.4813
0.745846 0.372335 0.572946
0.749874 0.379126 0.576181
0.133776 0.585107 0.761318
0.140414 0.600366 0.772519
0.534951 0.539528 0.678584
0.77615 0.420218 0.602853
0.850401 0.55903 0.67921
0.405936 0.951629 0.973754
0.423224 0.948531 0.968917
0.496696 0.920821 0.933303
0.985656 0.904967 0.858869
1 0.911467 0.864393
0.327291 0.95198 0.988525
0.328344 0.952285 0.988647
0.339208 0.954299 0.988434
0.894362 0.955352 0.908507
1 0.989822 0.929015
