public/luts/TH_Nordic_Greens_LUT_x33.cube
TITLE "Generated by Resolve"
LUT_3D_SIZE 33
0.00128176 0.00329595 0.00450141
0.00128176 0.00329595 0.00450141
0.00389105 0.00494392 0.00535592
0.0227665 0.0149233 0.0104067
0.0455482 0.0226749 0.015259
0.0629435 0.0285039 0.0198215
0.0769055 0.0348669 0.0235294
0.0940719 0.0434272 0.0273899
0.116213 0.0519112 0.0308537
0.148577 0.0585794 0.0339666
0.186526 0.0661173 0.0382696
0.229923 0.0750286 0.0429236
0.277028 0.0860151 0.0514992
0.333455 0.0957351 0.0612497
0.398428 0.105714 0.0695964
0.468864 0.119005 0.0783398
0.53724 0.137087 0.0925307
0.597116 0.159915 0.109438
0.65565 0.181994 0.128038
0.707546 0.204013 0.14757
0.747127 0.224948 0.175448
0.776806 0.245731 0.193347
0.780652 0.25362 0.202609
0.78294 0.25977 0.213718
0.784436 0.264317 0.223041
0.785138 0.26833 0.234211
0.785931 0.271366 0.241321
0.786816 0.273976 0.245441
0.787778 0.27602 0.247654
0.788403 0.277745 0.250187
0.788235 0.279042 0.254063
0.789334 0.280293 0.253681
0.789181 0.281163 0.256474
0.00128176 0.00329595 0.00450141
0.00128176 0.00329595 0.00450141
0.00128176 0.00329595 0.00450141
0.011841 0.0101625 0.00791943
0.0328527 0.0191043 0.0108949
0.0543069 0.0258946 0.0146334
0.0722515 0.0319829 0.0187839
0.091249 0.0420386 0.0240482
0.115373 0.0512703 0.0283513
0.147662 0.0582895 0.0303349
0.186557 0.0659342 0.0325017
0.230259 0.074876 0.0369879
0.276967 0.0857557 0.044831
0.3355 0.0959335 0.0574655
0.400656 0.106172 0.0658427
0.469245 0.119127 0.0724804
0.537743 0.137331 0.0850843
0.597513 0.15996 0.102541
0.655833 0.182055 0.121462
0.707973 0.203998 0.140993
0.748012 0.225147 0.171435
0.777829 0.246326 0.190936
0.781659 0.254154 0.200473
0.784665 0.260533 0.208408
0.785962 0.265309 0.21944
0.786984 0.269123 0.228336
0.78764 0.272068 0.235706
0.788373 0.27454 0.241047
0.78909 0.27657 0.244892
0.789441 0.278126 0.247868
0.789792 0.279454 0.250126
0.790082 0.280537 0.251865
0.790539 0.281514 0.252659
0.00128176 0.00329595 0.00450141
0.00128176 0.00329595 0.00450141
0.00128176 0.00329595 0.00450141
0.00567636 0.00689708 0.00650034
0.020798 0.0162661 0.0113222
0.0403906 0.0235599 0.0140383
0.0608225 0.0302434 0.017792
0.0843519 0.0402228 0.0219883
0.111727 0.0500649 0.0246738
0.147997 0.057908 0.0265812
0.187716 0.0661784 0.0285191
0.231998 0.075349 0.0324865
0.279835 0.086244 0.0404974
0.336324 0.0960708 0.0520485
0.401679 0.106355 0.0608682
0.474189 0.120516 0.0698711
0.543175 0.139315 0.08336
0.602335 0.161975 0.101167
0.66038 0.184161 0.120928
0.712337 0.205951 0.139818
0.751888 0.227054 0.169299
0.779141 0.247547 0.189822
0.783047 0.255604 0.199741
0.785977 0.26183 0.207553
0.787778 0.266667 0.215869
0.788602 0.270268 0.224857
0.789319 0.273167 0.2318
0.789807 0.27541 0.237507
0.790417 0.277333 0.241489
0.790463 0.278645 0.245777
0.790997 0.280018 0.24741
0.791196 0.281041 0.249134
0.791806 0.282124 0.249577
0.0129854 0.0256046 0.0211795
0.0111849 0.0207065 0.016083
0.0109712 0.0168612 0.0134279
0.00851453 0.011841 0.00996414
0.0119631 0.0126192 0.0100862
0.0293889 0.021561 0.0144045
0.0484779 0.0283665 0.0174258
0.0766613 0.0381628 0.0229343
0.104646 0.0504311 0.0264134
0.143969 0.0586862 0.0243229
0.188891 0.0664225 0.0235752
0.234821 0.0761273 0.0259098
0.283955 0.087068 0.0337224
0.341024 0.0970474 0.045243
0.407263 0.107378 0.0563363
0.481422 0.122469 0.0658732
0.550927 0.142153 0.0791485
0.609522 0.164858 0.0977951
0.667216 0.186862 0.118334
0.718654 0.208652 0.137499
0.757412 0.229923 0.168215
0.780697 0.249149 0.188998
0.784802 0.257618 0.199435
0.787488 0.263508 0.207065
0.789532 0.268299 0.213382
0.790509 0.271809 0.221408
0.791058 0.274434 0.228229
0.791394 0.276493 0.233906
0.792203 0.278447 0.237064
0.792477 0.279835 0.240162
0.792767 0.28101 0.242435
0.792859 0.281865 0.244572
0.792615 0.28249 0.247379
0.0257877 0.0501259 0.0420081
0.0233158 0.0451514 0.0358282
0.023682 0.0406348 0.0307774
0.0256046 0.0361334 0.0274662
0.0271763 0.0324254 0.0248875
0.0356909 0.0339818 0.0252689
0.0487984 0.0355535 0.0240024
0.0699779 0.0392462 0.0246891
0.0970474 0.0504921 0.0282902
0.136385 0.0610971 0.0276493
0.186007 0.0681773 0.0217594
0.237675 0.0769818 0.0209964
0.289372 0.0882734 0.0265202
0.347875 0.0984512 0.0384985
0.415213 0.108965 0.0517891
0.490623 0.124987 0.0618906
0.559991 0.146136 0.074815
0.618921 0.168566 0.0950179
0.676143 0.190463 0.116426
0.726406 0.212222 0.136645
0.76408 0.233448 0.16817
0.782391 0.250965 0.188312
0.786633 0.259693 0.199069
0.789242 0.265415 0.206439
0.791104 0.269871 0.212558
0.792203 0.273198 0.218418
0.793072 0.275929 0.224063
0.793317 0.27776 0.22948
0.793942 0.279515 0.232563
0.793942 0.280629 0.236286
0.794202 0.281697 0.238422
0.794293 0.282536 0.240406
0.795056 0.283207 0.239322
0.0394293 0.0724193 0.0601968
0.0372931 0.0681773 0.0545357
0.0360418 0.0642405 0.0484627
0.0392615 0.0606546 0.0451972
0.0421149 0.0559701 0.0419928
0.0507057 0.0551766 0.0400549
0.0611734 0.0556954 0.0386053
0.0827039 0.0577707 0.0377966
0.10219 0.0615244 0.0369726
0.129976 0.0630045 0.0310979
0.180758 0.0708782 0.0256199
0.237232 0.0783551 0.0177615
0.293751 0.0898299 0.0196078
0.355566 0.100206 0.0298314
0.42475 0.111025 0.0451362
0.500923 0.127611 0.0580606
0.569711 0.150149 0.0713054
0.629374 0.172503 0.0925307
0.685786 0.194476 0.114641
0.734096 0.216251 0.13756
0.770123 0.237629 0.169009
0.784146 0.252705 0.187442
0.788006 0.261067 0.198474
0.790921 0.266972 0.20531
0.792706 0.27126 0.211078
0.793866 0.274464 0.215976
0.794827 0.277012 0.22002
0.795575 0.27895 0.223865
0.796231 0.280507 0.226474
0.795621 0.281361 0.231678
0.796262 0.282475 0.232502
0.797589 0.283482 0.230579
0.796262 0.283436 0.235279
0.0518807 0.0920424 0.0780652
0.0502632 0.0887465 0.071931
0.0489662 0.0854658 0.0666209
0.0503853 0.0831464 0.0618296
0.0548409 0.0812238 0.059266
0.061799 0.0767834 0.0554971
0.0776684 0.0783398 0.0554208
0.0950179 0.0794842 0.0545357
0.117617 0.0846418 0.0522927
0.146181 0.0855421 0.046128
0.183108 0.080293 0.033402
0.234089 0.082948 0.0219272
0.293095 0.0933394 0.0135042
0.362722 0.102617 0.0175479
0.436423 0.11313 0.0341497
0.512474 0.130678 0.0517891
0.580713 0.154299 0.065919
0.64152 0.177279 0.0884871
0.69723 0.199329 0.111482
0.74345 0.221073 0.137163
0.777249 0.242527 0.169375
0.786297 0.254643 0.185672
0.790127 0.262486 0.195285
0.793256 0.268132 0.200824
0.794873 0.272206 0.20676
0.79617 0.275334 0.211139
0.797223 0.27776 0.214405
0.797971 0.279606 0.217258
0.798795 0.281071 0.218875
0.799237 0.282185 0.220722
0.800061 0.283116 0.220706
0.8009 0.283848 0.219959
0.79881 0.283742 0.226978
0.0660563 0.117189 0.104784
0.0658732 0.116045 0.100038
0.0654459 0.113527 0.0928054
0.065919 0.111635 0.0869154
0.0704662 0.110918 0.0830091
0.0791028 0.109285 0.0790723
0.0946365 0.105684 0.0737316
0.1122 0.108827 0.0743114
0.130816 0.113344 0.0735485
0.162036 0.115663 0.0674296
0.206332 0.109865 0.0514687
0.248417 0.10193 0.0324407
0.295079 0.0999924 0.016434
0.365774 0.108598 0.00115969
0.446082 0.117266 0.0113832
0.522423 0.13341 0.0357977
0.590936 0.157397 0.0533608
0.652094 0.181765 0.0788739
0.708965 0.204013 0.10396
0.753689 0.226001 0.132128
0.784848 0.24744 0.165743
0.789517 0.256443 0.180026
0.793484 0.263355 0.186648
0.79826 0.26862 0.185885
0.799191 0.272663 0.193393
0.800244 0.275761 0.197925
0.800916 0.278096 0.202167
0.801465 0.279896 0.205341
0.802365 0.2813 0.206119
0.803342 0.282429 0.205631
0.802533 0.283238 0.211688
0.803296 0.283818 0.21033
0.805341 0.283909 0.201724
0.0814069 0.147356 0.13344
0.0823224 0.147478 0.130312
0.0824598 0.145663 0.124422
0.0838331 0.144671 0.118608
0.0864576 0.143557 0.112398
0.0955978 0.143648 0.10959
0.11249 0.140887 0.102434
0.127474 0.13933 0.0973373
0.150332 0.145418 0.0985275
0.176959 0.150317 0.0959182
0.224796 0.147356 0.0803998
0.278889 0.140642 0.0597696
0.32694 0.133196 0.035584
0.375372 0.121263 0.00482185
0.45481 0.126192 0
0.535149 0.140352 0.00560006
0.604227 0.161654 0.0307622
0.66331 0.185718 0.0602274
0.717357 0.207507 0.0897231
0.761837 0.229175 0.115908
0.789975 0.24976 0.151507
0.793439 0.257588 0.165393
0.797482 0.264042 0.171008
0.802258 0.26952 0.165286
0.805661 0.273472 0.162448
0.807095 0.27631 0.166781
0.808087 0.278508 0.170352
0.809476 0.280232 0.169955
0.810513 0.281544 0.169909
0.810727 0.282612 0.172641
0.812284 0.283345 0.168521
0.813962 0.283772 0.162737
0.812955 0.283803 0.167315
0.0955215 0.186023 0.165194
0.0967575 0.187335 0.163043
0.097673 0.186694 0.158022
0.0987564 0.186069 0.152529
0.101808 0.186801 0.146746
0.106355 0.186755 0.139239
0.120394 0.187137 0.133974
0.13991 0.184878 0.127443
0.161013 0.184466 0.120821
0.192142 0.190967 0.120012
0.233707 0.193194 0.114763
0.293889 0.187747 0.0852979
0.355322 0.181933 0.0589303
0.417594 0.172519 0.0275425
0.479545 0.156497 0
0.54757 0.153277 0
0.619898 0.174594 0
0.681086 0.193027 0.0192264
0.729686 0.21239 0.0601511
0.770779 0.2327 0.0917525
0.797299 0.251484 0.122194
0.799573 0.258869 0.138384
0.803494 0.264988 0.142138
0.810071 0.269734 0.130724
0.817304 0.275288 0.10811
0.819501 0.278737 0.109789
0.821729 0.281819 0.1093
0.82356 0.284276 0.108461
0.826596 0.287205 0.101625
0.828855 0.289235 0.0968338
0.832898 0.291905 0.0844739
0.83563 0.293843 0.0735637
0.842054 0.299779 0.0324559
0.108141 0.2327 0.199573
0.10959 0.235203 0.198734
0.110964 0.236164 0.195407
0.112291 0.23624 0.190784
0.114076 0.238666 0.186725
0.11577 0.242039 0.182055
0.121782 0.243763 0.173785
0.141253 0.24358 0.164401
0.165545 0.241199 0.154253
0.199054 0.238926 0.143145
0.247059 0.241993 0.135149
0.300893 0.243839 0.126253
0.367391 0.238697 0.0822919
0.441962 0.233188 0.0451362
0.517525 0.221439 0.00874342
0.578683 0.204532 0
0.626215 0.189441 0
0.696834 0.207553 0
0.750729 0.225574 0
0.782971 0.240131 0.0466468
0.805249 0.254017 0.0799725
0.807965 0.259922 0.0951858
0.812589 0.266804 0.0981308
0.819821 0.274861 0.0867628
0.831342 0.285206 0.0476234
0.84419 0.294514 0
0.847196 0.298192 0
0.849973 0.300755 0
0.856855 0.310277 0
0.864546 0.323827 0
0.872312 0.339773 0
0.875395 0.345861 0
0.88368 0.35938 0
0.121386 0.286091 0.243214
0.122698 0.28986 0.242969
0.124193 0.292668 0.24065
0.125719 0.294743 0.237049
0.127398 0.296986 0.233097
0.129931 0.302266 0.231052
0.133516 0.308614 0.227298
0.140795 0.312932 0.216571
0.159014 0.310964 0.202899
0.205447 0.300786 0.180713
0.257343 0.294438 0.161807
0.317205 0.29691 0.150347
0.378607 0.302159 0.139055
0.454734 0.299138 0.0897688
0.539391 0.291295 0.0386511
0.616953 0.281117 0
0.672679 0.267842 0
0.717952 0.250629 0
0.755077 0.238193 0
0.799191 0.253864 0
0.828122 0.270573 0
0.829725 0.27512 0.00514229
0.833799 0.280934 0.00729381
0.840558 0.288533 0
0.844938 0.294606 0
0.873014 0.339422 0
0.886854 0.362768 0
0.894591 0.374655 0
0.901869 0.389059 0
0.907698 0.401221 0
0.913741 0.416236 0.00889601
0.92076 0.433158 0.0219425
0.924285 0.441489 0.0320745
0.135058 0.347692 0.293706
0.13666 0.352468 0.294423
0.13846 0.356832 0.29337
0.140246 0.360586 0.291325
0.141909 0.363561 0.288273
0.144198 0.369055 0.28661
0.148836 0.377478 0.284932
0.162615 0.383673 0.275517
0.179736 0.381918 0.260288
0.212268 0.371603 0.231022
0.272969 0.358953 0.200626
0.333455 0.356802 0.178302
0.398978 0.363851 0.166201
0.46717 0.369985 0.158022
0.550652 0.367071 0.108934
0.638651 0.360082 0.0361028
0.71017 0.353506 0
0.765209 0.342397 0
0.80441 0.32604 0
0.831113 0.310246 0
0.848737 0.305928 0
0.850645 0.302937 0
0.85362 0.3075 0
0.86363 0.322805 0
0.879072 0.348943 0
0.900633 0.38645 0
0.92282 0.431754 0.00280766
0.929122 0.44715 0.0164034
0.933837 0.458976 0.0274357
0.938689 0.472343 0.0418402
0.945174 0.486809 0.0534371
0.950805 0.501595 0.0655833
0.953048 0.507683 0.068452
0.150118 0.420417 0.347112
0.15288 0.425727 0.34815
0.156497 0.430518 0.347906
0.160845 0.434272 0.346197
0.165743 0.436744 0.342992
0.173617 0.438849 0.338598
0.189487 0.443259 0.332509
0.213382 0.448692 0.322103
0.233616 0.451453 0.311772
0.255192 0.447883 0.291402
0.295537 0.437293 0.253407
0.35079 0.429129 0.220874
0.414252 0.4309 0.197314
0.483787 0.439139 0.189792
0.557107 0.445289 0.183459
0.644556 0.444923 0.142992
0.725978 0.442069 0.0608835
0.794751 0.439506 0
0.845533 0.426444 0
0.879026 0.411917 0
0.900023 0.399283 0
0.903334 0.392721 0
0.901762 0.389746 0
0.905211 0.396124 0
0.914183 0.41239 0
0.928481 0.440421 0
0.945464 0.475731 0.00555428
0.9579 0.514336 0.0542458
0.96257 0.528099 0.0701305
0.967865 0.540932 0.08748
0.972335 0.553429 0.105516
0.976944 0.567269 0.127596
0.971817 0.547997 0.0837873
0.186908 0.496849 0.393423
0.194034 0.499641 0.391653
0.202029 0.501808 0.389044
0.210956 0.503075 0.385153
0.220172 0.503456 0.380438
0.232624 0.505058 0.375784
0.251881 0.508721 0.369955
0.276555 0.515541 0.362097
0.30074 0.521385 0.352743
0.317052 0.523156 0.342031
0.33724 0.517983 0.318273
0.373419 0.511696 0.284459
0.427649 0.506111 0.248386
0.497185 0.509392 0.226444
0.571435 0.515526 0.218601
0.64976 0.524239 0.213062
0.72256 0.529274 0.192554
0.803189 0.532891 0.126726
0.869596 0.528862 0.0407874
0.914809 0.520256 0
0.94313 0.508385 0
0.955947 0.497932 0
0.951019 0.486778 0
0.949813 0.483894 0
0.9523 0.489845 0
0.959548 0.505898 0
0.970779 0.529824 0.0112612
0.978408 0.557946 0.0573281
0.987076 0.585794 0.130755
0.992691 0.603433 0.165484
0.996887 0.614206 0.182528
1 0.625589 0.197635
0.990692 0.587945 0.104463
0.262181 0.557229 0.416464
0.2701 0.560449 0.414908
0.277516 0.56286 0.413092
0.284794 0.564553 0.410758
0.292134 0.565682 0.407568
0.302998 0.571115 0.407065
0.316457 0.578088 0.406668
0.338933 0.585626 0.403738
0.364584 0.593668 0.39884
0.379843 0.598062 0.392767
0.393805 0.597787 0.37911
0.412497 0.591714 0.350332
0.455024 0.587518 0.317342
0.510384 0.580468 0.280552
0.583291 0.583734 0.263859
0.66244 0.590417 0.25359
0.736538 0.603235 0.254704
0.801419 0.614115 0.25948
0.877348 0.619532 0.215641
0.932952 0.617777 0.151949
0.975799 0.615763 0.0695048
1 0.610956 0.022034
1 0.599069 0.0068513
1 0.587793 0.00349432
0.998047 0.583642 0.00469978
0.999313 0.587686 0.00973526
1 0.596338 0.0358129
1 0.609262 0.0944228
1 0.626688 0.162387
1 0.647288 0.202289
1 0.663401 0.225055
1 0.662791 0.221653
1 0.632944 0.154528
0.330907 0.615732 0.448539
0.339742 0.618433 0.446799
0.347997 0.620844 0.444923
0.355184 0.62298 0.443198
0.361547 0.624796 0.441337
0.369116 0.629145 0.44155
0.380453 0.636728 0.443198
0.396475 0.646967 0.445228
0.417609 0.659312 0.444739
0.434653 0.667567 0.441108
0.446891 0.670436 0.433799
0.462043 0.667811 0.415351
0.482612 0.659571 0.380621
0.532174 0.656321 0.35256
0.592584 0.648264 0.311894
0.673228 0.656062 0.298939
0.748898 0.664775 0.296986
0.815137 0.682872 0.299825
0.878599 0.694469 0.305867
0.933944 0.698466 0.282307
0.981781 0.707958 0.271794
1 0.704311 0.247593
1 0.700252 0.217197
1 0.690181 0.187289
1 0.679789 0.169986
1 0.673838 0.163973
1 0.671382 0.170169
1 0.674357 0.188708
1 0.682368 0.210803
1 0.693111 0.234943
1 0.703227 0.250874
1 0.703822 0.249088
1 0.686656 0.20528
0.388296 0.676371 0.48481
0.394415 0.679988 0.484825
0.400565 0.68304 0.484703
0.40618 0.685664 0.484321
0.411704 0.687831 0.483406
0.416831 0.689494 0.482155
0.427573 0.695766 0.482979
0.442817 0.704997 0.483955
0.461189 0.717189 0.484947
0.480888 0.729625 0.48571
0.493553 0.734859 0.482338
0.506645 0.734829 0.469978
0.523323 0.730007 0.44654
0.551278 0.721004 0.405997
0.610574 0.71902 0.377584
0.676936 0.714595 0.341192
0.756039 0.725917 0.338399
0.825605 0.737545 0.337484
0.889448 0.755657 0.343252
0.944411 0.770199 0.349325
0.985916 0.78085 0.356603
1 0.782834 0.328771
1 0.794415 0.335821
1 0.794614 0.326406
1 0.785748 0.311131
1 0.775357 0.29839
1 0.767239 0.288914
1 0.761669 0.284718
1 0.758724 0.285695
1 0.758984 0.290822
1 0.761257 0.295659
1 0.76202 0.294896
1 0.75729 0.276234
0.43827 0.732418 0.521874
0.444022 0.7355 0.522286
0.449516 0.738277 0.522332
0.454414 0.740719 0.522225
0.459174 0.74287 0.521691
0.463554 0.744671 0.520928
0.469917 0.747692 0.520363
0.482277 0.755978 0.522713
0.498756 0.766751 0.525673
0.519707 0.779522 0.527977
0.536187 0.787167 0.52694
0.548089 0.788952 0.519371
0.562875 0.785992 0.50106
0.582284 0.779202 0.467475
0.626245 0.774182 0.43061
0.68661 0.771756 0.396658
0.759487 0.775723 0.375769
0.832364 0.789593 0.374258
0.897093 0.800702 0.377264
0.955734 0.818662 0.383703
1 0.834531 0.392981
1 0.846403 0.406424
1 0.855024 0.418479
1 0.859464 0.405005
1 0.872709 0.419303
1 0.86894 0.409506
1 0.860822 0.39707
1 0.853483 0.386618
1 0.846922 0.378195
1 0.841596 0.37232
1 0.838285 0.368734
1 0.837613 0.366552
1 0.840497 0.364614
0.480171 0.781033 0.558663
0.485359 0.783658 0.559365
0.489952 0.785901 0.559915
0.494636 0.787961 0.560128
0.498985 0.789746 0.560098
0.502983 0.791226 0.559777
0.507744 0.792737 0.558953
0.517464 0.797513 0.559991
0.532586 0.806119 0.562753
0.552117 0.816648 0.565148
0.562921 0.817853 0.560479
0.570611 0.816983 0.553826
0.582147 0.813977 0.540352
0.599924 0.808667 0.51339
0.626764 0.80032 0.468421
0.695537 0.807477 0.444663
0.761975 0.81091 0.407294
0.838865 0.827588 0.408209
0.906645 0.840467 0.411505
0.965606 0.850477 0.414267
1 0.868589 0.424918
1 0.88397 0.43859
1 0.895232 0.456596
1 0.906538 0.468727
1 0.915068 0.478752
1 0.916396 0.475578
1 0.917708 0.482094
1 0.916625 0.477714
1 0.914534 0.470573
1 0.910246 0.462364
1 0.907423 0.456779
1 0.907576 0.455482
1 0.910628 0.457816
0.517342 0.819394 0.595315
0.521447 0.82153 0.595911
0.525322 0.823453 0.596277
0.527321 0.823514 0.595315
0.529259 0.823545 0.594232
0.531197 0.823499 0.593027
0.533593 0.823362 0.591363
0.537133 0.822995 0.588602
0.543374 0.82327 0.586831
0.551705 0.823606 0.58349
0.562463 0.82385 0.577478
0.571862 0.823453 0.569451
0.582162 0.821057 0.557855
0.598383 0.816052 0.536538
0.621653 0.80824 0.497353
0.677134 0.809598 0.463371
0.748638 0.815991 0.432273
0.82501 0.829404 0.415839
0.899077 0.847562 0.421836
0.965301 0.862348 0.430488
1 0.876631 0.437598
1 0.886732 0.444373
1 0.894591 0.457511
1 0.904921 0.468177
1 0.913787 0.477409
1 0.91722 0.480903
1 0.91751 0.481605
1 0.917678 0.482033
1 0.918166 0.483192
1 0.920623 0.489052
1 0.920027 0.487648
1 0.919722 0.486931
1 0.91986 0.487251
0.524498 0.828336 0.613382
0.526314 0.828412 0.612696
0.52813 0.828443 0.611872
0.529946 0.828443 0.610971
0.531609 0.828458 0.610025
0.533288 0.828489 0.608896
0.535348 0.828443 0.607462
0.538415 0.82826 0.60499
0.542779 0.828138 0.602121
0.550103 0.828336 0.598733
0.560052 0.82826 0.59292
0.573098 0.827375 0.582605
0.581979 0.825956 0.572198
0.597162 0.821683 0.551919
0.618418 0.81445 0.520058
0.662593 0.809949 0.475959
0.735149 0.816922 0.448631
0.808988 0.82562 0.416312
0.885679 0.844572 0.421942
0.953475 0.860121 0.429358
1 0.874327 0.436408
1 0.887068 0.449531
1 0.894575 0.460594
1 0.904021 0.468681
1 0.913008 0.476417
1 0.916915 0.480186
1 0.917067 0.480537
1 0.917159 0.480751
1 0.917128 0.48072
1 0.917464 0.481529
1 0.917754 0.4822
1 0.917845 0.482414
1 0.917601 0.481849
0.523491 0.833753 0.626612
0.525277 0.833722 0.625772
0.52697 0.833707 0.624964
0.528771 0.833631 0.623987
0.530526 0.833539 0.62295
0.532189 0.833432 0.621927
0.534356 0.833249 0.620493
0.537408 0.832898 0.61828
0.541497 0.832319 0.61503
0.547417 0.832044 0.611566
0.556466 0.831846 0.606058
0.569375 0.830747 0.596002
0.58291 0.828656 0.582361
0.593927 0.82623 0.565896
0.615564 0.819028 0.535866
0.647669 0.809964 0.484977
0.722591 0.817288 0.46009
0.794965 0.824063 0.421515
0.873457 0.841459 0.420386
0.943084 0.858183 0.426947
1 0.871946 0.433005
1 0.88542 0.445563
1 0.895415 0.464622
1 0.903914 0.470603
1 0.912673 0.47657
1 0.916716 0.478523
1 0.91664 0.477882
1 0.916579 0.477348
1 0.916503 0.476646
1 0.91635 0.475303
1 0.916442 0.47602
1 0.916503 0.476646
1 0.916381 0.475486
0.522011 0.837415 0.637949
0.523354 0.837415 0.637217
0.525048 0.837385 0.636194
0.52665 0.837339 0.635157
0.528374 0.837263 0.633936
0.529839 0.837186 0.632837
0.531929 0.837034 0.631205
0.535042 0.836561 0.629053
0.539162 0.83592 0.62594
0.544335 0.83505 0.621607
0.552285 0.834546 0.616724
0.563272 0.833722 0.608438
0.580453 0.830945 0.591959
0.592691 0.828504 0.575769
0.612146 0.822568 0.547921
0.638056 0.81326 0.502724
0.708995 0.817288 0.469337
0.784009 0.824414 0.431235
0.861295 0.838331 0.416968
0.933791 0.855558 0.423316
0.994461 0.86978 0.429389
1 0.883345 0.440681
1 0.894026 0.461952
1 0.904677 0.473274
1 0.912825 0.47776
1 0.916671 0.478157
1 0.91632 0.474861
1 0.91606 0.472465
1 0.915831 0.470497
1 0.915618 0.46836
1 0.915312 0.465522
1 0.915236 0.464881
1 0.915145 0.463996
0.519127 0.839887 0.648051
0.5205 0.839857 0.647242
0.522072 0.839811 0.646342
0.523766 0.839734 0.645212
0.525139 0.839673 0.644236
0.526665 0.839582 0.643122
0.528283 0.839475 0.641855
0.530999 0.8392 0.639643
0.535012 0.838666 0.636149
0.53994 0.837888 0.631571
0.546624 0.836789 0.626139
0.556603 0.835813 0.618875
0.571023 0.833921 0.605631
0.591226 0.829816 0.582391
0.606134 0.825879 0.55996
0.63183 0.816815 0.519661
0.69395 0.816144 0.476493
0.77232 0.823484 0.440192
0.846983 0.833997 0.412131
0.923537 0.852094 0.417823
0.986664 0.867124 0.424918
1 0.881025 0.43473
1 0.891905 0.452613
1 0.902785 0.469825
1 0.913588 0.480446
1 0.917006 0.4804
1 0.916167 0.47361
1 0.915572 0.467918
1 0.915129 0.463828
1 0.914763 0.460533
1 0.914412 0.457237
1 0.913909 0.45388
1 0.913603 0.451896
0.513954 0.841794 0.656641
0.515389 0.841703 0.655909
0.516823 0.841596 0.655146
0.518395 0.84152 0.654215
0.519783 0.841443 0.653315
0.521019 0.841367 0.65243
0.522789 0.84126 0.651164
0.525261 0.841062 0.649241
0.52845 0.840757 0.64654
0.532753 0.840208 0.642527
0.538979 0.83917 0.636378
0.547707 0.837736 0.628763
0.560433 0.836164 0.61825
0.579126 0.832792 0.598505
0.600595 0.828031 0.569055
0.624018 0.820111 0.535073
0.673548 0.813703 0.483833
0.755535 0.821683 0.45156
0.83003 0.828504 0.407279
0.909819 0.8477 0.410574
0.976806 0.863508 0.418708
1 0.877897 0.426856
1 0.889265 0.440818
1 0.899931 0.460365
1 0.911681 0.476478
1 0.918242 0.48336
1 0.916426 0.475929
1 0.915343 0.46595
1 0.914549 0.458473
1 0.913878 0.453651
1 0.913298 0.449912
1 0.912734 0.446174
1 0.912047 0.441688
0.506325 0.843488 0.663783
0.507225 0.843412 0.663294
0.50901 0.84329 0.662379
0.51017 0.843183 0.661723
0.511559 0.843046 0.660899
0.512703 0.842939 0.660227
0.514244 0.842817 0.659327
0.516533 0.842573 0.657893
0.519814 0.842191 0.655665
0.523674 0.841764 0.652567
0.528893 0.841138 0.647684
0.536538 0.839902 0.639841
0.547829 0.838071 0.629786
0.563287 0.835782 0.615549
0.588602 0.830274 0.585931
0.615671 0.8224 0.545953
0.64506 0.811597 0.492332
0.731731 0.819303 0.461036
0.811505 0.826444 0.417273
0.889128 0.841047 0.400351
0.962798 0.858412 0.406592
1 0.873365 0.41593
1 0.885771 0.427939
1 0.895964 0.448539
1 0.908751 0.46302
1 0.916548 0.477089
1 0.91754 0.481682
1 0.915602 0.468193
1 0.914244 0.456138
1 0.913085 0.448524
1 0.912215 0.442725
1 0.911452 0.437705
1 0.910552 0.431556
0.496132 0.845365 0.672007
0.497383 0.845212 0.671199
0.498436 0.845075 0.670527
0.499748 0.844907 0.669688
0.500801 0.84477 0.669001
0.502174 0.844587 0.668101
0.503471 0.844434 0.667262
0.50518 0.84419 0.666087
0.507912 0.843824 0.664179
