public/luts/TH_Nordic_Greens_LUT_x33.cube
TITLE "Generated by Resolve"
LUT_3D_SIZE 9
0.00128176 0.00329595 0.00450141
0.0455482 0.0226749 0.015259
0.116213 0.0519112 0.0308537
0.277028 0.0860151 0.0514992
0.53724 0.137087 0.0925307
0.747127 0.224948 0.175448
0.784436 0.264317 0.223041
0.787778 0.27602 0.247654
0.789181 0.281163 0.256474
0.0257877 0.0501259 0.0420081
0.0271763 0.0324254 0.0248875
0.0970474 0.0504921 0.0282902
0.289372 0.0882734 0.0265202
0.559991 0.146136 0.074815
0.76408 0.233448 0.16817
0.791104 0.269871 0.212558
0.793942 0.279515 0.232563
0.795056 0.283207 0.239322
0.0814069 0.147356 0.13344
0.0864576 0.143557 0.112398
0.150332 0.145418 0.0985275
0.32694 0.133196 0.035584
0.604227 0.161654 0.0307622
0.789975 0.24976 0.151507
0.805661 0.273472 0.162448
0.810513 0.281544 0.169909
0.812955 0.283803 0.167315
0.135058 0.347692 0.293706
0.141909 0.363561 0.288273
0.179736 0.381918 0.260288
0.398978 0.363851 0.166201
0.71017 0.353506 0
0.848737 0.305928 0
0.879072 0.348943 0
0.933837 0.458976 0.0274357
0.953048 0.507683 0.068452
0.330907 0.615732 0.448539
0.361547 0.624796 0.441337
0.417609 0.659312 0.444739
0.482612 0.659571 0.380621
0.748898 0.664775 0.296986
0.981781 0.707958 0.271794
1 0.679789 0.169986
1 0.682368 0.210803
1 0.686656 0.20528
0.517342 0.819394 0.595315
0.529259 0.823545 0.594232
0.543374 0.82327 0.586831
0.582162 0.821057 0.557855
0.748638 0.815991 0.432273
1 0.876631 0.437598
1 0.913787 0.477409
1 0.918166 0.483192
1 0.91986 0.487251
0.519127 0.839887 0.648051
0.525139 0.839673 0.644236
0.535012 0.838666 0.636149
0.571023 0.833921 0.605631
0.69395 0.816144 0.476493
0.986664 0.867124 0.424918
1 0.913588 0.480446
1 0.915129 0.463828
1 0.913603 0.451896
0.486091 0.84773 0.682994
0.489632 0.847227 0.679866
0.49456 0.846464 0.675441
0.514244 0.842329 0.65803
0.602914 0.822324 0.55082
0.912688 0.838773 0.365499
1 0.89929 0.428305
1 0.915496 0.467216
1 0.906981 0.409415
0.426642 0.848478 0.706386
0.427344 0.848325 0.705806
0.43035 0.8477 0.703471
0.436576 0.846265 0.69839
0.457511 0.842878 0.680079
0.563134 0.818875 0.562997
0.969421 0.83566 0.283909
1 0.890791 0.332128
1 0.905318 0.401404
0.00190738 0.0109255 0.019913
0.0223087 0.0181582 0.0213016
0.0952621 0.0480964 0.049012
0.261875 0.084123 0.07187
0.528984 0.136446 0.118944
0.742901 0.223102 0.188159
0.779477 0.26363 0.242512
0.783917 0.275929 0.260319
0.785504 0.28098 0.267964
0.00756847 0.0177768 0.0172122
0.00598154 0.00959792 0.00946059
0.0987259 0.0466621 0.0297398
0.280049 0.0879072 0.0533608
0.54432 0.140291 0.10013
0.750881 0.228092 0.181613
0.785794 0.267735 0.228931
0.788922 0.278325 0.250034
0.790433 0.28278 0.256031
0.0684215 0.12398 0.122179
0.0750591 0.132113 0.117723
0.142153 0.134569 0.0949264
0.315663 0.113268 0.0209354
0.594888 0.159991 0.0595254
0.782406 0.246571 0.170687
0.796307 0.272526 0.203052
0.800427 0.281514 0.214328
0.80238 0.284276 0.215671
0.130755 0.336583 0.293721
0.139956 0.362417 0.299107
0.171878 0.388785 0.274876
0.401938 0.360235 0.166857
0.710155 0.334264 0
0.836728 0.288716 0
0.877836 0.348943 0
0.919661 0.444831 0.0985885
0.934371 0.477852 0.112367
0.300053 0.606027 0.455177
0.339239 0.619837 0.450919
0.389044 0.643366 0.447761
0.469352 0.655848 0.390265
0.749142 0.658244 0.295369
0.982025 0.691936 0.253941
1 0.659739 0.14609
1 0.67332 0.215976
1 0.680323 0.213748
0.500801 0.81062 0.59324
0.519417 0.820493 0.597131
0.535729 0.824079 0.592721
0.576074 0.822705 0.564889
0.744244 0.815641 0.434623
1 0.877592 0.439826
1 0.914397 0.478553
1 0.920577 0.488975
1 0.91931 0.485939
0.514046 0.840391 0.652262
0.520043 0.84036 0.649241
0.529397 0.839872 0.642802
0.563684 0.835431 0.614115
0.684764 0.815076 0.480018
0.986313 0.867399 0.426734
1 0.913863 0.481102
1 0.915236 0.464897
1 0.913725 0.452705
0.483131 0.848219 0.68574
0.486229 0.847761 0.68307
0.491081 0.847089 0.678782
0.510231 0.843427 0.662333
0.596307 0.824796 0.560784
0.911009 0.838819 0.36791
1 0.899626 0.430198
1 0.915602 0.468193
1 0.907057 0.409812
0.424872 0.84892 0.70811
0.426078 0.848661 0.707118
0.42829 0.848219 0.705348
0.435401 0.846662 0.699672
0.456504 0.843122 0.681315
0.561685 0.819409 0.565255
0.970153 0.835813 0.283848
1 0.891569 0.3355
1 0.905409 0.401816
0.00427253 0.0269932 0.0666056
0.0401617 0.0360418 0.0649271
0.0940566 0.0559854 0.0773022
0.256474 0.0881971 0.106401
0.520363 0.135485 0.149248
0.733272 0.219974 0.205676
0.774304 0.262638 0.257191
0.778698 0.275303 0.27454
0.780438 0.280552 0.281865
0.00883497 0.0278019 0.0482032
0.00672923 0.029572 0.0694133
0.0940871 0.057557 0.0786603
0.274693 0.0919051 0.0970779
0.531929 0.139498 0.136492
0.743252 0.224887 0.198032
0.779538 0.267018 0.251743
0.783093 0.278035 0.268208
0.783963 0.282124 0.275944
0.0580453 0.110338 0.124666
0.0619669 0.11632 0.131685
0.112062 0.116594 0.117769
0.293202 0.0949721 0.0610361
0.570199 0.151766 0.110201
0.766201 0.23917 0.191135
0.786709 0.271519 0.238132
0.790219 0.28069 0.251835
0.79118 0.28394 0.256229
0.123598 0.320562 0.302495
0.129503 0.336278 0.304417
0.143114 0.367437 0.303593
0.393637 0.343694 0.170611
0.699901 0.300572 0
0.822187 0.272587 0
0.847196 0.308751 0.0438849
0.870146 0.365606 0.149096
0.868193 0.359533 0.142123
0.25774 0.594629 0.465537
0.288853 0.603891 0.461585
0.351492 0.625956 0.455146
0.44625 0.647257 0.405463
0.749249 0.646891 0.292851
0.981689 0.666041 0.220951
1 0.6309 0.118517
1 0.668788 0.232975
1 0.677562 0.232517
0.475059 0.797162 0.589593
0.4925 0.806775 0.593668
0.523033 0.822324 0.599939
0.566934 0.824475 0.576364
0.736934 0.814878 0.438285
1 0.879149 0.443397
1 0.915434 0.480034
1 0.91989 0.487297
1 0.918349 0.483619
0.505821 0.841184 0.657786
0.511849 0.841184 0.655741
0.52137 0.841062 0.651164
0.554345 0.837156 0.624414
0.668452 0.813321 0.486
0.985687 0.867887 0.429816
1 0.914305 0.482185
1 0.915419 0.46659
1 0.913924 0.454017
0.477455 0.849088 0.690822
0.480812 0.848615 0.687999
0.48603 0.847898 0.683543
0.504128 0.844968 0.668498
0.586419 0.827985 0.577523
0.907988 0.838682 0.371496
1 0.900114 0.432959
1 0.915755 0.46978
1 0.90721 0.410513
0.422248 0.849607 0.710628
0.424033 0.849256 0.709239
0.425895 0.848875 0.707774
0.432898 0.847379 0.70222
0.453498 0.843748 0.684627
0.557488 0.820676 0.571527
0.970993 0.836011 0.283818
1 0.892226 0.338674
1 0.905531 0.402457
0.0133211 0.0569314 0.175586
0.0584421 0.0653239 0.176257
0.111299 0.0762798 0.178943
0.249699 0.0990768 0.192996
0.502266 0.147036 0.220584
0.717861 0.227817 0.266224
0.764462 0.271931 0.30695
0.769894 0.283436 0.325383
0.771649 0.28896 0.334798
0.00831617 0.049546 0.16524
0.0239567 0.0640574 0.19472
0.100099 0.0781872 0.197772
0.259419 0.103502 0.201953
0.51429 0.151797 0.218128
0.724605 0.231525 0.263783
0.768719 0.279026 0.313405
0.773297 0.289616 0.333013
0.773754 0.295659 0.343069
0.0364843 0.0920729 0.195361
0.0169528 0.0666972 0.197391
0.0367285 0.0690318 0.204654
0.279286 0.112108 0.217227
0.550591 0.165881 0.220676
0.745556 0.244831 0.267155
0.772808 0.284459 0.314137
0.778225 0.295521 0.334905
0.778073 0.300771 0.344427
0.113725 0.301259 0.342351
0.11722 0.314534 0.355917
0.122454 0.333257 0.374685
0.324178 0.316228 0.309468
0.6159 0.212741 0.174228
0.778027 0.259373 0.226322
0.789014 0.284443 0.265095
0.799863 0.299458 0.263691
0.79646 0.30251 0.28513
0.203708 0.592569 0.508019
0.220966 0.601801 0.50837
0.254902 0.615625 0.50782
0.355367 0.628092 0.471504
0.740246 0.612207 0.29163
0.958312 0.585458 0.202075
0.968475 0.579309 0.230182
0.975601 0.622919 0.329809
0.975326 0.618509 0.30837
0.42063 0.782101 0.60531
0.435966 0.788251 0.606943
0.457542 0.798337 0.609415
0.529152 0.832578 0.621241
0.710552 0.811612 0.449027
1 0.8663 0.438376
1 0.9187 0.484459
1 0.915557 0.477302
1 0.910353 0.463752
0.480186 0.845457 0.678264
0.485847 0.845579 0.676234
0.495338 0.845426 0.672419
0.526406 0.843519 0.65687
0.629847 0.819745 0.530907
0.982452 0.869581 0.440452
1 0.915663 0.485512
1 0.916014 0.472023
1 0.914534 0.458381
0.459236 0.852277 0.706584
0.462562 0.851759 0.70396
0.467994 0.850721 0.699596
0.48571 0.848356 0.685145
0.559686 0.836423 0.619516
0.896345 0.8392 0.385672
1 0.901488 0.44123
1 0.916289 0.474678
1 0.907622 0.412543
0.415778 0.851209 0.717189
0.416434 0.851118 0.716655
0.41883 0.850706 0.714855
0.424643 0.849622 0.710307
0.446815 0.84509 0.692164
0.543328 0.824918 0.591974
0.974395 0.836789 0.283543
1 0.89482 0.349828
1 0.905928 0.404364
0.065919 0.101335 0.327657
0.110857 0.100816 0.323705
0.154559 0.102876 0.317388
0.266133 0.116167 0.309529
0.485115 0.176501 0.325536
0.701442 0.253819 0.363714
0.750408 0.29836 0.39881
0.75491 0.311498 0.416571
0.756298 0.315282 0.42266
0.00190738 0.101808 0.329274
0.0764324 0.10135 0.329625
0.139574 0.102174 0.324727
0.265797 0.119371 0.317998
0.499672 0.185306 0.334371
0.709545 0.26041 0.369146
0.751797 0.302998 0.404913
0.757366 0.320775 0.434409
0.757778 0.320119 0.431525
0 0.101091 0.328817
0 0.109667 0.345525
0.102892 0.104784 0.341085
0.269749 0.125597 0.33518
0.531106 0.201266 0.35436
0.727672 0.279118 0.388708
0.754101 0.312444 0.421118
0.759472 0.329274 0.447913
0.757687 0.327871 0.448661
0.0727245 0.267018 0.430701
0.0671397 0.262303 0.438819
0.0544594 0.251362 0.447562
0.184421 0.173007 0.39144
0.547097 0.218509 0.367468
0.747127 0.297826 0.396338
0.762432 0.319799 0.418006
0.771771 0.3355 0.429847
0.766415 0.335103 0.443595
0.185321 0.613703 0.605585
0.190021 0.625818 0.616464
0.198398 0.643565 0.633234
0.220249 0.647532 0.631693
0.642908 0.579904 0.503685
0.874861 0.497185 0.424475
0.852827 0.443763 0.410788
0.867384 0.485893 0.444221
0.848951 0.449348 0.431495
0.319326 0.786542 0.67538
0.330694 0.793301 0.680308
0.349142 0.804105 0.688167
0.414466 0.829801 0.712169
0.536202 0.820905 0.636988
0.986221 0.83563 0.450568
1 0.826429 0.427909
1 0.819669 0.462593
1 0.823407 0.468925
0.412253 0.857359 0.734386
0.417685 0.858045 0.73521
0.425788 0.859312 0.737224
0.449348 0.864393 0.745418
0.527474 0.868116 0.733364
0.948257 0.87068 0.483497
1 0.917815 0.514
1 0.918608 0.484245
1 0.916442 0.476112
0.382162 0.87216 0.776196
0.386999 0.870893 0.772473
0.394125 0.86894 0.766903
0.416541 0.863355 0.749447
0.490501 0.854444 0.701625
0.851087 0.837888 0.426673
1 0.905165 0.46627
1 0.918761 0.484627
1 0.909026 0.421118
0.385077 0.860182 0.744869
0.387396 0.859602 0.743206
0.389227 0.859144 0.741863
0.39765 0.857145 0.735927
0.420706 0.852049 0.718669
0.508263 0.835157 0.637568
0.984115 0.839002 0.282597
1 0.902403 0.375326
1 0.907164 0.410346
0.139681 0.134127 0.418524
0.164065 0.137697 0.418692
0.192004 0.14023 0.416907
0.28864 0.15172 0.410544
0.466773 0.177325 0.407935
0.686168 0.292226 0.475502
0.739528 0.333486 0.505837
0.742489 0.34493 0.520058
0.735561 0.338293 0.523613
0.108949 0.130007 0.417319
0.13933 0.133608 0.417197
0.174121 0.137636 0.417334
0.284169 0.152621 0.41532
0.48513 0.189532 0.420645
0.707027 0.308248 0.488792
0.740459 0.343877 0.52282
0.742885 0.351736 0.533089
0.736614 0.338811 0.522148
0.0359045 0.140383 0.427405
0.0886091 0.129076 0.418112
0.14432 0.135332 0.419409
0.281071 0.154803 0.424475
0.5084 0.205631 0.438132
0.723522 0.324376 0.504692
0.742046 0.351446 0.534813
0.74406 0.358206 0.545708
0.738369 0.33962 0.519753
0.00190738 0.220157 0.477607
0 0.212665 0.479622
0 0.191623 0.473136
0.197589 0.1449 0.428794
0.513008 0.22385 0.456992
0.725277 0.329671 0.504356
0.746944 0.356725 0.532647
0.74902 0.364294 0.545113
0.743801 0.343801 0.514809
0.13492 0.552193 0.664927
0.136919 0.559884 0.674784
0.140215 0.571969 0.690211
0.135698 0.568917 0.704646
0.530922 0.499413 0.627207
0.785504 0.44593 0.564965
0.771023 0.378546 0.51989
0.76788 0.375418 0.519997
0.759823 0.372305 0.536355
0.325704 0.855467 0.845411
0.333867 0.858518 0.848753
0.346563 0.862791 0.853452
0.364843 0.860609 0.84947
0.422599 0.834134 0.808011
0.88896 0.822919 0.717281
0.969009 0.779538 0.678019
0.955657 0.750317 0.668269
0.941299 0.718898 0.661143
0.33315 0.893782 0.851041
0.335134 0.892744 0.848661
0.339345 0.891936 0.846281
0.361852 0.897444 0.852369
0.420813 0.92105 0.904936
0.764508 0.904936 0.780362
1 0.940871 0.695094
1 0.935363 0.638483
1 0.928832 0.634348
0.305074 0.915801 0.912108
0.306538 0.915175 0.910185
0.308568 0.914305 0.907469
0.316121 0.911376 0.898131
0.35053 0.901228 0.861067
0.553811 0.898939 0.834669
1 0.909636 0.565484
1 0.929213 0.555337
1 0.913283 0.449836
0.298741 0.89424 0.858839
0.299077 0.893782 0.857633
0.299611 0.893095 0.855756
0.301228 0.89102 0.850187
0.306172 0.884733 0.832334
0.390478 0.868376 0.765469
0.996811 0.856062 0.355474
1 0.908934 0.420478
1 0.91107 0.435096
0.167666 0.153079 0.464973
0.188907 0.156268 0.466682
0.214435 0.159457 0.465766
0.302907 0.169574 0.464744
0.470085 0.197391 0.465812
0.674998 0.305196 0.52517
0.736294 0.357092 0.561944
0.74139 0.365423 0.569284
0.729564 0.349386 0.559243
0.143313 0.14876 0.463386
0.167407 0.152819 0.464393
0.196689 0.157046 0.466743
0.298497 0.16994 0.466972
0.483925 0.20238 0.469703
0.699001 0.325154 0.540658
0.739925 0.363455 0.568048
0.744411 0.369894 0.571817
0.730037 0.350042 0.559655
0.102861 0.144701 0.462165
0.130282 0.146517 0.462745
0.166903 0.152712 0.464347
0.289586 0.169543 0.4692
0.502281 0.210697 0.475715
0.718608 0.342351 0.552239
0.743526 0.368399 0.571099
0.747021 0.374289 0.573892
0.730755 0.351003 0.56025
0 0.242222 0.535851
0 0.233249 0.530816
0 0.212055 0.514549
0.175509 0.157763 0.465217
0.492119 0.228077 0.493645
0.714916 0.344152 0.552438
0.749386 0.377096 0.573266
0.752163 0.383001 0.578027
0.733181 0.35433 0.56231
0.134096 0.576547 0.733257
0.137621 0.586267 0.742123
0.135592 0.583658 0.743084
0.112535 0.534661 0.721569
0.506722 0.437675 0.626703
0.730205 0.399817 0.584283
0.800839 0.460136 0.615686
0.761822 0.393652 0.574639
0.74316 0.367849 0.570794
0.219196 0.78819 0.844236
0.221668 0.79472 0.85156
0.225544 0.804288 0.862531
0.24361 0.844602 0.901228
0.325261 0.842802 0.886885
0.840986 0.789914 0.780499
0.944167 0.775082 0.774197
0.925383 0.73106 0.751888
0.876265 0.6177 0.701854
0.409796 0.947723 0.966766
0.416815 0.946883 0.965515
0.422538 0.94583 0.963821
0.439521 0.941924 0.957198
0.493553 0.929824 0.933516
0.777249 0.921538 0.877714
1 0.933608 0.861372
1 0.919799 0.840864
1 0.898604 0.826642
0.298314 0.942504 0.983505
0.298634 0.942626 0.983551
0.299031 0.942794 0.983627
0.300557 0.943404 0.983902
0.306325 0.943786 0.98027
0.375753 0.950896 0.973892
0.96759 0.954299 0.869184
1 0.972854 0.852949
1 0.968032 0.813062
0.284062 0.931823 0.976211
0.284062 0.931823 0.976211
0.284062 0.931823 0.976211
0.284062 0.931823 0.976211
0.284199 0.93196 0.976318
0.287083 0.934783 0.978424
0.585824 0.917174 0.890501
1 0.949142 0.732494
1 0.93727 0.60676
0.179492 0.157153 0.472892
0.201236 0.160281 0.475334
0.224765 0.165255 0.474525
0.312093 0.175006 0.477562
0.47628 0.204517 0.480339
0.671321 0.299199 0.530709
0.738949 0.362142 0.567208
0.743587 0.36849 0.57116
0.73959 0.362982 0.567758
0.155489 0.154101 0.469947
0.179049 0.157092 0.472831
0.207675 0.161715 0.475029
0.308949 0.174456 0.477668
0.492546 0.208118 0.480446
0.698619 0.322057 0.542016
0.742184 0.366506 0.56997
0.74583 0.372274 0.572946
0.739986 0.363531 0.568093
0.116365 0.147158 0.468574
0.143526 0.1514 0.469429
0.178592 0.157031 0.472786
0.30016 0.173007 0.477974
0.506554 0.211414 0.480949
0.71873 0.340642 0.55375
0.745083 0.371038 0.572351
0.74818 0.376242 0.574823
0.740734 0.364553 0.568719
0 0.247379 0.54696
0 0.239246 0.540581
0 0.213382 0.522728
0.180896 0.157565 0.473213
0.488701 0.236088 0.504768
0.712032 0.345327 0.557397
0.7505 0.380179 0.576684
0.754192 0.386389 0.579675
0.743084 0.367742 0.570733
0.131716 0.579217 0.751522
0.136995 0.591134 0.760754
0.137926 0.593576 0.764263
0.123049 0.563775 0.750378
0.530999 0.535744 0.677028
0.752483 0.455283 0.620447
0.790951 0.445396 0.616007
0.840986 0.539437 0.66772
0.754299 0.386557 0.579767
0.239734 0.839551 0.907729
0.243397 0.848173 0.914153
0.250675 0.8607 0.924544
0.26125 0.874632 0.934585
0.430426 0.81561 0.85742
0.836851 0.759823 0.76791
0.934249 0.754742 0.770504
0.946761 0.785702 0.784787
0.892943 0.653452 0.726406
0.265309 0.894942 0.938567
0.267796 0.899077 0.942535
0.273457 0.907057 0.950072
0.31191 0.931136 0.9664
0.416297 0.949798 0.970871
0.7337 0.914641 0.889921
0.991562 0.921706 0.871626
1 0.919707 0.869551
1 0.893828 0.851133
0.417731 0.949538 0.970459
0.420325 0.94905 0.969711
0.424674 0.948257 0.96849
0.440726 0.945373 0.96408
0.495018 0.936461 0.949523
0.70454 0.933165 0.913268
0.981353 0.965194 0.904311
1 0.973602 0.909316
1 0.96759 0.900999
0.285466 0.933211 0.977249
0.285527 0.933272 0.977295
0.285557 0.933303 0.97731
0.285664 0.93341 0.977401
0.286061 0.933806 0.977691
0.287694 0.935378 0.978866
0.311452 0.947097 0.985901
1 0.976211 0.910567
1 0.983993 0.91136
0.185855 0.158083 0.47361
0.205951 0.161334 0.475135
0.22797 0.165545 0.474861
0.316045 0.175662 0.47744
0.480369 0.205356 0.480293
0.671992 0.296361 0.528389
0.740551 0.364324 0.568582
0.74464 0.370306 0.571984
0.746059 0.372641 0.573129
0.159319 0.154635 0.470359
0.18175 0.157473 0.473152
0.211872 0.162661 0.47483
0.313085 0.175174 0.477546
0.49723 0.209155 0.480476
0.701289 0.321813 0.540887
0.743343 0.368109 0.570947
0.746456 0.373373 0.573434
0.747814 0.375662 0.574533
0.119554 0.147723 0.468788
0.146166 0.15201 0.469566
0.182895 0.157656 0.473274
0.304921 0.173816 0.477821
0.512047 0.212772 0.4813
0.721065 0.341787 0.55436
0.745846 0.372335 0.572946
0.748577 0.376928 0.575143
0.749874 0.379126 0.576181
0 0.252247 0.551553
0 0.243854 0.544747
0 0.215335 0.524102
0.183368 0.158083 0.473625
0.492515 0.23714 0.504891
0.714885 0.346273 0.557855
0.751217 0.381399 0.577264
0.754742 0.38732 0.580118
0.756558 0.390372 0.581598
0.133776 0.585107 0.761318
0.139391 0.597772 0.769955
0.140414 0.600366 0.772519
0.125597 0.57052 0.75877
0.534951 0.539528 0.678584
0.792874 0.531243 0.662928
0.77615 0.420218 0.602853
0.775845 0.419715 0.602579
0.850401 0.55903 0.67921
0.241413 0.843656 0.913954
0.244038 0.850172 0.918639
0.249271 0.859113 0.92607
0.2636 0.879332 0.940948
0.488869 0.823178 0.854459
0.854139 0.816464 0.799725
0.925078 0.729747 0.760891
0.922164 0.721157 0.757626
0.962142 0.819089 0.802609
0.405936 0.951629 0.973754
0.415259 0.94995 0.971115
0.423224 0.948531 0.968917
0.442222 0.945113 0.963668
0.496696 0.920821 0.933303
0.831479 0.914702 0.877256
0.985656 0.904967 0.858869
1 0.904036 0.859205
1 0.911467 0.864393
0.315084 0.948165 0.986603
0.315496 0.948287 0.986694
0.316152 0.948486 0.986816
0.318166 0.949065 0.987182
0.325277 0.951339 0.988251
0.403418 0.951949 0.974365
0.963394 0.960739 0.903716
1 0.968551 0.907668
1 0.966766 0.904723
0.327291 0.95198 0.988525
0.327672 0.952087 0.988556
0.328344 0.952285 0.988647
0.330465 0.952987 0.988968
0.339208 0.954299 0.988434
0.407431 0.951415 0.973358
0.894362 0.955352 0.908507
1 0.980713 0.920333
1 0.989822 0.929015
