public/luts/TH_Street_Tones_LUT_x33.cube
TITLE "Generated by Resolve"
LUT_3D_SIZE 33
0.00189212 0.00955215 0.0109712
0.00189212 0.00955215 0.0109712
0.06392 0.0121004 0.0161746
0.0730297 0.0125582 0.0179141
0.095201 0.0141451 0.0210727
0.112337 0.0157015 0.0234836
0.129976 0.0171359 0.0263523
0.149065 0.0188449 0.0294194
0.170916 0.0210727 0.033051
0.197391 0.0238193 0.03888
0.229114 0.026215 0.046891
0.266911 0.0297398 0.057145
0.306172 0.0322881 0.0697337
0.349096 0.035523 0.084535
0.396643 0.0395514 0.0997177
0.455573 0.0469673 0.117006
0.520806 0.0581369 0.139864
0.586786 0.0737926 0.165316
0.654017 0.0932174 0.192798
0.720088 0.113512 0.223056
0.787457 0.135531 0.253132
0.850858 0.161639 0.28954
0.90277 0.18233 0.310552
0.926696 0.194491 0.323552
0.929335 0.202609 0.336065
0.932204 0.210681 0.351537
0.934447 0.217441 0.364782
0.936004 0.222889 0.374563
0.937133 0.227222 0.381811
0.938048 0.230701 0.388098
0.938796 0.233402 0.396017
0.939529 0.236271 0.398871
0.940703 0.239597 0.406165
0.00189212 0.00955215 0.0109712
0.00189212 0.00955215 0.0109712
0.0134279 0.0113222 0.0109712
0.0396124 0.0130922 0.0109712
0.0708019 0.0156252 0.0121462
0.0959182 0.0171664 0.0130465
0.119036 0.0190127 0.0130465
0.144137 0.0202182 0.0157626
0.169284 0.0221561 0.0202029
0.196201 0.0247959 0.0259098
0.228473 0.0273594 0.0348516
0.267796 0.0305486 0.0459449
0.307729 0.033463 0.0587472
0.351003 0.0373541 0.0745251
0.399741 0.0410925 0.0912795
0.460594 0.0490425 0.108568
0.525948 0.0603342 0.132174
0.591989 0.0759899 0.158282
0.658976 0.095613 0.186297
0.725109 0.115938 0.217319
0.792218 0.137865 0.247654
0.854994 0.163943 0.284474
0.906065 0.184497 0.306828
0.927016 0.195895 0.320928
0.929366 0.203281 0.332815
0.932204 0.211292 0.347524
0.934371 0.217868 0.360311
0.936065 0.223362 0.370657
0.937163 0.227649 0.377096
0.938048 0.230961 0.383917
0.938811 0.233768 0.389731
0.939513 0.236423 0.394903
0.940429 0.239704 0.39855
0.00189212 0.0218967 0.0120089
0.00462348 0.0164492 0.0109712
0.00640879 0.01355 0.0109712
0.021149 0.0146334 0.0109712
0.0461891 0.0171511 0.011017
0.0759442 0.0195773 0.0125734
0.10338 0.021561 0.0130465
0.131151 0.0234684 0.0130465
0.160586 0.0250706 0.0117494
0.193698 0.0266117 0.0151217
0.227985 0.0285954 0.0224918
0.267796 0.0314641 0.0328679
0.309422 0.0346838 0.0466773
0.352834 0.0389258 0.0633249
0.402594 0.0426642 0.0817426
0.465141 0.0509346 0.0995193
0.531136 0.0623789 0.123796
0.597314 0.0785229 0.150393
0.66389 0.0979324 0.179599
0.730129 0.118257 0.211139
0.796948 0.14023 0.242145
0.859068 0.16614 0.279988
0.909377 0.186481 0.304234
0.927321 0.197192 0.3187
0.929549 0.204303 0.329229
0.932128 0.211765 0.342718
0.934279 0.21828 0.354788
0.935958 0.223636 0.365301
0.937179 0.227955 0.372656
0.938048 0.23125 0.379477
0.938766 0.234028 0.38323
0.939437 0.236469 0.387762
0.940581 0.240223 0.389624
0.000808728 0.0413214 0.0137636
0.00683604 0.0349126 0.0109865
0.0130617 0.0285039 0.0109865
0.0228428 0.0282292 0.0110018
0.039353 0.0284581 0.0110933
0.0632944 0.027863 0.0115969
0.0892348 0.0260319 0.0130465
0.118761 0.0263981 0.0130465
0.150561 0.0280613 0.0124514
0.186053 0.0296483 0.0109712
0.224857 0.0316167 0.0126192
0.267903 0.0327764 0.0204013
0.310933 0.0359808 0.0336004
0.35523 0.0404669 0.0506294
0.405585 0.0442512 0.0707713
0.470008 0.0526436 0.0889754
0.536324 0.0644083 0.114717
0.602548 0.0810101 0.142046
0.668833 0.100267 0.172564
0.735195 0.120394 0.204532
0.801587 0.142489 0.236378
0.863325 0.168246 0.275868
0.912673 0.188205 0.301076
0.927672 0.198627 0.315526
0.92987 0.2056 0.325734
0.932021 0.212192 0.336309
0.934127 0.21857 0.348211
0.93579 0.223789 0.358572
0.937011 0.228122 0.364446
0.938018 0.231632 0.370703
0.938766 0.234379 0.37409
0.939467 0.236637 0.377447
0.940566 0.240192 0.382895
0.00138857 0.0629282 0.0182498
0.00869764 0.0558175 0.0127565
0.0170901 0.0470741 0.0118715
0.0281682 0.0437781 0.0115206
0.0413977 0.0437171 0.0117342
0.0619516 0.0429694 0.0121462
0.0870527 0.0419318 0.0130465
0.114382 0.0391852 0.0130465
0.142611 0.0339055 0.0130312
0.177615 0.0330358 0.0111543
0.21883 0.0353552 0.0106508
0.265064 0.0359503 0.0108492
0.311604 0.0380713 0.0212253
0.357839 0.0416724 0.0376287
0.408804 0.0459449 0.0578012
0.474937 0.0543679 0.0769207
0.54136 0.0664988 0.104707
0.607706 0.0834821 0.133318
0.673732 0.102739 0.164981
0.740398 0.122484 0.197528
0.806149 0.14464 0.230396
0.867658 0.17026 0.27274
0.915434 0.189731 0.296101
0.928038 0.200168 0.311238
0.93019 0.206973 0.321645
0.932021 0.212757 0.330465
0.933959 0.218799 0.339681
0.935607 0.223941 0.349722
0.936812 0.228138 0.355261
0.937804 0.23154 0.362219
0.938689 0.234379 0.365515
0.939467 0.236774 0.368521
0.940307 0.23978 0.364813
0.00373846 0.080705 0.0224308
0.0110018 0.0755627 0.0156405
0.0216373 0.0680858 0.0146944
0.0323186 0.0625162 0.0142367
0.0473335 0.0620737 0.013962
0.0634165 0.0616312 0.0136263
0.0876478 0.0605325 0.0137331
0.114199 0.0572671 0.0136568
0.142184 0.0513008 0.0132143
0.173877 0.0441138 0.0122225
0.212924 0.0394598 0.0108644
0.26128 0.0396887 0.00891127
0.310506 0.0419776 0.0114595
0.359716 0.0437781 0.0254063
0.412085 0.0476692 0.0440375
0.479683 0.0563058 0.062211
0.546349 0.0686198 0.092668
0.612711 0.0858778 0.1243
0.678599 0.104952 0.156954
0.745663 0.124651 0.190372
0.811154 0.146777 0.225925
0.871656 0.172152 0.268284
0.918196 0.191226 0.290562
0.928389 0.201633 0.306203
0.930571 0.208484 0.316472
0.932326 0.214099 0.325353
0.933837 0.218997 0.331762
0.935363 0.223926 0.33843
0.936568 0.227985 0.342611
0.937636 0.231418 0.351858
0.938399 0.234195 0.3514
0.938827 0.236271 0.346059
0.939941 0.23946 0.354253
0.00450141 0.0996872 0.0280461
0.00962844 0.0958419 0.0196536
0.0222019 0.0893111 0.0164034
0.0333104 0.0825818 0.0157778
0.0485695 0.0804303 0.0155337
0.0660868 0.0798962 0.015671
0.0883192 0.0790265 0.0151522
0.114748 0.0782635 0.0150301
0.144549 0.0742199 0.0146181
0.176883 0.0664683 0.0137331
0.214313 0.0565805 0.0113222
0.25655 0.0447089 0.00924697
0.307836 0.0470741 0.00723278
0.359564 0.0486 0.0118868
0.415183 0.0514076 0.029221
0.485618 0.0589456 0.0420233
0.552758 0.0709392 0.0754559
0.619226 0.0888838 0.112032
0.684886 0.107622 0.146304
0.752407 0.127306 0.182467
0.816922 0.149264 0.218341
0.876387 0.174105 0.259617
0.920821 0.192737 0.282994
0.928176 0.202426 0.297169
0.930922 0.21001 0.310277
0.932692 0.215671 0.318456
0.934173 0.220478 0.324559
0.935393 0.22446 0.329595
0.936385 0.227985 0.33228
0.93724 0.231205 0.335637
0.937835 0.233783 0.334249
0.938415 0.236286 0.331548
0.939345 0.239048 0.340078
0.00247196 0.120958 0.0366217
0.00674449 0.118761 0.0271916
0.0187533 0.114107 0.0215152
0.0327611 0.108995 0.0178531
0.0459907 0.104112 0.0169985
0.0658274 0.102922 0.0168765
0.0900435 0.101762 0.0194705
0.114961 0.101213 0.0166018
0.144579 0.0996414 0.0161898
0.179339 0.0941787 0.0152132
0.220706 0.0859693 0.0133822
0.26537 0.0743114 0.0110933
0.30634 0.0587625 0.00753796
0.357961 0.0550851 0.00416571
0.418647 0.0595865 0.00920119
0.491157 0.0679637 0.0207675
0.560555 0.0766003 0.0471199
0.627298 0.0927901 0.0916915
0.692714 0.111101 0.131243
0.759579 0.13051 0.169329
0.822766 0.151995 0.205798
0.880766 0.175982 0.247425
0.923384 0.194095 0.272129
0.927794 0.203006 0.285054
0.930739 0.210773 0.299611
0.933043 0.217273 0.309895
0.934493 0.221973 0.315938
0.935699 0.226001 0.32015
0.936614 0.229603 0.322103
0.937407 0.232746 0.322148
0.938003 0.234974 0.324926
0.938567 0.23743 0.321828
0.939223 0.240406 0.314473
0.00267033 0.14519 0.049485
0.00581369 0.142962 0.0389715
0.013138 0.139834 0.0286717
0.02916 0.135271 0.024506
0.0448157 0.130739 0.0204929
0.0613565 0.127932 0.0184024
0.0900587 0.126848 0.0208743
0.116503 0.126284 0.024445
0.145144 0.125963 0.0189212
0.181491 0.123735 0.0168002
0.226108 0.118715 0.0151369
0.27364 0.110185 0.0123445
0.320195 0.0980087 0.0096437
0.365805 0.082826 0.00537118
0.419944 0.0712139 0.000961318
0.494423 0.0793011 0
0.565438 0.088838 0.0135042
0.632395 0.0991073 0.0567636
0.699046 0.114137 0.105531
0.765332 0.13341 0.149203
0.827634 0.154559 0.187503
0.884627 0.177691 0.229923
0.924697 0.194934 0.256809
0.927413 0.20351 0.269825
0.930007 0.210895 0.282567
0.932433 0.217411 0.293828
0.93434 0.222812 0.30219
0.935714 0.227359 0.306416
0.936736 0.231052 0.308568
0.93753 0.234028 0.309758
0.937957 0.236225 0.305943
0.938231 0.237919 0.299428
0.938628 0.23975 0.29604
0.0056611 0.174166 0.0653849
0.00852979 0.17232 0.0555123
0.0120851 0.169223 0.0427253
0.0239261 0.165667 0.0344701
0.0412757 0.161547 0.030045
0.057557 0.157565 0.0256962
0.085893 0.15491 0.024033
0.116457 0.154452 0.0274205
0.148043 0.154665 0.0314183
0.184909 0.153979 0.0226596
0.230747 0.151583 0.0170138
0.280812 0.146715 0.0147402
0.330251 0.137804 0.0115511
0.380362 0.127657 0.0075227
0.436439 0.112184 0.000747692
0.495399 0.0938888 0
0.56875 0.103853 0
0.636393 0.111757 0.0125582
0.702205 0.121386 0.0634318
0.769726 0.135485 0.113542
0.833005 0.158495 0.167941
0.886198 0.177722 0.200229
0.924315 0.195422 0.233738
0.92723 0.204166 0.248936
0.929503 0.211215 0.259693
0.931517 0.217136 0.27187
0.933272 0.222293 0.280339
0.934722 0.226749 0.285756
0.935729 0.230228 0.286229
0.936492 0.232975 0.285191
0.936919 0.234974 0.279286
0.937224 0.236957 0.271595
0.936934 0.238529 0.252995
0.00694286 0.210346 0.0857862
0.0102235 0.208698 0.0751812
0.014725 0.205722 0.0622416
0.0198672 0.202258 0.049012
0.0346075 0.19884 0.0424048
0.0517433 0.195224 0.0379187
0.0772869 0.189609 0.0311894
0.113283 0.18883 0.0317388
0.150225 0.188937 0.0353094
0.192035 0.189349 0.0406043
0.235248 0.187304 0.0305333
0.288365 0.184405 0.0175784
0.341344 0.180331 0.0131838
0.397726 0.172381 0.00747692
0.458076 0.160891 0
0.51931 0.146685 0
0.575097 0.130388 0
0.640314 0.127855 0
0.70367 0.134554 0.00970474
0.769985 0.144839 0.0634165
0.834379 0.160525 0.122026
0.890318 0.181323 0.171664
0.922927 0.195026 0.197986
0.926207 0.203662 0.215579
0.92874 0.211093 0.228489
0.930739 0.217517 0.238972
0.932448 0.222843 0.247898
0.933745 0.226886 0.253925
0.934691 0.230274 0.25388
0.935286 0.232975 0.249882
0.935454 0.234806 0.240635
0.935363 0.235874 0.230472
0.934539 0.235782 0.20972
0.00932326 0.253635 0.111345
0.00906386 0.252567 0.119203
0.0111391 0.24979 0.107408
0.0142672 0.246921 0.0937209
0.0196536 0.24419 0.0780804
0.0263066 0.241062 0.0619059
0.050721 0.236088 0.0508278
0.093431 0.228916 0.0392615
0.142718 0.231342 0.0414282
0.193683 0.232105 0.0444953
0.245258 0.233112 0.0497444
0.297536 0.231754 0.031281
0.354055 0.229053 0.0114748
0.4159 0.223926 0.00105287
0.479561 0.214557 0
0.544457 0.203601 0
0.602564 0.19028 0
0.657603 0.173846 0
0.708476 0.157656 0
0.770993 0.161547 0.00172427
0.831296 0.169711 0.0506294
0.888487 0.186328 0.1187
0.921691 0.19794 0.152026
0.923629 0.203616 0.171939
0.926329 0.210025 0.183337
0.928435 0.215549 0.190875
0.930144 0.220386 0.197879
0.931411 0.224399 0.202564
0.932204 0.227573 0.201144
0.933043 0.230793 0.198306
0.934325 0.23534 0.189502
0.93959 0.251652 0.189166
0.950408 0.283177 0.21059
0.0121004 0.302419 0.151278
0.0137484 0.301122 0.143389
0.015671 0.298711 0.132631
0.0179446 0.296132 0.120439
0.0207065 0.293431 0.106462
0.0250248 0.290822 0.0901961
0.0378424 0.287144 0.0679637
0.0899825 0.281102 0.0538643
0.141421 0.278676 0.0462501
0.198779 0.28043 0.0488136
0.257115 0.283268 0.0530709
0.314275 0.284825 0.0548104
0.372717 0.283757 0.0205386
0.435248 0.280674 0
0.502693 0.276234 0
0.566995 0.267796 0
0.627512 0.256458 0
0.684169 0.243122 0
0.738796 0.228534 0
0.790799 0.213321 0
0.837049 0.197986 0
0.884199 0.196353 0.0213931
0.921492 0.205798 0.0771954
0.924453 0.21181 0.109453
0.926909 0.218082 0.125154
0.928893 0.223484 0.134737
0.930449 0.228168 0.138598
0.931945 0.23209 0.144717
0.93315 0.23563 0.145708
0.938323 0.250553 0.156893
0.947295 0.277104 0.17705
0.957137 0.306584 0.198047
0.966796 0.337697 0.216022
0.0178378 0.357168 0.178943
0.0194705 0.355886 0.170687
0.0216831 0.353902 0.160861
0.0243076 0.351568 0.149996
0.0273289 0.349035 0.137758
0.0329747 0.346685 0.123659
0.0455482 0.342794 0.0988785
0.097673 0.336553 0.0743267
0.150484 0.33022 0.0536507
0.213718 0.332296 0.0534829
0.274113 0.336065 0.057847
0.334035 0.339467 0.066743
0.390402 0.340795 0.0584421
0.451255 0.340063 0.0219425
0.519646 0.336797 0.00268559
0.586389 0.331136 0
0.651255 0.322667 0
0.709911 0.311803 0
0.768872 0.299077 0
0.820783 0.284092 0
0.866926 0.268879 0
0.906538 0.257267 0.00935378
0.935332 0.248692 0.0189975
0.93257 0.241321 0.0337377
0.932815 0.242634 0.0500496
0.935347 0.250462 0.0724193
0.94049 0.264439 0.0991684
0.947021 0.282856 0.129686
0.950912 0.295018 0.148592
0.95761 0.31252 0.167193
0.965393 0.334493 0.18674
0.973617 0.360616 0.206851
0.97937 0.382818 0.211124
0.0278172 0.418738 0.20972
0.0316167 0.417166 0.201404
0.0363928 0.415473 0.192264
0.0426642 0.413321 0.18146
0.0491188 0.411215 0.170184
0.0563363 0.409033 0.158083
0.0695201 0.405509 0.137804
0.112123 0.398749 0.102419
0.169711 0.392508 0.0796521
0.224033 0.387991 0.0590066
0.287602 0.393332 0.0644694
0.347158 0.397955 0.0747539
0.405371 0.401877 0.0906233
0.466361 0.401999 0.0766155
0.531685 0.399786 0.0401617
0.602182 0.395422 0.0123293
0.670039 0.389059 0.00115969
0.735271 0.379202 0
0.795666 0.367666 0
0.84947 0.354101 0
0.894682 0.338735 0.00158694
0.932982 0.324285 0.00733959
0.956725 0.313787 0.0118563
0.954787 0.307164 0.0284276
0.954757 0.306844 0.0473793
0.956649 0.312673 0.0692149
0.959838 0.323934 0.0950484
0.96466 0.339132 0.12491
0.970748 0.357183 0.155413
0.976333 0.374624 0.178042
0.981903 0.392889 0.196918
0.987945 0.414801 0.215763
0.993912 0.436698 0.204868
0.0529488 0.486427 0.251484
0.0579538 0.485191 0.243885
0.0632486 0.483772 0.235706
0.0691234 0.482185 0.226764
0.0757458 0.480385 0.217166
0.0823987 0.478477 0.207019
0.0920882 0.4757 0.191913
0.121477 0.469368 0.152987
0.173053 0.462715 0.121324
0.227756 0.454337 0.0914168
0.287984 0.45391 0.0789349
0.352865 0.459892 0.0894179
0.417121 0.464881 0.1037
0.482216 0.469001 0.121294
0.546792 0.468009 0.101991
0.613626 0.464683 0.0615702
0.684611 0.458656 0.0283207
0.75375 0.450187 0.00982681
0.818875 0.438773 0.00509651
0.87509 0.425498 0.00418097
0.920775 0.41117 0.00747692
0.958587 0.396551 0.0111849
0.978439 0.382208 0.0153658
0.975799 0.374258 0.0322118
0.97499 0.37229 0.0509499
0.975814 0.375799 0.0698711
0.978271 0.384527 0.0895399
0.982238 0.397894 0.116625
0.987945 0.414511 0.145388
0.993072 0.432578 0.174502
0.997879 0.451804 0.198337
1 0.469291 0.209018
1 0.48777 0.19498
0.0848402 0.554452 0.301106
0.0905776 0.553384 0.294682
0.0967575 0.552163 0.287724
0.10312 0.550988 0.280568
0.109972 0.549676 0.273014
0.117052 0.548287 0.264973
0.126009 0.546242 0.253513
0.146319 0.541726 0.226413
0.174075 0.5346 0.180331
0.226871 0.527977 0.143664
0.282856 0.519203 0.107652
0.3523 0.522805 0.108598
0.423835 0.528939 0.120729
0.493874 0.533684 0.136751
0.562722 0.538186 0.155474
0.629297 0.53637 0.129061
0.694987 0.531624 0.0940108
0.768978 0.522347 0.0514687
0.837461 0.511971 0.0286412
0.896986 0.499641 0.0186465
0.942855 0.485161 0.0182345
0.979858 0.469703 0.0213474
0.999298 0.45568 0.0274815
0.995499 0.443198 0.0350958
0.994064 0.439429 0.0495613
0.994141 0.440635 0.064683
0.996078 0.447181 0.0818189
0.999298 0.457862 0.107836
1 0.472358 0.134432
1 0.488014 0.161151
1 0.505119 0.182986
1 0.522072 0.194018
1 0.540215 0.182879
0.124132 0.620661 0.349493
0.129488 0.619913 0.344564
0.134829 0.618997 0.339162
0.139803 0.618082 0.333654
0.144976 0.617105 0.327718
0.150225 0.616129 0.321675
0.157107 0.614832 0.313619
0.170153 0.611948 0.296864
0.192004 0.606226 0.262791
0.220645 0.597375 0.204089
0.280461 0.590051 0.166186
0.343923 0.582635 0.129793
0.423056 0.589181 0.140307
0.500023 0.595193 0.154604
0.574411 0.600732 0.171771
0.642924 0.603662 0.192401
0.709636 0.600107 0.160006
0.778561 0.594079 0.12636
0.850889 0.583368 0.082826
0.913252 0.570871 0.0491188
0.962173 0.557244 0.0334173
0.999649 0.543099 0.0364691
1 0.529915 0.0463111
1 0.516823 0.0483101
1 0.507103 0.0521401
1 0.506584 0.0670024
1 0.510613 0.0848402
1 0.518914 0.104891
1 0.530098 0.127657
1 0.54374 0.149844
1 0.558068 0.169085
1 0.57261 0.178851
1 0.590234 0.171923
0.157961 0.683696 0.394385
0.162219 0.682948 0.390311
0.166613 0.68217 0.386023
0.170718 0.681331 0.381689
0.175097 0.680552 0.377172
0.179355 0.679667 0.372457
0.184985 0.678477 0.366171
0.194461 0.676539 0.355596
0.210483 0.672953 0.334905
0.23566 0.666331 0.292165
0.267048 0.656031 0.220249
0.337514 0.648051 0.183597
0.414618 0.644785 0.160632
0.500053 0.651896 0.172946
0.577935 0.657786 0.189563
0.653376 0.661707 0.20734
0.723156 0.664042 0.221775
0.792691 0.658412 0.188144
0.857298 0.651957 0.163104
0.921599 0.638834 0.125902
0.973907 0.625772 0.0993515
1 0.612467 0.0935378
1 0.599512 0.0883497
1 0.58703 0.0832685
1 0.576974 0.0809186
1 0.569909 0.0814069
1 0.571527 0.0968032
1 0.576638 0.112795
1 0.585367 0.126955
1 0.596948 0.141588
1 0.609796 0.157626
1 0.623545 0.167895
1 0.640375 0.166293
0.186374 0.741238 0.435538
0.189975 0.740749 0.432135
0.193515 0.740291 0.428855
0.197177 0.739818 0.425437
0.200793 0.73933 0.421973
0.204257 0.738857 0.418555
0.208774 0.738155 0.413855
0.215076 0.736767 0.406653
0.227924 0.733883 0.391333
0.246204 0.729931 0.366629
0.2757 0.722164 0.311879
0.322728 0.711391 0.237934
0.399802 0.701198 0.192584
0.491417 0.704845 0.191409
0.577234 0.71136 0.205371
0.657877 0.71696 0.222004
0.73283 0.71928 0.240742
0.804608 0.718395 0.241108
0.867842 0.712367 0.214572
0.923156 0.705028 0.196384
0.979461 0.694011 0.165896
1 0.68011 0.14728
1 0.665904 0.127321
1 0.652705 0.115541
1 0.641566 0.109224
1 0.633234 0.106676
1 0.628016 0.105867
1 0.631464 0.117571
1 0.638376 0.130632
1 0.64802 0.144183
1 0.65919 0.156146
1 0.672938 0.164401
1 0.68864 0.168887
0.215015 0.791119 0.475257
0.217884 0.790814 0.472465
0.220859 0.790478 0.469474
0.223758 0.790219 0.466636
0.226612 0.789822 0.4636
0.229572 0.789471 0.460472
0.233188 0.78909 0.456733
0.238346 0.788449 0.451026
0.246326 0.787015 0.441138
0.260304 0.784237 0.422385
0.283879 0.778988 0.386023
0.317082 0.769421 0.316197
0.385885 0.759564 0.247822
0.47422 0.752972 0.209415
0.569467 0.761196 0.221546
0.655772 0.76672 0.23714
0.73608 0.769757 0.253361
0.812711 0.770718 0.270161
0.878386 0.767605 0.259663
0.931441 0.762295 0.238544
0.975814 0.756741 0.226032
1 0.745846 0.210178
1 0.730724 0.187396
1 0.716182 0.169085
1 0.703609 0.148333
1 0.693904 0.134173
1 0.687129 0.126253
1 0.683787 0.122179
1 0.68896 0.135134
1 0.697337 0.152163
1 0.707912 0.168414
1 0.72192 0.180438
1 0.738964 0.188525
0.237659 0.833768 0.511025
0.24007 0.833432 0.508492
0.242329 0.833066 0.50602
0.244541 0.832731 0.503578
0.246876 0.832395 0.500984
0.24921 0.832074 0.498405
0.252079 0.831647 0.495125
0.256367 0.831006 0.49012
0.262058 0.830228 0.483467
0.273518 0.828382 0.469017
0.288838 0.825818 0.448051
0.322042 0.82002 0.392584
0.360937 0.808392 0.295384
0.456291 0.799725 0.245396
0.556588 0.803174 0.238483
0.64947 0.809995 0.251774
0.735668 0.813031 0.266667
0.816648 0.815366 0.282643
0.884855 0.815473 0.296757
0.94081 0.811185 0.27657
0.982834 0.806973 0.260304
1 0.801755 0.247852
1 0.789395 0.228656
1 0.775753 0.212253
1 0.762814 0.195941
1 0.752041 0.182788
1 0.744457 0.173663
1 0.739849 0.167773
1 0.739528 0.164401
1 0.74641 0.17348
1 0.756497 0.184695
1 0.769406 0.1953
1 0.786145 0.204929
0.255879 0.870695 0.544427
0.258 0.870451 0.542336
0.259846 0.870192 0.540307
0.261753 0.869902 0.538064
0.263554 0.869612 0.536004
0.265614 0.869322 0.533639
0.267948 0.868971 0.530953
0.271366 0.868452 0.52694
0.276173 0.867735 0.521248
0.283497 0.866651 0.512444
0.298604 0.864469 0.493874
0.319524 0.861021 0.463188
0.362066 0.852369 0.38172
0.436133 0.842008 0.293263
0.537575 0.837903 0.252796
0.639551 0.845136 0.265766
0.731899 0.850065 0.280079
0.817838 0.852735 0.294118
0.889525 0.853956 0.307881
0.945968 0.852949 0.315251
0.991409 0.847837 0.293507
1 0.844541 0.282414
1 0.842237 0.281956
1 0.828244 0.253193
1 0.814984 0.231312
1 0.803479 0.215503
1 0.793942 0.2038
1 0.788327 0.196139
1 0.787243 0.192203
1 0.79173 0.192859
1 0.801862 0.201205
1 0.813169 0.211078
1 0.829068 0.222492
0.27068 0.902678 0.576043
0.272221 0.902541 0.574594
0.274022 0.902296 0.572747
0.275593 0.902068 0.571069
0.277409 0.901778 0.5691
0.278935 0.901549 0.567452
0.28098 0.901274 0.565286
0.284153 0.90074 0.561669
0.288121 0.900114 0.557107
0.293385 0.89929 0.550958
0.305211 0.897688 0.536492
0.323064 0.895491 0.513161
0.356802 0.889708 0.456367
0.405356 0.877836 0.338979
0.514931 0.869062 0.276493
0.62649 0.87509 0.278233
0.726406 0.881056 0.292088
0.817655 0.883528 0.304936
0.893355 0.88481 0.318105
0.951659 0.885039 0.330556
0.997513 0.883055 0.329046
1 0.880354 0.317891
1 0.877317 0.310201
1 0.874617 0.304082
1 0.861021 0.27718
1 0.847333 0.250553
1 0.836271 0.231922
1 0.82948 0.220661
1 0.827771 0.215381
1 0.831724 0.215793
1 0.841062 0.220874
1 0.854887 0.233112
1 0.871015 0.249912
0.277989 0.928344 0.606928
0.279591 0.928191 0.605325
0.281102 0.928084 0.603891
0.282597 0.927962 0.602396
0.284108 0.927855 0.600961
0.28574 0.927718 0.599344
0.287327 0.927596 0.597726
0.290013 0.927367 0.594995
0.293751 0.927047 0.591089
0.298466 0.926604 0.586053
0.304982 0.925933 0.578637
0.321263 0.923674 0.558297
0.344015 0.921187 0.527077
0.39736 0.911498 0.426825
0.493095 0.900526 0.318441
0.610727 0.900282 0.289265
0.720043 0.906386 0.302052
0.818158 0.910185 0.315709
0.896819 0.911925 0.327855
0.956924 0.912032 0.340078
1 0.912734 0.361334
1 0.909438 0.345846
1 0.906065 0.332677
1 0.903914 0.326329
1 0.902052 0.322438
1 0.887922 0.295277
1 0.874723 0.269749
1 0.865202 0.249607
1 0.862089 0.24033
1 0.86598 0.240375
1 0.876173 0.24892
1 0.893919 0.267628
1 0.913176 0.291356
0.272953 0.935668 0.633097
0.274479 0.935683 0.631769
0.275761 0.935699 0.630747
0.277317 0.935714 0.629358
0.278767 0.935729 0.628107
0.280186 0.935729 0.626825
0.281971 0.935744 0.625269
0.284672 0.93576 0.622812
0.288197 0.93579 0.619638
0.292454 0.935821 0.615641
0.298421 0.935851 0.609888
0.307912 0.935973 0.600305
0.331533 0.935607 0.573846
0.365743 0.934661 0.525597
0.452354 0.926131 0.358557
0.587686 0.919814 0.297551
0.713436 0.927916 0.312322
0.819715 0.932616 0.325856
0.902602 0.934829 0.338704
0.963882 0.935042 0.35021
1 0.935622 0.368124
1 0.93344 0.367239
1 0.929473 0.353521
1 0.926268 0.343679
1 0.925139 0.34052
1 0.924239 0.338659
1 0.910414 0.310536
1 0.898344 0.286976
1 0.893141 0.27306
1 0.896162 0.271351
1 0.908507 0.284031
1 0.926696 0.304372
1 0.948592 0.331441
0.260868 0.93698 0.656062
0.261952 0.93698 0.655253
0.263676 0.93698 0.653986
0.264744 0.936965 0.653178
0.266606 0.936965 0.651835
0.26775 0.93698 0.65098
0.269383 0.936965 0.649729
0.271824 0.936965 0.647868
0.275166 0.93695 0.645274
0.279576 0.93695 0.64181
0.285374 0.936934 0.637171
0.293141 0.936965 0.630289
0.308232 0.937041 0.615763
0.339498 0.9364 0.581064
0.41619 0.932372 0.450141
0.561471 0.93315 0.314992
0.706477 0.945251 0.31989
0.823941 0.949722 0.333761
0.911559 0.952697 0.347265
0.973968 0.953414 0.358907
1 0.954391 0.374929
1 0.952468 0.379995
1 0.949401 0.371099
1 0.946059 0.361273
1 0.943328 0.353857
1 0.94284 0.352682
1 0.942565 0.352392
1 0.92845 0.323293
1 0.920134 0.30486
1 0.922118 0.300999
1 0.935271 0.314092
1 0.954238 0.33846
1 0.967147 0.366094
0.245319 0.937804 0.678111
0.246769 0.937819 0.677119
0.247837 0.937819 0.676371
0.249393 0.937835 0.675288
0.250614 0.937835 0.674418
0.251987 0.93785 0.673426
0.253391 0.93785 0.672389
0.255451 0.93785 0.670832
0.258518 0.937881 0.668589
