public/luts/TH_Studio_Mood_LUT_x33.cube
TITLE "Generated by Resolve"
LUT_3D_SIZE 33
0.00727855 0.00885023 0.00813306
0.00727855 0.00885023 0.00813306
0.0242008 0.00939956 0.00955215
0.0630808 0.0121767 0.0147097
0.097322 0.0145724 0.0195163
0.124056 0.01738 0.0250248
0.153079 0.0208743 0.031693
0.185412 0.0241398 0.0388952
0.222004 0.0284428 0.0481575
0.26096 0.0337072 0.0602274
0.279561 0.0342107 0.116762
0.325765 0.0416419 0.128344
0.375509 0.0505531 0.140612
0.42916 0.0609445 0.15079
0.486992 0.0733501 0.156954
0.548531 0.0881514 0.160754
0.613443 0.103426 0.182986
0.678248 0.119615 0.207141
0.742626 0.136919 0.232105
0.807355 0.154726 0.255726
0.866773 0.171832 0.277317
0.92105 0.188724 0.299641
0.962402 0.1991 0.316228
0.963607 0.206241 0.328252
0.96376 0.211933 0.335958
0.964569 0.217517 0.349813
0.965255 0.222065 0.35848
0.965667 0.225605 0.365057
0.965881 0.228489 0.367773
0.965713 0.230823 0.371664
0.966339 0.232364 0.379767
0.966217 0.234012 0.376791
0.966308 0.234836 0.382315
0.00727855 0.00885023 0.00813306
0.00727855 0.00885023 0.00813306
0.00866712 0.00891127 0.00817884
0.0380255 0.0124514 0.00891127
0.0757458 0.0162509 0.0107271
0.107378 0.0191043 0.0116884
0.140597 0.0219883 0.013138
0.179217 0.0252689 0.020737
0.21828 0.0293126 0.0317082
0.232761 0.0291295 0.0925154
0.276493 0.0347753 0.104479
0.323415 0.0422675 0.116716
0.373404 0.0512703 0.128969
0.427146 0.0615396 0.138506
0.484642 0.0738842 0.143877
0.544198 0.0887312 0.145586
0.608301 0.103517 0.166964
0.67216 0.11957 0.192355
0.737011 0.136797 0.21828
0.801343 0.154162 0.242725
0.860533 0.171145 0.264775
0.912688 0.187472 0.285832
0.956146 0.19913 0.304326
0.963455 0.206302 0.317586
0.963638 0.212375 0.328344
0.963851 0.217441 0.337438
0.964584 0.22208 0.347234
0.964965 0.225681 0.353826
0.965393 0.228824 0.358602
0.965896 0.231266 0.36492
0.966125 0.233127 0.369146
0.966079 0.234363 0.371893
0.96614 0.23563 0.372839
0.00717174 0.0119326 0.00828565
0.00727855 0.00885023 0.00813306
0.00727855 0.00885023 0.00813306
0.0191043 0.0130159 0.00842298
0.0475319 0.0176852 0.00955215
0.0818799 0.0214237 0.0110933
0.117052 0.0248722 0.0124971
0.156786 0.0252842 0.0139162
0.179644 0.0237736 0.0612955
0.226505 0.0296025 0.0753185
0.272114 0.0354925 0.0885634
0.320073 0.0429084 0.10222
0.370687 0.0519112 0.114916
0.424582 0.0622721 0.124132
0.480156 0.0743572 0.126467
0.541115 0.0889601 0.130785
0.604959 0.10396 0.151705
0.668421 0.119997 0.178668
0.73373 0.137194 0.206119
0.797528 0.154528 0.231769
0.856779 0.171221 0.254368
0.908858 0.187259 0.275792
0.95201 0.199466 0.293736
0.963348 0.206607 0.308492
0.963561 0.212802 0.319509
0.963668 0.217823 0.329107
0.963989 0.222202 0.337346
0.964446 0.225849 0.345418
0.964904 0.229007 0.350835
0.965454 0.231495 0.357824
0.965728 0.23357 0.360678
0.96585 0.234928 0.364263
0.965896 0.236316 0.364202
0.00924697 0.040116 0.0104982
0.0127565 0.029572 0.00949111
0.0144656 0.0263676 0.00921645
0.0175326 0.0222782 0.0089723
0.02121 0.0192874 0.00888075
0.0335393 0.0133364 0.00880446
0.0717479 0.0142214 0.0156558
0.118181 0.0187076 0.0257725
0.166339 0.024094 0.0387884
0.217121 0.0296025 0.0539559
0.2663 0.0360418 0.0689097
0.315984 0.0437324 0.0834974
0.367453 0.0526284 0.0974441
0.420203 0.0629129 0.10486
0.476875 0.0751507 0.108324
0.537636 0.089128 0.113664
0.601267 0.104417 0.13431
0.66482 0.120195 0.16376
0.730129 0.137407 0.193072
0.793484 0.154925 0.21973
0.852979 0.171206 0.243412
0.905196 0.187015 0.265019
0.947707 0.199817 0.282032
0.963348 0.207065 0.297887
0.9635 0.21323 0.31043
0.963623 0.218402 0.319875
0.963851 0.222736 0.328618
0.963867 0.226001 0.336217
0.964263 0.229236 0.340673
0.964706 0.231815 0.346212
0.964965 0.233829 0.34992
0.965164 0.235355 0.353643
0.965515 0.236576 0.358328
0.00820935 0.038407 0.0102846
0.00677501 0.0267643 0.0133211
0.00683604 0.0342565 0.0157778
0.00691234 0.0417945 0.0183566
0.00814832 0.0434577 0.0145418
0.0204471 0.0368658 0.0121004
0.0483711 0.0343633 0.0114595
0.0981003 0.0298466 0.0122683
0.148257 0.0256809 0.0137636
0.204883 0.0301671 0.0271153
0.256825 0.0365606 0.0437324
0.309514 0.0440223 0.0600748
0.362127 0.0531167 0.073579
0.416541 0.0634928 0.0832837
0.473045 0.0756847 0.0863203
0.533791 0.0896468 0.092958
0.597406 0.104814 0.114137
0.66099 0.120363 0.146731
0.726009 0.137469 0.178286
0.789487 0.155093 0.206577
0.848768 0.17113 0.231495
0.901091 0.18645 0.252964
0.942397 0.199405 0.269459
0.963302 0.207507 0.286
0.963394 0.213626 0.299855
0.963592 0.218906 0.311727
0.963836 0.223438 0.319112
0.963821 0.226719 0.327214
0.963943 0.229679 0.331884
0.964202 0.231983 0.338415
0.964446 0.233997 0.342489
0.964706 0.235645 0.346227
0.964721 0.23714 0.345586
0.00709544 0.0534676 0.0226902
0.00715648 0.0612497 0.0256199
0.00720226 0.0688029 0.0284581
0.00732433 0.0757305 0.0313725
0.00932326 0.071809 0.0212253
0.0213474 0.061387 0.0144808
0.0372473 0.0607309 0.0171054
0.0827955 0.0570077 0.0156405
0.133715 0.0508125 0.0148318
0.187457 0.041886 0.0160372
0.243442 0.0390784 0.0192569
0.301747 0.0444495 0.0330816
0.356909 0.053727 0.0489662
0.412222 0.0638285 0.059266
0.468818 0.0759594 0.0634623
0.529763 0.0898146 0.070985
0.593408 0.104799 0.0901808
0.657023 0.120531 0.127337
0.721691 0.137423 0.162051
0.785595 0.155001 0.192493
0.844282 0.171084 0.218631
0.897108 0.186038 0.240452
0.938811 0.199237 0.258366
0.962997 0.20766 0.274174
0.963272 0.213977 0.288472
0.963439 0.219272 0.301427
0.963821 0.224002 0.311116
0.963821 0.227527 0.317449
0.963958 0.230564 0.322423
0.96405 0.232547 0.330999
0.964004 0.234485 0.33286
0.964096 0.236347 0.333165
0.964385 0.237385 0.339879
0.00735485 0.0931716 0.0395666
0.00729381 0.0995041 0.042771
0.00721752 0.105119 0.0457465
0.00735485 0.110414 0.0485695
0.0103151 0.102586 0.0318761
0.0193179 0.0923781 0.0202029
0.0365606 0.0868238 0.0205997
0.0648661 0.0875563 0.023209
0.118578 0.0826886 0.019852
0.173709 0.0741436 0.0174563
0.229709 0.06421 0.0178683
0.283803 0.0545357 0.018677
0.342687 0.0592203 0.0207828
0.401801 0.0678721 0.0313725
0.458961 0.0802167 0.0377203
0.521111 0.0939651 0.0477302
0.585367 0.108217 0.063035
0.651698 0.121065 0.0991379
0.716396 0.138003 0.139147
0.780179 0.154757 0.172976
0.83888 0.171206 0.202274
0.89221 0.185718 0.224582
0.934676 0.1991 0.244205
0.962493 0.207614 0.260899
0.962997 0.21416 0.276631
0.963226 0.219547 0.289708
0.963592 0.224338 0.300267
0.963806 0.228122 0.309178
0.963989 0.231205 0.315435
0.964096 0.233555 0.321233
0.964019 0.235386 0.324163
0.964111 0.23711 0.326116
0.964172 0.237827 0.333593
0.00704967 0.134249 0.0648051
0.0069276 0.139956 0.0688487
0.00697337 0.144625 0.072282
0.00846876 0.14316 0.0643931
0.0115816 0.136217 0.0465858
0.0163882 0.128145 0.0289006
0.0333104 0.116976 0.02327
0.05449 0.119448 0.0268101
0.098909 0.119203 0.0299687
0.15491 0.115328 0.0246891
0.214847 0.107744 0.0210269
0.27277 0.0972915 0.0213626
0.328557 0.0855573 0.0215915
0.383993 0.0762036 0.0223087
0.447196 0.0870832 0.024094
0.510536 0.0999619 0.025864
0.574044 0.114137 0.0364233
0.642176 0.124987 0.0691539
0.71046 0.138293 0.107256
0.773342 0.154665 0.146059
0.832319 0.171038 0.178424
0.885756 0.185946 0.205631
0.930037 0.198688 0.226505
0.962158 0.207614 0.247105
0.962615 0.214206 0.264469
0.962936 0.21973 0.277989
0.963317 0.224506 0.289586
0.9635 0.228351 0.298665
0.963836 0.231754 0.305592
0.964126 0.234501 0.310689
0.964034 0.236042 0.317311
0.964126 0.237705 0.320058
0.964202 0.2392 0.320516
0.00648508 0.17641 0.0976425
0.00650034 0.181308 0.101747
0.00750744 0.181933 0.0977035
0.0101625 0.176928 0.0808423
0.0132906 0.170718 0.0628519
0.0167086 0.163729 0.0434424
0.0307012 0.153246 0.0313115
0.0545052 0.149386 0.0306401
0.0827649 0.154437 0.0341344
0.135241 0.153903 0.0388342
0.195956 0.149722 0.0289769
0.25716 0.143435 0.0246433
0.316365 0.134981 0.0252842
0.37409 0.125246 0.0249332
0.432532 0.112215 0.0251469
0.496712 0.109483 0.0264591
0.560906 0.123217 0.0281071
0.630411 0.132906 0.0356756
0.698314 0.143938 0.0719768
0.765103 0.156313 0.111818
0.825086 0.170138 0.148318
0.87921 0.185718 0.182498
0.924498 0.198688 0.206638
0.958923 0.207889 0.226703
0.961807 0.214496 0.245411
0.962509 0.220081 0.261677
0.962951 0.224857 0.275456
0.963073 0.228611 0.285527
0.963455 0.232013 0.293843
0.963821 0.23476 0.301534
0.963897 0.236774 0.306157
0.964096 0.238575 0.309621
0.964202 0.239765 0.314382
0.00590524 0.219883 0.133928
0.0074464 0.219974 0.127642
0.00996414 0.216403 0.113802
0.0128786 0.211673 0.097322
0.0158236 0.205875 0.0787823
0.0191348 0.199649 0.059678
0.0292973 0.191028 0.0424811
0.0506447 0.180865 0.0339361
0.0777447 0.188128 0.0393835
0.115908 0.19115 0.0428321
0.175875 0.190234 0.0472572
0.238834 0.186618 0.0324407
0.300999 0.180774 0.0284276
0.361181 0.172641 0.0283055
0.423026 0.161685 0.0281529
0.483726 0.146334 0.0281682
0.545159 0.13283 0.0280461
0.61471 0.142947 0.0295262
0.684215 0.152743 0.0315404
0.750484 0.163058 0.0665446
0.81297 0.174685 0.105806
0.869444 0.185611 0.141619
0.91783 0.198825 0.175402
0.954101 0.20882 0.200809
0.961746 0.215091 0.220615
0.962097 0.220615 0.239277
0.962509 0.225498 0.255283
0.962707 0.229236 0.268284
0.963012 0.232547 0.277897
0.963317 0.235264 0.286412
0.963409 0.237339 0.291676
0.963684 0.239124 0.297292
0.96379 0.24062 0.298894
0.00874342 0.256794 0.15111
0.0108797 0.255116 0.141634
0.0134585 0.25127 0.128008
0.0163882 0.246708 0.112398
0.0192569 0.241154 0.0941787
0.0224308 0.235523 0.0755322
0.0287938 0.22826 0.0545815
0.0497444 0.218936 0.0455024
0.0769207 0.22092 0.0431373
0.104128 0.227436 0.047364
0.158694 0.228931 0.0517739
0.220401 0.227497 0.0558938
0.283864 0.223789 0.0359503
0.346578 0.217502 0.0315099
0.410269 0.208118 0.0318761
0.472801 0.195178 0.0310063
0.533913 0.178988 0.0307774
0.596124 0.158679 0.0300755
0.666239 0.163058 0.0317845
0.733227 0.172763 0.0337072
0.795804 0.181811 0.051194
0.853407 0.192447 0.090135
0.90483 0.202487 0.128817
0.94641 0.210513 0.161822
0.96054 0.215579 0.18677
0.961288 0.221515 0.208499
0.962005 0.226261 0.225849
0.962264 0.230152 0.242588
0.962631 0.233539 0.254978
0.962905 0.23624 0.264622
0.962951 0.238193 0.272374
0.963165 0.239841 0.280842
0.963333 0.24123 0.285435
0.0131991 0.293263 0.16492
0.0153506 0.291341 0.155428
0.0180056 0.287312 0.142229
0.020798 0.282673 0.127367
0.0236973 0.277531 0.110582
0.0266117 0.271992 0.0917678
0.030518 0.265721 0.0686656
0.0506752 0.257084 0.057847
0.0771496 0.254871 0.0492714
0.100267 0.262745 0.0521706
0.142702 0.266926 0.05626
0.205859 0.267124 0.0615854
0.26688 0.265385 0.0631113
0.329732 0.260822 0.0383154
0.394675 0.253178 0.0357061
0.458671 0.241596 0.0348974
0.521309 0.226581 0.0340887
0.583719 0.209415 0.0336614
0.646571 0.188693 0.033051
0.711376 0.18381 0.0336767
0.77496 0.191791 0.0355993
0.83415 0.200687 0.0382391
0.887129 0.209766 0.0659953
0.932464 0.218006 0.105425
0.960143 0.222736 0.141253
0.960174 0.225498 0.167865
0.960861 0.228199 0.188891
0.961364 0.231174 0.206836
0.961913 0.234531 0.221164
0.962325 0.237232 0.235294
0.962478 0.239292 0.245472
0.962722 0.241108 0.253346
0.962951 0.24239 0.262562
0.0189975 0.329763 0.176837
0.0210727 0.32723 0.167544
0.0237888 0.323156 0.154742
0.0263676 0.318456 0.140475
0.0291905 0.313619 0.124987
0.0319371 0.308446 0.10721
0.0356603 0.302373 0.0844587
0.0535286 0.294713 0.0710918
0.0803845 0.292256 0.0621653
0.0984817 0.297902 0.057557
0.12958 0.304372 0.0616312
0.190936 0.306462 0.0664225
0.254612 0.305821 0.0730297
0.313619 0.302739 0.0691386
0.377142 0.296254 0.0399634
0.441962 0.286931 0.0394141
0.505058 0.273289 0.0379339
0.567697 0.256718 0.0369573
0.630671 0.238804 0.0364385
0.690578 0.218341 0.0356909
0.749752 0.203235 0.0356451
0.810193 0.211368 0.0378119
0.86569 0.219638 0.0430762
0.914961 0.226856 0.0455177
0.952712 0.231495 0.0697185
0.959472 0.234546 0.10547
0.960372 0.237598 0.137819
0.960815 0.238697 0.162402
0.961028 0.23946 0.181292
0.961334 0.240223 0.196384
0.961593 0.240787 0.206958
0.961898 0.242191 0.217716
0.962127 0.243473 0.225803
0.0260929 0.366506 0.187228
0.0280308 0.363622 0.178134
0.030518 0.359609 0.166278
0.0329137 0.354971 0.152819
0.035584 0.350271 0.138338
0.0381323 0.34551 0.122499
0.0416266 0.340063 0.100954
0.0570382 0.333303 0.0861524
0.0815137 0.330373 0.0775311
0.101427 0.337469 0.0725872
0.122515 0.342168 0.0669108
0.174792 0.34551 0.0707561
0.2439 0.345251 0.0759136
0.302846 0.343191 0.0843671
0.360296 0.338033 0.0712902
0.422324 0.330068 0.0434424
0.485649 0.317815 0.0425422
0.548165 0.30367 0.0411383
0.611139 0.287053 0.0401312
0.670939 0.267964 0.0387732
0.728145 0.248356 0.0382849
0.783032 0.231449 0.038468
0.838163 0.230106 0.0407263
0.890471 0.23769 0.0450446
0.935546 0.243183 0.0471962
0.959747 0.245182 0.0475929
0.959686 0.246143 0.0603647
0.960098 0.248646 0.0903639
0.960433 0.249699 0.120806
0.960952 0.250263 0.143832
0.961212 0.250004 0.161379
0.961364 0.24979 0.17496
0.961486 0.249424 0.183886
0.034165 0.403021 0.194522
0.0360418 0.399558 0.185336
0.0381781 0.395865 0.175021
0.0404974 0.390997 0.161593
0.043061 0.386465 0.147311
0.0455177 0.381552 0.13164
0.0488899 0.375891 0.110002
0.0656443 0.37023 0.0981613
0.0863813 0.368994 0.0908827
0.105837 0.376776 0.0869459
0.124102 0.382132 0.0800793
0.166629 0.383612 0.0746319
0.232822 0.384054 0.0788434
0.292378 0.382864 0.0864576
0.34966 0.381064 0.0990921
0.405402 0.372946 0.073579
0.465095 0.361913 0.0471656
0.526726 0.349142 0.0454871
0.588067 0.333745 0.0443122
0.647578 0.316045 0.0426947
0.703685 0.296681 0.0417945
0.757671 0.277974 0.0410925
0.81117 0.263386 0.041413
0.86067 0.252064 0.0449683
0.909651 0.254856 0.0469368
0.950149 0.259022 0.0485542
0.960494 0.259937 0.0484932
0.960555 0.260761 0.0485695
0.960586 0.261341 0.0486152
0.960571 0.260838 0.0599985
0.960647 0.260258 0.0832837
0.960433 0.260121 0.109056
0.9608 0.25977 0.114916
0.0433509 0.438254 0.200198
0.0454261 0.433585 0.188708
0.0473793 0.428641 0.176211
0.0496834 0.423926 0.162722
0.052018 0.418921 0.147753
0.0545815 0.414466 0.13225
0.0618906 0.409522 0.116533
0.0780041 0.405478 0.109102
0.094789 0.407553 0.104646
0.111696 0.417288 0.102876
0.128557 0.422843 0.0964981
0.16318 0.422309 0.0825513
0.220691 0.422553 0.0819562
0.280385 0.422477 0.0888075
0.337545 0.421653 0.100221
0.395132 0.419196 0.114427
0.448402 0.407492 0.0773785
0.504677 0.393835 0.0509651
0.563058 0.378592 0.0492256
0.619745 0.361059 0.0469215
0.675746 0.342962 0.0453803
0.728679 0.323735 0.0444038
0.78613 0.309651 0.0439155
0.838132 0.298344 0.0449378
0.884276 0.287999 0.0483253
0.9252 0.279744 0.0489357
0.959106 0.274022 0.0495155
0.960754 0.274556 0.0495155
0.961028 0.275059 0.0494545
0.961028 0.274998 0.0494545
0.96112 0.274434 0.0495003
0.961089 0.271794 0.0493324
0.961028 0.275593 0.049485
0.0526284 0.477516 0.215686
0.0545968 0.472663 0.204196
0.0564279 0.467552 0.192355
0.0584878 0.462806 0.180163
0.0607767 0.458015 0.166552
0.0631571 0.453849 0.152544
0.0671092 0.449042 0.135363
0.0821851 0.445624 0.128298
0.0974136 0.447471 0.123949
0.114397 0.458137 0.122789
0.130297 0.46566 0.11783
0.157961 0.465812 0.104799
0.200687 0.461265 0.0868696
0.264363 0.461845 0.0920882
0.322621 0.460487 0.100084
0.379614 0.45893 0.113085
0.437049 0.456062 0.129992
0.485863 0.439307 0.0806744
0.537377 0.422599 0.0537728
0.591196 0.404379 0.0519265
0.643427 0.385611 0.0495766
0.711894 0.378424 0.0492866
0.774456 0.368841 0.0489967
0.831067 0.358816 0.0493935
0.877729 0.348898 0.0522469
0.919051 0.339452 0.0528572
0.951141 0.329244 0.0531014
0.962463 0.317968 0.0523995
0.961837 0.306722 0.051606
0.961349 0.297353 0.0509804
0.961196 0.287831 0.0503395
0.961227 0.289082 0.0504463
0.961257 0.296056 0.0508736
0.0623484 0.516991 0.231662
0.0641031 0.512078 0.220737
0.0656748 0.507103 0.209232
0.0674601 0.502174 0.197742
0.0690929 0.497215 0.185519
0.0710918 0.493187 0.173083
0.0736095 0.488594 0.156329
0.0855879 0.48484 0.146975
0.0990616 0.48658 0.143694
0.11603 0.497978 0.143236
0.13109 0.506325 0.139895
0.152102 0.508232 0.128832
0.192645 0.505028 0.111131
0.244785 0.499641 0.0947585
0.304555 0.497871 0.10016
0.360342 0.495354 0.109194
0.41735 0.494072 0.12462
0.475288 0.490959 0.142992
0.517739 0.468635 0.0827497
0.563149 0.447181 0.0563058
0.627237 0.439796 0.055787
0.698009 0.435813 0.0556344
0.762646 0.429053 0.0552071
0.820218 0.420996 0.0549172
0.872038 0.411872 0.0573434
0.913314 0.402274 0.0586252
0.947295 0.392447 0.0579385
0.964996 0.381064 0.0566567
0.96466 0.370489 0.0558938
0.964065 0.360708 0.0550698
0.963653 0.351995 0.0544594
0.963394 0.344335 0.0540017
0.963195 0.337011 0.0535897
0.0710155 0.557061 0.250462
0.0723125 0.551736 0.239963
0.0737926 0.546853 0.229465
0.0750896 0.542077 0.218708
0.076585 0.537575 0.207721
0.0779889 0.533074 0.196262
0.0801862 0.528344 0.181796
0.086244 0.523888 0.166018
0.10013 0.523369 0.161608
0.114977 0.533745 0.162524
0.13019 0.545449 0.161639
0.151141 0.549325 0.153979
0.186221 0.547372 0.138415
0.231327 0.540795 0.114992
0.281666 0.533791 0.100038
0.33724 0.530877 0.106416
0.392279 0.527016 0.115984
0.450629 0.525567 0.133822
0.508461 0.522988 0.154147
0.543313 0.493782 0.0841077
0.610208 0.492103 0.0624552
0.682002 0.492683 0.0618448
0.749706 0.490089 0.0617075
0.809644 0.484245 0.0615091
0.862852 0.477256 0.0636606
0.909499 0.469581 0.0650492
0.943618 0.460166 0.0643168
0.967514 0.449226 0.0632486
0.966735 0.438407 0.0624399
0.966217 0.428626 0.0616312
0.966003 0.420096 0.0606394
0.965927 0.412802 0.0599069
0.96556 0.406973 0.0593881
0.077821 0.600946 0.277531
0.0790112 0.595697 0.26804
0.0800183 0.590494 0.258625
0.0812543 0.585443 0.248844
0.0823529 0.580331 0.238514
0.0836347 0.575982 0.228626
0.0851606 0.570489 0.215244
0.0876783 0.563897 0.196857
0.0955367 0.559457 0.179889
0.110246 0.563485 0.177569
0.126299 0.579782 0.180621
0.145892 0.587182 0.176364
0.176684 0.587442 0.164538
0.218067 0.582147 0.144747
0.262119 0.572564 0.117464
0.311086 0.564172 0.103395
0.366247 0.559014 0.109255
0.421256 0.554696 0.120653
0.480217 0.553918 0.141466
0.538643 0.552254 0.162997
0.592233 0.540627 0.0990158
0.666056 0.546639 0.0687572
0.736248 0.549126 0.0690013
0.79942 0.54757 0.0694591
0.854261 0.542977 0.0704662
0.901442 0.537865 0.0710155
0.941726 0.530678 0.0723583
0.967681 0.520363 0.0719615
0.970275 0.509804 0.0706188
0.969665 0.499931 0.0693675
0.96936 0.491463 0.0681315
0.969131 0.485664 0.0674296
0.968933 0.479347 0.0666056
0.0844434 0.643793 0.30396
0.0852216 0.638376 0.295323
0.086244 0.632914 0.286229
0.0870832 0.62768 0.277317
0.0881056 0.622568 0.267948
0.0891127 0.617655 0.258427
0.0902876 0.611749 0.246433
0.0921645 0.604471 0.229557
0.0953231 0.596735 0.206806
0.106828 0.593912 0.191852
0.120974 0.606363 0.194766
0.140047 0.621668 0.196033
0.165881 0.624079 0.187304
0.203861 0.620066 0.171145
0.245441 0.610819 0.146883
0.288975 0.598566 0.114931
0.338369 0.588876 0.103395
0.397009 0.588876 0.113161
0.456413 0.589349 0.129488
0.515114 0.588083 0.152285
0.5729 0.586099 0.175555
0.647501 0.595758 0.121584
0.720531 0.603494 0.0768444
0.787808 0.60737 0.0772869
0.846143 0.607813 0.0785229
0.895399 0.605371 0.0810864
0.936461 0.601251 0.0816205
0.967163 0.595315 0.0819562
0.973495 0.584878 0.0801404
0.973175 0.575311 0.0784772
0.972915 0.566934 0.077409
0.972641 0.560876 0.0766613
0.9729 0.556329 0.0762036
0.0919356 0.690333 0.333394
0.0922103 0.683131 0.324147
0.0923476 0.675807 0.314611
0.0926986 0.668864 0.304967
0.0935073 0.663874 0.296452
0.0941787 0.658595 0.287282
0.0952163 0.652613 0.276326
0.0967727 0.643977 0.259968
0.0988785 0.634379 0.23859
0.102815 0.626169 0.212039
0.118669 0.628626 0.204456
0.134676 0.649805 0.210895
0.158053 0.656519 0.206302
0.19234 0.65359 0.193011
0.231327 0.645655 0.172732
0.27718 0.642847 0.148775
0.326345 0.6383 0.117281
0.386679 0.639887 0.118364
0.449653 0.643 0.132052
0.511528 0.643091 0.151492
0.570169 0.640955 0.174746
0.628031 0.639185 0.197421
0.702678 0.651942 0.147784
0.773983 0.661357 0.0860304
0.836637 0.668101 0.088014
0.889662 0.671016 0.0908675
0.932708 0.670329 0.0922103
0.965698 0.66746 0.0925917
0.976959 0.662318 0.0917067
0.976593 0.653544 0.0903182
0.976287 0.645579 0.0890822
0.976089 0.639673 0.0882124
0.97586 0.636011 0.0875715
0.102129 0.74873 0.370504
0.102098 0.741573 0.361776
0.102266 0.734905 0.353506
0.102464 0.728084 0.344884
0.102708 0.721431 0.336202
0.1028 0.714961 0.327459
0.103151 0.706966 0.316106
0.103685 0.696132 0.299947
0.104799 0.682795 0.27808
0.106538 0.668086 0.248859
0.11281 0.656229 0.217517
0.130999 0.666163 0.217639
0.153399 0.689494 0.224567
0.186221 0.696712 0.218326
0.227695 0.698619 0.205982
0.275288 0.69778 0.187442
0.324208 0.69453 0.159319
0.373434 0.689632 0.125048
0.439277 0.693263 0.136461
0.505379 0.695949 0.152316
0.568887 0.697032 0.173861
0.62649 0.694621 0.197711
0.681895 0.69247 0.220005
0.757916 0.70837 0.177447
0.825742 0.721431 0.0965896
0.884428 0.731472 0.101091
0.930541 0.736736 0.103227
0.964721 0.738354 0.103731
0.979263 0.736385 0.103304
0.97879 0.734585 0.102998
0.978988 0.728985 0.102266
0.978668 0.722728 0.101289
0.978271 0.719905 0.100969
0.111711 0.807324 0.407568
0.111818 0.801968 0.401022
0.11191 0.795468 0.393118
0.111849 0.78912 0.385275
0.111971 0.782574 0.376913
0.112123 0.776837 0.369574
0.1122 0.76875 0.359396
0.112596 0.757992 0.344961
0.113085 0.74377 0.324712
0.114275 0.728145 0.298604
0.116762 0.710979 0.264378
0.125872 0.704845 0.237552
0.146242 0.730205 0.246876
0.177478 0.746471 0.247059
0.220935 0.750057 0.236652
0.271443 0.750027 0.220188
0.321538 0.747951 0.19733
0.370733 0.744045 0.163653
0.428855 0.74168 0.140841
0.497704 0.746136 0.15494
0.564477 0.749416 0.174365
0.628595 0.751003 0.195987
0.683528 0.747784 0.219867
0.73518 0.744762 0.241794
0.810636 0.765896 0.207904
0.875837 0.782696 0.118273
0.92752 0.796155 0.112673
0.964996 0.804059 0.115175
0.981308 0.807111 0.11577
0.981445 0.808972 0.116091
0.981262 0.811429 0.116533
0.981094 0.809049 0.116106
0.981277 0.806745 0.115709
0.120745 0.866697 0.446006
0.120836 0.86157 0.439933
0.120729 0.855253 0.43238
0.120806 0.84889 0.424628
0.120851 0.843641 0.418235
0.120836 0.837537 0.410864
0.120943 0.831037 0.402777
0.121065 0.821286 0.39028
0.121279 0.807309 0.371511
0.121904 0.790814 0.348043
0.123247 0.771298 0.316777
0.126665 0.753826 0.278309
0.138979 0.758495 0.260471
0.166293 0.792569 0.272709
0.213031 0.800885 0.265339
0.264393 0.801953 0.251118
0.31664 0.800305 0.231052
0.369223 0.796841 0.201907
0.421469 0.791226 0.158877
0.488716 0.793805 0.156329
0.559335 0.798367 0.173739
0.627329 0.802518 0.195132
0.689326 0.804654 0.217868
0.741253 0.801343 0.241474
0.787839 0.797955 0.262989
0.862364 0.823941 0.239231
0.922789 0.844831 0.162264
0.96611 0.860761 0.125292
0.983215 0.870069 0.127077
0.983536 0.876875 0.128664
0.983612 0.882445 0.129793
0.983734 0.888792 0.13109
0.983886 0.891783 0.131746
0.128664 0.9131 0.479759
0.128679 0.912734 0.474586
0.128679 0.912398 0.469795
0.128756 0.907774 0.463584
0.128725 0.903105 0.45803
0.128695 0.898924 0.45304
0.128786 0.892927 0.445808
0.128862 0.884153 0.434775
0.128954 0.872709 0.41973
0.12929 0.858244 0.400183
0.129915 0.8374 0.370901
0.131655 0.814908 0.333471
0.136416 0.796994 0.290349
0.151934 0.816892 0.284672
0.204486 0.848936 0.291768
0.25774 0.851575 0.278691
0.312367 0.850614 0.260273
0.367926 0.84744 0.234348
0.422858 0.843061 0.19736
0.48072 0.838621 0.155459
0.554971 0.844617 0.171801
0.62649 0.850645 0.192737
0.693309 0.855421 0.215702
0.751858 0.857908 0.239292
0.798581 0.854139 0.262547
0.839506 0.850187 0.282216
0.911192 0.881285 0.273548
0.96437 0.905135 0.218753
0.984588 0.920287 0.161654
0.984527 0.932372 0.140414
0.984451 0.942046 0.142596
0.98439 0.950393 0.143999
0.984329 0.959854 0.145525
0.135058 0.915389 0.50724
0.135119 0.915175 0.504128
0.135241 0.914778 0.498177
0.135317 0.914519 0.494347
0.135439 0.91429 0.489784
0.135546 0.914107 0.485985
0.135668 0.913817 0.480766
0.135729 0.913268 0.472786
0.135805 0.912688 0.461173
0.135912 0.912108 0.446815
0.136202 0.905409 0.425788
0.136889 0.882445 0.392081
0.139239 0.855787 0.346792
