public/luts/TH_Studio_Mood_LUT_x33.cube
TITLE "Generated by Resolve"
LUT_3D_SIZE 5
0.00727855 0.00885023 0.00813306
0.222004 0.0284428 0.0481575
0.613443 0.103426 0.182986
0.96376 0.211933 0.335958
0.966308 0.234836 0.382315
0.00648508 0.17641 0.0976425
0.0827649 0.154437 0.0341344
0.560906 0.123217 0.0281071
0.961807 0.214496 0.245411
0.964202 0.239765 0.314382
0.0526284 0.477516 0.215686
0.0974136 0.447471 0.123949
0.437049 0.456062 0.129992
0.877729 0.348898 0.0522469
0.961257 0.296056 0.0508736
0.120745 0.866697 0.446006
0.121279 0.807309 0.371511
0.31664 0.800305 0.231052
0.787839 0.797955 0.262989
0.983886 0.891783 0.131746
0.0999313 0.917098 0.595224
0.102708 0.917098 0.5906
0.124514 0.916411 0.551324
0.951675 0.961486 0.191028
0.984176 0.965011 0.293462
0.0171206 0.0149081 0.172107
0.183932 0.0289769 0.175601
0.614069 0.102831 0.297871
0.966827 0.20621 0.404974
0.967727 0.229084 0.433616
0.00579843 0.14284 0.166461
0.0674449 0.140948 0.182895
0.602502 0.108171 0.202258
0.963623 0.211093 0.332296
0.966217 0.235691 0.376593
0.0348669 0.522789 0.34226
0.0662852 0.51516 0.270893
0.472129 0.491508 0.166094
0.894728 0.332906 0.0512703
0.961135 0.273106 0.0494392
0.118944 0.914717 0.519615
0.120867 0.864622 0.457359
0.28159 0.791501 0.245182
0.779507 0.790188 0.264866
0.983658 0.883406 0.130022
0.0964675 0.917159 0.602197
0.099382 0.917174 0.59733
0.121279 0.916609 0.558541
0.945449 0.961135 0.187518
0.984176 0.965042 0.29424
0.148547 0.0433356 0.516732
0.24918 0.0527199 0.53933
0.593973 0.125582 0.550378
0.975204 0.222354 0.627924
0.97557 0.240635 0.633921
0.0163424 0.0989548 0.483391
0.131548 0.0443427 0.539528
0.585946 0.129961 0.543557
0.973877 0.223743 0.591684
0.973632 0.241474 0.589715
0.037232 0.46569 0.477302
0.0564431 0.491859 0.50219
0.539788 0.557229 0.556497
0.969772 0.313771 0.4374
0.968277 0.255924 0.436179
0.0553597 0.919554 0.682383
0.0636149 0.91783 0.66183
0.17258 0.897902 0.463478
0.874907 0.896529 0.373953
0.981384 0.808072 0.115938
0.0673075 0.918471 0.657023
0.0704662 0.918379 0.652537
0.0948959 0.917754 0.615641
0.888762 0.957244 0.162921
0.984115 0.965255 0.30071
0.15021 0.112688 0.852811
0.27863 0.0849012 0.841169
0.636683 0.113985 0.847471
0.988663 0.258198 0.899718
0.990051 0.264622 0.936584
0.101061 0.158511 0.804318
0.174624 0.0981918 0.816114
0.600641 0.10959 0.834073
0.987655 0.259739 0.881422
0.990097 0.265843 0.936645
0.0378882 0.384909 0.751614
0.0486763 0.395026 0.780072
0.460777 0.281605 0.848692
0.972793 0.282094 0.851011
0.98909 0.272786 0.909087
0.114137 0.816587 0.80296
0.131273 0.846113 0.832959
0.183993 0.872694 0.860075
0.909026 0.915831 0.906264
0.987457 0.750393 0.809735
0.0101472 0.939712 0.963897
0.0104829 0.939727 0.963897
0.0143893 0.939818 0.963943
0.266575 0.92607 0.530846
0.983627 0.970596 0.456596
0.354681 0.0937209 0.895415
0.41387 0.0981765 0.898497
0.662531 0.121538 0.912505
0.98999 0.258839 0.936461
0.990295 0.280873 0.937118
0.269642 0.0905928 0.892012
0.350134 0.0932631 0.89514
0.605493 0.115694 0.908934
0.989166 0.2551 0.936263
0.990387 0.284779 0.937407
0.10573 0.262577 0.865736
0.107454 0.271382 0.877501
0.384924 0.198337 0.901808
0.956756 0.270405 0.935958
0.990478 0.303777 0.938506
0.00167849 0.763012 0.910018
0.00155642 0.79765 0.925444
0.124163 0.816114 0.938506
0.866026 0.776501 0.963317
0.992584 0.756634 0.96762
0.0718242 0.942016 0.963958
0.0735637 0.942138 0.963973
0.0885481 0.942931 0.963836
0.367193 0.954711 0.962158
0.988754 0.992935 0.991135
