public/luts/TH_Street_Tones_LUT_x33.cube
TITLE "Generated by Resolve"
LUT_3D_SIZE 5
0.00189212 0.00955215 0.0109712
0.170916 0.0210727 0.033051
0.520806 0.0581369 0.139864
0.929335 0.202609 0.336065
0.940703 0.239597 0.406165
0.00267033 0.14519 0.049485
0.145144 0.125963 0.0189212
0.565438 0.088838 0.0135042
0.930007 0.210895 0.282567
0.938628 0.23975 0.29604
0.0848402 0.554452 0.301106
0.174075 0.5346 0.180331
0.694987 0.531624 0.0940108
0.994064 0.439429 0.0495613
1 0.540215 0.182879
0.277989 0.928344 0.606928
0.293751 0.927047 0.591089
0.720043 0.906386 0.302052
1 0.902052 0.322438
1 0.913176 0.291356
0.162478 0.93579 0.721508
0.171832 0.935882 0.717052
0.241443 0.937606 0.678355
1 0.968551 0.380911
1 0.971603 0.412665
0 0.0111391 0.12462
0.125414 0.0177005 0.139345
0.467918 0.0480812 0.224918
0.931853 0.204929 0.398245
0.946227 0.252445 0.497078
0 0.124056 0.129595
0.100984 0.107805 0.113619
0.506325 0.0633555 0.146914
0.932021 0.210315 0.349599
0.947478 0.259541 0.436515
0.0483101 0.569299 0.374136
0.0960555 0.560128 0.321004
0.638132 0.546059 0.174701
0.998917 0.455344 0.141115
1 0.514488 0.295933
0.267292 0.933745 0.628763
0.283055 0.932326 0.61384
0.622248 0.907271 0.304555
1 0.910796 0.340642
1 0.9037 0.284184
0.134539 0.935897 0.738964
0.145449 0.936034 0.734173
0.218616 0.937423 0.697597
1 0.968826 0.383734
1 0.971618 0.412879
0.0514687 0 0.476127
0.115404 0 0.465232
0.428733 0.0657054 0.506477
0.926696 0.238361 0.639399
0.949508 0.279515 0.68101
0 0.0341955 0.426383
0.0565957 0 0.451362
0.445823 0.0841688 0.494347
0.944366 0.246693 0.614847
0.951553 0.286259 0.651102
0.0327611 0.55375 0.575799
0.0419471 0.550988 0.572808
0.486503 0.557275 0.563516
0.991714 0.434363 0.525002
0.992279 0.450263 0.587289
0.158053 0.933089 0.749233
0.175937 0.932616 0.74197
0.333227 0.923995 0.639292
1 0.921538 0.427405
1 0.888197 0.356603
0.0279698 0.934905 0.804837
0.031693 0.93489 0.802563
0.0732586 0.935866 0.781903
1 0.972168 0.418555
1 0.971923 0.415946
0.106935 0 0.759396
0.141299 0 0.756252
0.367803 0.0965133 0.806332
0.868727 0.281712 0.904601
0.938094 0.320668 0.947402
0.0228885 0.0201572 0.752621
0.0880598 0 0.745953
0.360632 0.0923476 0.795178
0.896757 0.297917 0.901427
0.939101 0.323751 0.942061
0 0.458305 0.81387
0 0.442893 0.813504
0.134661 0.34406 0.846494
0.888258 0.361975 0.877119
0.948043 0.340505 0.880125
0.0757305 0.904646 0.922805
0.0792859 0.903761 0.921462
0.0999313 0.898772 0.913848
0.891783 0.918883 0.910246
1 0.87837 0.898207
0 0.931182 0.979461
0 0.931228 0.979461
0.0049897 0.931868 0.979461
0.442527 0.96144 0.851377
1 1 0.83003
0 0.153445 0.823743
0 0.135225 0.82005
0 0.0818036 0.809705
0.743008 0.19971 0.911955
0.940352 0.336339 0.949493
0 0.188525 0.821424
0 0.17406 0.820905
0 0.105165 0.814298
0.794324 0.242771 0.924346
0.941497 0.344198 0.950362
0 0.481971 0.878065
0 0.475685 0.877974
0 0.444907 0.877653
0.755642 0.301366 0.92697
0.945815 0.370214 0.953597
0 0.894057 0.978683
0 0.892714 0.978637
0 0.88481 0.977996
0.74284 0.886992 0.997986
1 0.870787 1
0.0311437 0.935347 0.979843
0.0319371 0.935454 0.979858
0.0382849 0.936324 0.980026
0.123003 0.945724 0.98024
1 0.993744 0.994583
