public/luts/TH_Studio_Mood_LUT_x33.cube
TITLE "Generated by Resolve"
LUT_3D_SIZE 9
0.00727855 0.00885023 0.00813306
0.097322 0.0145724 0.0195163
0.222004 0.0284428 0.0481575
0.375509 0.0505531 0.140612
0.613443 0.103426 0.182986
0.866773 0.171832 0.277317
0.96376 0.211933 0.335958
0.965881 0.228489 0.367773
0.966308 0.234836 0.382315
0.00820935 0.038407 0.0102846
0.00814832 0.0434577 0.0145418
0.148257 0.0256809 0.0137636
0.362127 0.0531167 0.073579
0.597406 0.104814 0.114137
0.848768 0.17113 0.231495
0.963394 0.213626 0.299855
0.963943 0.229679 0.331884
0.964721 0.23714 0.345586
0.00648508 0.17641 0.0976425
0.0132906 0.170718 0.0628519
0.0827649 0.154437 0.0341344
0.316365 0.134981 0.0252842
0.560906 0.123217 0.0281071
0.825086 0.170138 0.148318
0.961807 0.214496 0.245411
0.963455 0.232013 0.293843
0.964202 0.239765 0.314382
0.0189975 0.329763 0.176837
0.0291905 0.313619 0.124987
0.0803845 0.292256 0.0621653
0.254612 0.305821 0.0730297
0.505058 0.273289 0.0379339
0.749752 0.203235 0.0356451
0.952712 0.231495 0.0697185
0.961028 0.23946 0.181292
0.962127 0.243473 0.225803
0.0526284 0.477516 0.215686
0.0607767 0.458015 0.166552
0.0974136 0.447471 0.123949
0.200687 0.461265 0.0868696
0.437049 0.456062 0.129992
0.643427 0.385611 0.0495766
0.877729 0.348898 0.0522469
0.961837 0.306722 0.051606
0.961257 0.296056 0.0508736
0.0844434 0.643793 0.30396
0.0881056 0.622568 0.267948
0.0953231 0.596735 0.206806
0.165881 0.624079 0.187304
0.338369 0.588876 0.103395
0.5729 0.586099 0.175555
0.846143 0.607813 0.0785229
0.973495 0.584878 0.0801404
0.9729 0.556329 0.0762036
0.120745 0.866697 0.446006
0.120851 0.843641 0.418235
0.121279 0.807309 0.371511
0.138979 0.758495 0.260471
0.31664 0.800305 0.231052
0.559335 0.798367 0.173739
0.787839 0.797955 0.262989
0.983215 0.870069 0.127077
0.983886 0.891783 0.131746
0.139651 0.918242 0.556497
0.141009 0.917754 0.546166
0.142565 0.917388 0.531014
0.145632 0.913359 0.467369
0.228779 0.914611 0.328115
0.554681 0.931502 0.15285
0.845411 0.955734 0.244129
0.977325 0.96614 0.324559
0.9841 0.965347 0.303761
0.0999313 0.917098 0.595224
0.10045 0.917098 0.594369
0.102708 0.917098 0.5906
0.107149 0.917067 0.582864
0.124514 0.916411 0.551324
0.185779 0.912245 0.343008
0.951675 0.961486 0.191028
0.984237 0.964752 0.285176
0.984176 0.965011 0.293462
0.00903334 0.0102693 0.0673075
0.0595712 0.0131685 0.0572671
0.186755 0.0242771 0.103975
0.366735 0.0504921 0.169528
0.614481 0.0997482 0.237217
0.868345 0.168093 0.317082
0.965499 0.209537 0.370703
0.966628 0.225757 0.396185
0.967025 0.232258 0.407996
0.00677501 0.0290837 0.0302586
0.014374 0.0281987 0.0378729
0.171206 0.0258183 0.0478981
0.368841 0.0529335 0.115373
0.606516 0.102708 0.192218
0.856977 0.169543 0.281651
0.963607 0.210773 0.331487
0.965728 0.228092 0.364752
0.966217 0.235309 0.377157
0.00569161 0.167407 0.121584
0.0135348 0.168521 0.0720989
0.0963912 0.153017 0.0390478
0.337194 0.116121 0.0238499
0.587747 0.106233 0.0792859
0.83563 0.17052 0.21471
0.963287 0.213779 0.290242
0.963958 0.230091 0.327138
0.96466 0.23743 0.34432
0.0152438 0.335042 0.207416
0.0262303 0.326711 0.162478
0.0684825 0.297993 0.0718395
0.260929 0.310857 0.082536
0.525567 0.267933 0.037583
0.771191 0.196704 0.0357977
0.959854 0.224872 0.135271
0.962036 0.23592 0.223697
0.963073 0.242908 0.268498
0.0484779 0.509239 0.277363
0.0572518 0.490608 0.236439
0.0716411 0.46244 0.158267
0.1879 0.474189 0.105394
0.449195 0.46865 0.143618
0.662776 0.390646 0.0506294
0.877073 0.336049 0.0511177
0.961929 0.308049 0.0517128
0.961181 0.287419 0.050309
0.0838636 0.675181 0.351507
0.0879225 0.655543 0.319677
0.0944381 0.623926 0.263279
0.152682 0.634897 0.203174
0.340261 0.60441 0.1205
0.578561 0.591882 0.182925
0.844434 0.602472 0.0775006
0.973678 0.578088 0.0790112
0.97232 0.548928 0.0753948
0.120668 0.888518 0.476081
0.120821 0.86566 0.449943
0.121141 0.829404 0.406363
0.130083 0.749798 0.267796
0.303517 0.796948 0.236591
0.552575 0.795544 0.177172
0.784451 0.794903 0.2636
0.983261 0.867582 0.12668
0.983734 0.888334 0.131014
0.138216 0.91873 0.566674
0.13962 0.918379 0.558251
0.141497 0.917723 0.543801
0.145388 0.914778 0.484138
0.212589 0.913619 0.329305
0.549035 0.931319 0.159884
0.842374 0.955581 0.244648
0.976135 0.966155 0.325093
0.9841 0.965362 0.304158
0.0985428 0.917128 0.598032
0.0994888 0.917128 0.596399
0.101183 0.917113 0.593576
0.106416 0.917098 0.584634
0.12369 0.916487 0.553307
0.18436 0.912169 0.344015
0.949371 0.961288 0.189685
0.984237 0.964752 0.285344
0.984176 0.965026 0.293767
0.0171206 0.0149081 0.172107
0.0861677 0.0187839 0.155947
0.183932 0.0289769 0.175601
0.361074 0.0543221 0.245716
0.614069 0.102831 0.297871
0.869703 0.16672 0.359594
0.966827 0.20621 0.404974
0.967453 0.222065 0.42594
0.967727 0.229084 0.433616
0.00669871 0.0309758 0.122026
0.018204 0.0158846 0.190921
0.16144 0.0297704 0.190692
0.366308 0.0576028 0.223163
0.608835 0.10425 0.265873
0.859648 0.166613 0.332448
0.965637 0.20795 0.3738
0.96669 0.225025 0.398871
0.967086 0.231998 0.411002
0.00579843 0.14284 0.166461
0.00587472 0.148806 0.177218
0.0674449 0.140948 0.182895
0.358099 0.0834821 0.145968
0.602502 0.108171 0.202258
0.848005 0.16849 0.284398
0.963623 0.211093 0.332296
0.965606 0.228321 0.362478
0.966217 0.235691 0.376593
0.00544747 0.322133 0.254643
0.0125582 0.329686 0.242191
0.0348669 0.335348 0.189593
0.266331 0.325216 0.111223
0.566186 0.259205 0.0622721
0.806928 0.184833 0.073228
0.961776 0.218128 0.219821
0.962951 0.235721 0.268177
0.964218 0.241703 0.309453
0.0348669 0.522789 0.34226
0.0467079 0.528206 0.324437
0.0662852 0.51516 0.270893
0.179767 0.494255 0.140185
0.472129 0.491508 0.166094
0.694774 0.400092 0.0514534
0.894728 0.332906 0.0512703
0.962676 0.320958 0.0526436
0.961135 0.273106 0.0494392
0.0791333 0.713726 0.417929
0.0856641 0.702693 0.393256
0.0938888 0.6757 0.345174
0.138186 0.646769 0.222416
0.344198 0.630823 0.151431
0.603952 0.616831 0.202609
0.841901 0.593835 0.076051
0.9729 0.566705 0.0773785
0.972076 0.53669 0.0739147
0.118944 0.914717 0.519615
0.119997 0.899138 0.497505
0.120867 0.864622 0.457359
0.125582 0.756588 0.309239
0.28159 0.791501 0.245182
0.541543 0.790967 0.182773
0.779507 0.790188 0.264866
0.983063 0.863218 0.125658
0.983658 0.883406 0.130022
0.134859 0.919326 0.584665
0.136736 0.919097 0.576089
0.139361 0.918563 0.562081
0.144701 0.916335 0.508553
0.191135 0.912047 0.328969
0.53959 0.930938 0.171542
0.837171 0.955322 0.245396
0.974304 0.966186 0.325978
0.984085 0.965377 0.304799
0.0964675 0.917159 0.602197
0.0979019 0.917174 0.599802
0.099382 0.917174 0.59733
0.104662 0.917159 0.588418
0.121279 0.916609 0.558541
0.180453 0.912016 0.346944
0.945449 0.961135 0.187518
0.984237 0.964767 0.285389
0.984176 0.965042 0.29424
0.0500954 0.0243381 0.317128
0.12401 0.028397 0.313756
0.228885 0.0357061 0.309773
0.353475 0.063508 0.364187
0.607614 0.109514 0.407935
0.872709 0.172839 0.45864
0.969635 0.211627 0.486503
0.970245 0.225635 0.498894
0.970321 0.231022 0.500938
0.00663767 0.0431678 0.313832
0.0577859 0.0272221 0.356863
0.180407 0.0348363 0.363882
0.349447 0.0650187 0.363577
0.604303 0.111513 0.392615
0.863798 0.173159 0.439445
0.968566 0.213642 0.459586
0.969268 0.227985 0.471794
0.969299 0.233387 0.471702
0.00593576 0.119661 0.304845
0.00627146 0.0883192 0.332799
0.0261234 0.0321965 0.359152
0.3393 0.0684672 0.357549
0.604807 0.11696 0.369345
0.85481 0.175463 0.406531
0.967636 0.215427 0.434012
0.968154 0.230472 0.443626
0.968215 0.235569 0.445457
0.0133059 0.290059 0.314809
0.0180056 0.295735 0.321431
0.0291295 0.305852 0.333318
0.242664 0.325414 0.352865
0.62414 0.22472 0.290532
0.844404 0.184237 0.307134
0.965103 0.219928 0.357412
0.965911 0.237217 0.363943
0.966583 0.239338 0.389471
0.0173953 0.494514 0.387686
0.0251621 0.50248 0.383444
0.0411688 0.520256 0.374853
0.105943 0.539117 0.248661
0.517113 0.538781 0.218448
0.796262 0.44361 0.140429
0.962768 0.366262 0.137072
0.964736 0.3393 0.184817
0.961654 0.256291 0.170764
0.0496834 0.705058 0.479225
0.0545357 0.697643 0.466804
0.0703288 0.710445 0.459022
0.11812 0.729397 0.392737
0.396139 0.716503 0.246754
0.687175 0.702968 0.267933
0.83418 0.564416 0.0718547
0.971344 0.528878 0.0729839
0.969268 0.495033 0.0686503
0.093904 0.917052 0.604761
0.0971695 0.916838 0.595605
0.103227 0.914748 0.578012
0.119921 0.858137 0.482948
0.224842 0.798642 0.280873
0.503365 0.775662 0.202136
0.762692 0.774655 0.269383
0.982803 0.849149 0.122911
0.983246 0.86714 0.126574
0.119432 0.921172 0.637858
0.12224 0.920958 0.630808
0.126329 0.920623 0.619638
0.137972 0.919142 0.575692
0.158114 0.910491 0.34934
0.508095 0.929168 0.208988
0.819745 0.954009 0.248417
0.967147 0.965972 0.328511
0.984085 0.965438 0.306783
0.0908675 0.91725 0.613825
0.0914778 0.91725 0.612757
0.0935836 0.917266 0.609415
0.0984512 0.917311 0.601236
0.115419 0.916945 0.571252
0.169574 0.911513 0.353307
0.932891 0.960128 0.181216
0.984237 0.964767 0.285756
0.984161 0.965087 0.295689
0.148547 0.0433356 0.516732
0.349172 0.0550546 0.446006
0.24918 0.0527199 0.53933
0.386069 0.0650339 0.544259
0.593973 0.125582 0.550378
0.864225 0.183764 0.599954
0.975204 0.222354 0.627924
0.97554 0.236194 0.631159
0.97557 0.240635 0.633921
0.0412146 0.0601053 0.522896
0.121294 0.0438392 0.5364
0.206867 0.0495613 0.539239
0.370306 0.0634623 0.543297
0.585077 0.126131 0.542794
0.857328 0.183948 0.587747
0.974701 0.22269 0.613428
0.974655 0.237324 0.606836
0.974899 0.240986 0.614069
0.0163424 0.0989548 0.483391
0.0351263 0.0762341 0.515679
0.131548 0.0443427 0.539528
0.342931 0.0618143 0.544289
0.585946 0.129961 0.543557
0.852537 0.186389 0.573556
0.973877 0.223743 0.591684
0.972946 0.239078 0.584192
0.973632 0.241474 0.589715
0.00509651 0.261326 0.456504
0.00503548 0.25388 0.470695
0.00521859 0.24062 0.498116
0.200107 0.192111 0.569253
0.583047 0.143282 0.540093
0.851362 0.197925 0.54345
0.972641 0.230655 0.556512
0.972442 0.247684 0.546136
0.972259 0.24622 0.550835
0.037232 0.46569 0.477302
0.0437476 0.474372 0.485725
0.0564431 0.491859 0.50219
0.0899519 0.525948 0.533471
0.539788 0.557229 0.556497
0.876356 0.415076 0.468513
0.969772 0.313771 0.4374
0.968765 0.283284 0.429038
0.968277 0.255924 0.436179
0.0325017 0.713222 0.571801
0.0344549 0.704295 0.560922
0.0382849 0.689586 0.542672
0.0732891 0.703822 0.522911
0.244083 0.761501 0.343648
0.744747 0.761929 0.348943
0.951888 0.674083 0.284581
0.974807 0.596643 0.272877
0.971344 0.51162 0.228901
0.0553597 0.919554 0.682383
0.0581216 0.919142 0.674342
0.0636149 0.91783 0.66183
0.0808881 0.889326 0.61529
0.17258 0.897902 0.463478
0.64921 0.901473 0.355947
0.874907 0.896529 0.373953
0.969619 0.798657 0.114488
0.981384 0.808072 0.115938
0.0537423 0.924697 0.754269
0.0574807 0.924636 0.750072
0.0623178 0.924498 0.744121
0.0767376 0.923858 0.723903
0.123949 0.921309 0.633631
0.380941 0.922484 0.297658
0.756619 0.94992 0.266651
0.940993 0.952941 0.336934
0.984054 0.965728 0.313832
0.0673075 0.918471 0.657023
0.0690623 0.918425 0.654566
0.0704662 0.918379 0.652537
0.076585 0.918181 0.643992
0.0948959 0.917754 0.615641
0.150561 0.913054 0.43299
0.888762 0.957244 0.162921
0.984222 0.964797 0.286824
0.984115 0.965255 0.30071
0.185397 0.0731365 0.741176
0.227878 0.0698711 0.733776
0.283635 0.0724498 0.724132
0.411902 0.0816968 0.716091
0.618448 0.103593 0.722316
0.857267 0.203983 0.750423
0.982391 0.239719 0.784283
0.982773 0.252201 0.790738
0.989548 0.263203 0.922362
0.0852064 0.0930037 0.709453
0.149676 0.0743572 0.706874
0.232288 0.0670481 0.702785
0.375204 0.0775158 0.701442
0.601816 0.1066 0.714
0.843351 0.202853 0.737896
0.981659 0.240528 0.767742
0.982086 0.252705 0.775799
0.98909 0.263081 0.909529
0.0696269 0.126467 0.666789
0.0742809 0.103655 0.674235
0.159976 0.0688182 0.688838
0.346258 0.0749981 0.69926
0.595758 0.11107 0.71519
0.837247 0.205478 0.731609
0.981186 0.242908 0.759258
0.98143 0.25417 0.763638
0.987945 0.261295 0.886427
0.031632 0.195193 0.60943
0.0451514 0.171466 0.621424
0.0611429 0.148806 0.650752
0.219257 0.0704509 0.697093
0.571862 0.129396 0.719631
0.83418 0.213764 0.728435
0.980514 0.24892 0.747631
0.980591 0.258656 0.74641
0.983017 0.255421 0.797726
0.00404364 0.420386 0.60853
0.00390631 0.421332 0.61883
0.00395209 0.42681 0.63917
0.00393683 0.443626 0.698299
0.485756 0.414313 0.774487
0.844205 0.338003 0.744579
0.978698 0.265553 0.704372
0.978302 0.270878 0.696056
0.978469 0.264408 0.700145
0.0799573 0.660227 0.653223
0.0859083 0.669841 0.662669
0.0956436 0.686717 0.679255
0.11574 0.716182 0.708217
0.170687 0.73753 0.728115
0.76585 0.776165 0.763439
0.982879 0.650355 0.682078
0.980575 0.5514 0.637339
0.976745 0.440925 0.589364
0.0575875 0.931899 0.84509
0.0582895 0.931517 0.839261
0.0594339 0.930846 0.830198
0.063859 0.927138 0.798383
0.092607 0.833158 0.656153
0.549828 0.922896 0.546868
0.897734 0.918563 0.567788
0.982071 0.858061 0.424308
0.979934 0.779843 0.367208
0.040116 0.939376 0.940337
0.0405432 0.939101 0.936477
0.0411231 0.93872 0.930922
0.0437629 0.93727 0.91104
0.0598154 0.93135 0.83621
0.23299 0.921645 0.467369
0.832929 0.960876 0.434195
0.966232 0.96939 0.437156
0.984146 0.965118 0.29659
0.000610361 0.929641 0.841016
0.000610361 0.929183 0.835569
0.000595102 0.928618 0.829389
0.000595102 0.927718 0.819791
0.000564584 0.9252 0.79443
0.0658885 0.921431 0.699046
0.692439 0.942504 0.147341
0.984192 0.96495 0.291096
0.984054 0.96582 0.315892
0.15021 0.112688 0.852811
0.210163 0.0953689 0.847486
0.27863 0.0849012 0.841169
0.41326 0.0931106 0.833982
0.636683 0.113985 0.847471
0.866835 0.196887 0.869047
0.988663 0.258198 0.899718
0.989319 0.26952 0.911147
0.990051 0.264622 0.936584
0.108583 0.135531 0.827482
0.13492 0.111955 0.830533
0.232578 0.0836805 0.82742
0.382513 0.0894026 0.823499
0.615991 0.11136 0.838804
0.849638 0.19469 0.859205
0.988052 0.257923 0.888304
0.988571 0.26981 0.898726
0.990066 0.265126 0.936614
0.101061 0.158511 0.804318
0.104173 0.135607 0.808759
0.174624 0.0981918 0.816114
0.350927 0.0869764 0.816831
0.600641 0.10959 0.834073
0.839765 0.197269 0.853895
0.987655 0.259739 0.881422
0.988022 0.271458 0.890608
0.990097 0.265843 0.936645
0.0865949 0.194766 0.765499
0.0904555 0.180377 0.773266
0.0975357 0.152728 0.788449
0.24477 0.0786145 0.80415
0.564019 0.117235 0.828473
0.8271 0.206867 0.850477
0.986969 0.267353 0.87071
0.98732 0.276844 0.879698
0.990173 0.268086 0.936751
0.0378882 0.384909 0.751614
0.042359 0.390723 0.764004
0.0486763 0.395026 0.780072
0.0671702 0.367285 0.804257
0.460777 0.281605 0.848692
0.787869 0.231754 0.845243
0.972793 0.282094 0.851011
0.986328 0.287495 0.858778
0.98909 0.272786 0.909087
0.0024567 0.642832 0.771832
0.00267033 0.632166 0.766888
0.00263981 0.613703 0.758099
0.00265507 0.626001 0.784558
0.112505 0.667643 0.847288
0.715526 0.66247 0.911818
0.983215 0.613794 0.900389
0.988876 0.4934 0.861189
0.983871 0.298756 0.8103
0.114137 0.816587 0.80296
0.123842 0.833585 0.820157
0.131273 0.846113 0.832959
0.146502 0.860822 0.84802
0.183993 0.872694 0.860075
0.414466 0.892775 0.877653
0.909026 0.915831 0.906264
0.98793 0.84062 0.853284
0.987457 0.750393 0.809735
0.0464179 0.941161 0.964004
0.0469062 0.941192 0.964019
0.0475319 0.941207 0.964019
0.049836 0.941283 0.964034
0.0580606 0.941329 0.963867
0.100313 0.935592 0.861845
0.789197 0.971649 0.754269
0.965789 0.981277 0.77792
0.983703 0.95761 0.575448
0.0101472 0.939712 0.963897
0.0103456 0.939712 0.963897
0.0104829 0.939727 0.963897
0.0114137 0.939742 0.963912
0.0143893 0.939818 0.963943
0.027512 0.940154 0.963912
0.266575 0.92607 0.530846
0.932647 0.969787 0.492226
0.983627 0.970596 0.456596
0.28629 0.0895705 0.892653
0.32462 0.0916457 0.894408
0.376028 0.0954604 0.896559
0.477989 0.103609 0.898466
0.665049 0.121721 0.912535
0.873915 0.176547 0.926513
0.990082 0.26537 0.936614
0.990265 0.274601 0.936919
0.990234 0.274022 0.936889
0.246098 0.0962844 0.89134
0.289067 0.0897383 0.892775
0.347417 0.0929427 0.89192
0.447913 0.100099 0.892134
0.637583 0.118669 0.905882
0.85272 0.172824 0.924407
0.990097 0.265934 0.936645
0.990311 0.275868 0.93698
0.990265 0.27451 0.936919
0.190921 0.113252 0.889021
0.249989 0.0947127 0.887068
0.315038 0.0906996 0.886702
0.415244 0.0975662 0.886198
0.614221 0.116167 0.900282
0.837369 0.174456 0.920134
0.990158 0.267597 0.936736
0.990387 0.277897 0.937087
0.990295 0.275395 0.93695
0.116167 0.167895 0.866529
0.118563 0.14583 0.87187
0.182925 0.116182 0.878599
0.323156 0.0904097 0.876097
0.563638 0.110704 0.891646
0.812238 0.189197 0.912718
0.985641 0.272801 0.933318
0.990372 0.284245 0.937377
0.990372 0.27744 0.937057
0.0872358 0.324407 0.832715
0.0889296 0.330526 0.84094
0.0906233 0.338704 0.849775
0.0971389 0.324361 0.86511
0.426825 0.297078 0.90222
0.754696 0.224018 0.900633
0.965362 0.282109 0.921904
0.989837 0.300542 0.921477
0.990433 0.287053 0.937575
0.0243381 0.596155 0.848096
0.0219272 0.612696 0.858442
0.0170138 0.631403 0.868971
0.0146639 0.641199 0.880705
0.215564 0.61709 0.904631
0.692699 0.569574 0.93933
0.963226 0.531792 0.949828
0.992691 0.54197 0.949477
0.989395 0.309789 0.911376
0.0128939 0.904875 0.943526
0.00544747 0.899626 0.940398
0.000854505 0.891386 0.935302
0.00103761 0.86125 0.917006
0.00154116 0.796979 0.889754
0.328298 0.842206 0.940307
0.877684 0.852827 0.971847
0.991943 0.824491 0.967086
0.992233 0.724025 0.948608
0.126055 0.903212 0.889754
0.128878 0.906371 0.893202
0.1346 0.914702 0.902174
0.149599 0.935729 0.924498
0.170397 0.945769 0.934844
0.252583 0.942763 0.931334
0.715206 0.967315 0.954726
0.96994 0.97377 0.970504
0.989395 0.938689 0.944381
0.000518807 0.939605 0.963912
0.000518807 0.939605 0.963912
0.000518807 0.939605 0.963912
0.000518807 0.939605 0.963912
0.00112917 0.939574 0.963867
0.00619516 0.93962 0.963851
0.0536812 0.941192 0.963851
0.918334 0.985519 0.89189
0.987182 0.989487 0.903044
0.354681 0.0937209 0.895415
0.384207 0.0960098 0.897108
0.41387 0.0981765 0.898497
0.505211 0.106416 0.903548
0.662531 0.121538 0.912505
0.86598 0.161181 0.925246
0.98999 0.258839 0.936461
0.990341 0.276768 0.937026
0.990295 0.280873 0.937118
0.315862 0.0911116 0.894133
0.347982 0.0930495 0.895018
0.385321 0.0960861 0.897185
0.467994 0.10248 0.900999
0.634623 0.118593 0.910811
0.841291 0.155947 0.923323
0.989868 0.255543 0.936294
0.990387 0.277806 0.937072
0.990341 0.282628 0.93724
0.269642 0.0905928 0.892012
0.311406 0.0908522 0.893874
0.350134 0.0932631 0.89514
0.43035 0.099321 0.899123
0.605493 0.115694 0.908934
0.821881 0.155856 0.922316
0.989166 0.2551 0.936263
0.990265 0.279316 0.936996
0.990387 0.284779 0.937407
0.121569 0.144732 0.89131
0.176715 0.121721 0.891234
0.243168 0.102693 0.891463
0.343801 0.0926375 0.894759
0.550759 0.110063 0.906126
0.793164 0.168841 0.920806
0.977737 0.260517 0.936492
0.990387 0.284825 0.937423
0.990326 0.289845 0.937621
0.10573 0.262577 0.865736
0.107195 0.265522 0.872038
0.107454 0.271382 0.877501
0.111559 0.25127 0.88751
0.384924 0.198337 0.901808
0.713802 0.218067 0.918166
0.956756 0.270405 0.935958
0.990402 0.293294 0.937881
0.990478 0.303777 0.938506
0.0513619 0.558114 0.883864
0.0493172 0.573251 0.890257
0.0453346 0.591852 0.897261
0.0430457 0.603876 0.906233
0.210758 0.594705 0.927275
0.646067 0.607736 0.940688
0.937423 0.433082 0.94258
0.990646 0.383352 0.941436
0.991806 0.508049 0.948501
0.00167849 0.763012 0.910018
0.00169375 0.77969 0.917845
0.00155642 0.79765 0.925444
0.00134279 0.810407 0.93138
0.124163 0.816114 0.938506
0.453727 0.814389 0.954162
0.866026 0.776501 0.963317
0.992599 0.753719 0.967269
0.992584 0.756634 0.96762
0.0546426 0.941222 0.963851
0.0553902 0.941253 0.963851
0.0567788 0.941299 0.963867
0.0604868 0.941421 0.963882
0.0730755 0.942107 0.963973
0.0713359 0.910246 0.950988
0.626734 0.943511 0.972503
0.956863 0.945174 0.985611
0.99089 0.930892 0.985138
0.0718242 0.942016 0.963958
0.0724651 0.942061 0.963973
0.0735637 0.942138 0.963973
0.0771191 0.942382 0.963989
0.0885481 0.942931 0.963836
0.133883 0.945235 0.96379
0.367193 0.954711 0.962158
0.883482 0.987533 0.984619
0.988754 0.992935 0.991135
