public/luts/TH_Street_Tones_LUT_x33.cube
TITLE "Generated by Resolve"
LUT_3D_SIZE 9
0.00189212 0.00955215 0.0109712
0.095201 0.0141451 0.0210727
0.170916 0.0210727 0.033051
0.306172 0.0322881 0.0697337
0.520806 0.0581369 0.139864
0.787457 0.135531 0.253132
0.929335 0.202609 0.336065
0.937133 0.227222 0.381811
0.940703 0.239597 0.406165
0.00138857 0.0629282 0.0182498
0.0413977 0.0437171 0.0117342
0.142611 0.0339055 0.0130312
0.311604 0.0380713 0.0212253
0.54136 0.0664988 0.104707
0.806149 0.14464 0.230396
0.93019 0.206973 0.321645
0.936812 0.228138 0.355261
0.940307 0.23978 0.364813
0.00267033 0.14519 0.049485
0.0448157 0.130739 0.0204929
0.145144 0.125963 0.0189212
0.320195 0.0980087 0.0096437
0.565438 0.088838 0.0135042
0.827634 0.154559 0.187503
0.930007 0.210895 0.282567
0.936736 0.231052 0.308568
0.938628 0.23975 0.29604
0.0121004 0.302419 0.151278
0.0207065 0.293431 0.106462
0.141421 0.278676 0.0462501
0.372717 0.283757 0.0205386
0.627512 0.256458 0
0.837049 0.197986 0
0.926909 0.218082 0.125154
0.93315 0.23563 0.145708
0.966796 0.337697 0.216022
0.0848402 0.554452 0.301106
0.109972 0.549676 0.273014
0.174075 0.5346 0.180331
0.423835 0.528939 0.120729
0.694987 0.531624 0.0940108
0.942855 0.485161 0.0182345
0.994064 0.439429 0.0495613
1 0.472358 0.134432
1 0.540215 0.182879
0.215015 0.791119 0.475257
0.226612 0.789822 0.4636
0.246326 0.787015 0.441138
0.385885 0.759564 0.247822
0.73608 0.769757 0.253361
0.975814 0.756741 0.226032
1 0.703609 0.148333
1 0.68896 0.135134
1 0.738964 0.188525
0.277989 0.928344 0.606928
0.284108 0.927855 0.600961
0.293751 0.927047 0.591089
0.344015 0.921187 0.527077
0.720043 0.906386 0.302052
1 0.912734 0.361334
1 0.902052 0.322438
1 0.862089 0.24033
1 0.913176 0.291356
0.224857 0.937758 0.69749
0.230274 0.937957 0.694545
0.238361 0.938277 0.690196
0.263279 0.93843 0.672786
0.676966 0.943679 0.319203
1 0.96849 0.384115
1 0.967926 0.374258
1 0.96759 0.370977
1 0.971191 0.408392
0.162478 0.93579 0.721508
0.164233 0.935805 0.720668
0.171832 0.935882 0.717052
0.188754 0.936278 0.708324
0.241443 0.937606 0.678355
1 0.969406 0.389776
1 0.968551 0.380911
1 0.970794 0.404334
1 0.971603 0.412665
0.00189212 0.0107729 0.0645457
0.0546578 0.0118105 0.0597848
0.139101 0.0169985 0.0810407
0.278264 0.0285801 0.111116
0.493355 0.0499275 0.17145
0.759777 0.124483 0.273228
0.929992 0.200549 0.358495
0.937865 0.227832 0.407553
0.944152 0.245258 0.446998
0.00154116 0.0383459 0.0386511
0.0224155 0.0295872 0.031342
0.138491 0.0204318 0.029633
0.294423 0.03299 0.0675669
0.513832 0.0583352 0.142824
0.77969 0.134432 0.252888
0.929778 0.203464 0.340536
0.937804 0.229694 0.388159
0.943664 0.247822 0.417304
0 0.134279 0.0856641
0.00782788 0.129931 0.0453346
0.134127 0.119036 0.0291295
0.313878 0.0799725 0.0083772
0.541268 0.0706493 0.0720684
0.803052 0.146136 0.213306
0.930678 0.209415 0.30753
0.936843 0.229297 0.338796
0.942412 0.247868 0.357931
0.0102846 0.305699 0.17438
0.0177005 0.299641 0.137438
0.110796 0.281361 0.0536507
0.357122 0.283345 0.0455024
0.607614 0.248814 0
0.817517 0.191501 0.0229038
0.926375 0.213382 0.153765
0.932296 0.227634 0.203555
0.958328 0.309041 0.276097
0.0680095 0.561532 0.334051
0.0875105 0.557504 0.311406
0.139391 0.547036 0.250004
0.385138 0.531914 0.134295
0.67306 0.537728 0.133333
0.92903 0.488914 0.0416419
0.995483 0.445212 0.0765393
1 0.471122 0.1738
1 0.530144 0.219547
0.205447 0.796002 0.492012
0.217441 0.794034 0.481453
0.235843 0.791623 0.462684
0.334966 0.767132 0.281956
0.70576 0.772747 0.255756
0.961746 0.762249 0.238636
1 0.709789 0.169863
1 0.691447 0.152499
1 0.734859 0.193088
0.273991 0.930495 0.615198
0.28014 0.929915 0.609354
0.289586 0.929122 0.600076
0.333593 0.92398 0.546838
0.683513 0.907118 0.303395
0.989807 0.914321 0.355947
1 0.905638 0.329641
1 0.86331 0.244892
1 0.909285 0.288273
0.219852 0.937652 0.701961
0.224979 0.937819 0.699168
0.23209 0.938094 0.695293
0.257252 0.938537 0.679316
0.623133 0.939071 0.316594
1 0.967956 0.383658
1 0.968215 0.377432
1 0.967803 0.373053
1 0.971191 0.408377
0.151263 0.935851 0.728557
0.155184 0.935882 0.726665
0.16199 0.935943 0.723507
0.180453 0.936126 0.714839
0.234821 0.937697 0.684794
1 0.969512 0.390875
1 0.968658 0.381888
1 0.970825 0.404517
1 0.971603 0.412695
0 0.0111391 0.12462
0.0634165 0.0129091 0.144015
0.125414 0.0177005 0.139345
0.255894 0.0277867 0.169345
0.467918 0.0480812 0.224918
0.732494 0.118425 0.314015
0.931853 0.204929 0.398245
0.940322 0.232776 0.449256
0.946227 0.252445 0.497078
0.000289921 0.0347753 0.102907
0.0043183 0.0104219 0.133272
0.115953 0.0191653 0.12784
0.267781 0.0314488 0.14609
0.483894 0.0540932 0.199802
0.75053 0.12668 0.295216
0.932662 0.208484 0.386313
0.941222 0.235828 0.435019
0.946883 0.255024 0.479423
0 0.124056 0.129595
0.00320439 0.122194 0.128038
0.100984 0.107805 0.113619
0.286488 0.0579843 0.0883955
0.506325 0.0633555 0.146914
0.772442 0.137224 0.259236
0.932021 0.210315 0.349599
0.940139 0.238666 0.400488
0.947478 0.259541 0.436515
0.00640879 0.310796 0.229953
0.0122377 0.306615 0.206668
0.0264591 0.290654 0.138064
0.325109 0.282155 0.0836805
0.576684 0.238682 0.0645762
0.790509 0.183673 0.0997787
0.928038 0.209033 0.224079
0.93843 0.238788 0.298482
0.955016 0.294774 0.35758
0.0483101 0.569299 0.374136
0.063508 0.566323 0.357198
0.0960555 0.560128 0.321004
0.311559 0.536812 0.158541
0.638132 0.546059 0.174701
0.907759 0.499916 0.10457
0.998917 0.455344 0.141115
1 0.468055 0.247089
1 0.514488 0.295933
0.187686 0.802701 0.517021
0.201923 0.80177 0.507652
0.222095 0.79884 0.490196
0.305135 0.783322 0.375326
0.65655 0.777966 0.25977
0.93695 0.772763 0.263493
1 0.719905 0.194629
1 0.696818 0.176272
1 0.729778 0.203723
0.267292 0.933745 0.628763
0.273289 0.933181 0.623102
0.283055 0.932326 0.61384
0.321553 0.928496 0.571221
0.622248 0.907271 0.304555
0.966781 0.917006 0.349172
1 0.910796 0.340642
1 0.865888 0.253117
1 0.9037 0.284184
0.211368 0.937469 0.7093
0.216266 0.937621 0.706615
0.223728 0.937881 0.702541
0.249226 0.93875 0.688365
0.538781 0.934707 0.355489
1 0.967437 0.382803
1 0.968704 0.382544
1 0.968109 0.376318
1 0.971176 0.408209
0.134539 0.935897 0.738964
0.139635 0.935973 0.736812
0.145449 0.936034 0.734173
0.164401 0.936202 0.725261
0.218616 0.937423 0.697597
1 0.969512 0.390936
1 0.968826 0.383734
1 0.970825 0.404547
1 0.971618 0.412879
0.0122835 0.000335698 0.300969
0.0603647 0.00209049 0.278935
0.127352 0.0081178 0.279118
0.235447 0.0221714 0.285069
0.446174 0.0531472 0.344808
0.709636 0.125017 0.41857
0.937102 0.21622 0.487709
0.94403 0.243885 0.525856
0.948562 0.262837 0.570443
0 0.0228428 0.246601
0.0215457 0.00106813 0.276295
0.0979477 0.00677501 0.278111
0.237018 0.0263676 0.280217
0.459785 0.0585489 0.33283
0.726802 0.133425 0.406287
0.937621 0.220417 0.476371
0.944793 0.247303 0.513085
0.949157 0.266133 0.554147
0 0.102205 0.252888
0 0.0734264 0.266133
0.0345464 0.0284276 0.27013
0.235599 0.0323491 0.265003
0.479301 0.0675669 0.306798
0.749325 0.145403 0.383246
0.937865 0.224643 0.452323
0.945922 0.250751 0.486702
0.950484 0.270985 0.525994
0.0099794 0.291585 0.319463
0.0139162 0.290211 0.318135
0.0218204 0.284291 0.311498
0.253635 0.27628 0.296559
0.550423 0.211048 0.26659
0.759365 0.162646 0.282307
0.937133 0.22771 0.373693
0.945769 0.25594 0.416205
0.951019 0.275334 0.459403
0.0257725 0.575113 0.458244
0.0317693 0.573129 0.448676
0.0459602 0.56936 0.430304
0.139086 0.549081 0.330266
0.593133 0.550637 0.245121
0.877226 0.507012 0.266117
0.998978 0.459678 0.302922
0.998016 0.453269 0.362402
1 0.477775 0.438544
0.127581 0.8038 0.570962
0.139513 0.803021 0.56437
0.159792 0.802029 0.552911
0.236561 0.796384 0.499184
0.535302 0.78175 0.298894
0.887388 0.783322 0.315953
1 0.749462 0.287343
1 0.718502 0.291905
1 0.72253 0.31548
0.22771 0.936095 0.674723
0.234821 0.935821 0.67042
0.245487 0.935302 0.663294
0.279637 0.932921 0.63714
0.424643 0.914687 0.413458
0.868055 0.925078 0.361166
1 0.92134 0.379721
1 0.877531 0.283421
1 0.888426 0.276646
0.173877 0.937514 0.735576
0.17969 0.937575 0.732876
0.188678 0.937667 0.72874
0.217517 0.937942 0.714504
0.337438 0.939666 0.62266
0.943053 0.963668 0.373693
1 0.971038 0.40676
1 0.969207 0.387717
1 0.970031 0.396353
0.0922255 0.935622 0.761151
0.0938582 0.935653 0.760449
0.100908 0.935744 0.75787
0.118822 0.936049 0.751614
0.177172 0.937041 0.727825
1 0.969375 0.389563
1 0.969421 0.389975
1 0.970886 0.405142
1 0.971664 0.413306
0.0514687 0 0.476127
0.0852064 0 0.467201
0.115404 0 0.465232
0.23798 0.0111696 0.478721
0.428733 0.0657054 0.506477
0.688472 0.150652 0.579202
0.926696 0.238361 0.639399
0.946487 0.264363 0.658106
0.949508 0.279515 0.68101
0.00331121 0.00901808 0.454597
0.0564126 0 0.456336
0.0970779 0 0.456214
0.229221 0.0100404 0.475761
0.436759 0.0742809 0.500587
0.704784 0.158709 0.573617
0.937224 0.242466 0.63241
0.94757 0.267216 0.646494
0.950195 0.282017 0.670802
0 0.0341955 0.426383
0 0.0162661 0.446174
0.0565957 0 0.451362
0.208591 0.00668345 0.466209
0.445823 0.0841688 0.494347
0.724773 0.169665 0.563119
0.944366 0.246693 0.614847
0.949081 0.270741 0.625971
0.951553 0.286259 0.651102
0 0.249973 0.477089
0 0.236194 0.479057
0 0.209827 0.479942
0.104341 0.166491 0.505516
0.45211 0.140719 0.4934
0.730388 0.181033 0.519844
0.946731 0.25539 0.572366
0.951507 0.277913 0.581506
0.953658 0.290608 0.603052
0.0327611 0.55375 0.575799
0.0362554 0.552712 0.574701
0.0419471 0.550988 0.572808
0.0603799 0.542077 0.562692
0.486503 0.557275 0.563516
0.847105 0.49633 0.533303
0.991714 0.434363 0.525002
0.989136 0.42887 0.544228
0.992279 0.450263 0.587289
0.0609751 0.802915 0.675288
0.0684977 0.802533 0.671748
0.0806439 0.801816 0.665843
0.123339 0.798993 0.645289
0.323751 0.78677 0.519951
0.837278 0.795377 0.466819
1 0.752941 0.450843
1 0.720378 0.488884
1 0.711711 0.553689
0.158053 0.933089 0.749233
0.164797 0.93286 0.74641
0.175937 0.932616 0.74197
0.209842 0.930999 0.726314
0.333227 0.923995 0.639292
0.741665 0.927291 0.43032
1 0.921538 0.427405
1 0.906462 0.417365
1 0.888197 0.356603
0.064744 0.937499 0.815335
0.068101 0.937575 0.813825
0.0738689 0.937713 0.811368
0.0927749 0.93814 0.803357
0.18146 0.939406 0.771542
0.58323 0.94638 0.441505
0.996872 0.971115 0.437583
1 0.975692 0.459403
1 0.967819 0.373129
0.0279698 0.934905 0.804837
0.030045 0.934905 0.803632
0.031693 0.93489 0.802563
0.0393835 0.934859 0.798032
0.0732586 0.935866 0.781903
0.906264 0.961013 0.364034
1 0.972168 0.418555
1 0.970962 0.405966
1 0.971923 0.415946
0.0895399 0 0.644724
0.112795 0 0.641489
0.133394 0 0.638819
0.183795 0.039292 0.656336
0.420661 0.0763409 0.692424
0.660517 0.170993 0.740291
0.902602 0.265568 0.804364
0.944488 0.290791 0.819745
0.944976 0.298146 0.833738
0.0607767 0.00117494 0.634699
0.0901656 0 0.631251
0.115602 0 0.628305
0.176181 0.0297246 0.643595
0.424475 0.0754406 0.685435
0.677028 0.185824 0.737087
0.918196 0.270756 0.800168
0.94548 0.293065 0.812314
0.945266 0.299031 0.830411
0 0.0238651 0.621485
0.0335088 0.00979629 0.620905
0.0810254 0 0.619211
0.15938 0.00909438 0.632197
0.422919 0.0757916 0.679332
0.688777 0.198749 0.730571
0.927489 0.276036 0.791547
0.946975 0.296178 0.800549
0.945907 0.30103 0.823499
0 0.147539 0.608408
0 0.111833 0.605631
0 0.0669871 0.602411
0.065156 0.0123293 0.609735
0.37232 0.0973068 0.663645
0.684886 0.207752 0.71667
0.928862 0.283299 0.770245
0.949844 0.302312 0.775113
0.951247 0.310475 0.783764
0 0.511284 0.726741
0 0.50515 0.726711
0 0.494499 0.726421
0 0.458061 0.723354
0.24387 0.467445 0.774685
0.740887 0.437736 0.773693
0.952697 0.388205 0.74583
0.96611 0.363989 0.729656
0.966445 0.36611 0.73257
0.0605325 0.780118 0.792798
0.062562 0.77966 0.792111
0.0656291 0.779004 0.791074
0.0734264 0.777279 0.788434
0.110811 0.766934 0.774227
0.717433 0.794736 0.784207
1 0.748638 0.762081
1 0.707652 0.752331
1 0.688746 0.760494
0.0598764 0.924437 0.853651
0.0614939 0.924178 0.852384
0.0641642 0.923796 0.850446
0.0758068 0.922362 0.843488
0.145083 0.919097 0.819867
0.561639 0.927199 0.707698
0.970703 0.929137 0.680415
1 0.909178 0.659586
1 0.892317 0.686305
0.0348821 0.937362 0.895399
0.0360266 0.937438 0.894697
0.0383764 0.937621 0.893416
0.046128 0.938247 0.889418
0.0826276 0.941146 0.87396
0.37586 0.950973 0.752941
0.910567 0.983383 0.639292
1 0.98999 0.645945
1 0.980911 0.542199
0 0.934401 0.929061
0 0.934417 0.928603
0 0.934417 0.928038
0 0.934417 0.926558
0 0.934447 0.920867
0.0263218 0.936751 0.897902
0.793484 0.97258 0.58024
1 0.980423 0.512444
1 0.980163 0.506767
0.106935 0 0.759396
0.124895 0 0.757748
0.141299 0 0.756252
0.174685 0.0040589 0.759304
0.367803 0.0965133 0.806332
0.626123 0.150225 0.852552
0.868727 0.281712 0.904601
0.939452 0.317311 0.92781
0.938094 0.320668 0.947402
0.0844129 0 0.754879
0.105806 0 0.75346
0.125093 0 0.751842
0.16582 0 0.751354
0.372641 0.0960555 0.802991
0.643565 0.164401 0.852522
0.88484 0.292378 0.903914
0.940124 0.319066 0.923781
0.938476 0.322194 0.945922
0.0228885 0.0201572 0.752621
0.0596323 0.009308 0.749233
0.0880598 0 0.745953
0.143252 0 0.741878
0.360632 0.0923476 0.795178
0.652934 0.179782 0.850233
0.896757 0.297917 0.901427
0.941207 0.321477 0.916625
0.939101 0.323751 0.942061
0 0.0961318 0.725765
0 0.0806897 0.726436
0 0.0652018 0.727855
0.02121 0.0224613 0.734813
0.238117 0.0866712 0.771435
0.636667 0.199405 0.841031
0.893446 0.302266 0.887922
0.943557 0.326833 0.902495
0.940719 0.326497 0.929976
0 0.458305 0.81387
0 0.45243 0.813779
0 0.442893 0.813504
0 0.41207 0.81355
0.134661 0.34406 0.846494
0.618189 0.364034 0.87776
0.888258 0.361975 0.877119
0.948608 0.336339 0.870329
0.948043 0.340505 0.880125
0 0.754223 0.893431
0 0.75259 0.893507
0 0.749828 0.89366
0 0.741756 0.894194
0.0480507 0.719402 0.900008
0.573648 0.746166 0.944717
0.946212 0.718578 0.94107
1 0.672511 0.926741
1 0.631022 0.913252
0.0757305 0.904646 0.922805
0.0774243 0.904189 0.922133
0.0792859 0.903761 0.921462
0.0838483 0.902754 0.919905
0.0999313 0.898772 0.913848
0.361425 0.899687 0.903929
0.891783 0.918883 0.910246
1 0.898024 0.901686
1 0.87837 0.898207
0.0378729 0.936019 0.963912
0.0386664 0.936095 0.963638
0.0399329 0.936217 0.963195
0.043946 0.936629 0.961746
0.0581826 0.938918 0.955749
0.135546 0.945663 0.930388
0.789242 0.987381 0.870802
1 0.985779 0.863142
1 0.978393 0.845304
0 0.931182 0.979461
0 0.931197 0.979461
0 0.931228 0.979461
0.000518807 0.931395 0.979461
0.0049897 0.931868 0.979461
0.0260014 0.934691 0.973022
0.442527 0.96144 0.851377
0.995132 0.998398 0.824979
1 1 0.83003
0.0133059 0.0264591 0.797238
0.0450599 0.0170596 0.795773
0.0687572 0.00894179 0.795331
0.101061 0 0.795148
0.17789 0 0.804395
0.539559 0.141924 0.880476
0.831525 0.253071 0.931594
0.938842 0.325872 0.948165
0.939605 0.331289 0.948928
0 0.0368353 0.799146
0.0133059 0.0268101 0.797299
0.0452277 0.0173495 0.795834
0.0891585 0.000518807 0.79498
0.1879 0.00679026 0.810162
0.562631 0.146639 0.884459
0.851377 0.268605 0.935042
0.939208 0.328496 0.948547
0.939742 0.332189 0.949035
0 0.0604257 0.803113
0 0.0502937 0.802869
0 0.0394751 0.799908
0.0456092 0.0179294 0.795987
0.184634 0 0.806058
0.573983 0.148653 0.886137
0.86389 0.283131 0.937835
0.939818 0.332662 0.949096
0.940063 0.334325 0.949264
0 0.150973 0.788937
0 0.138781 0.788998
0 0.123812 0.789578
0 0.0896925 0.790951
0.129244 0 0.789044
0.549859 0.177005 0.881758
0.857816 0.297917 0.938979
0.940993 0.340764 0.949981
0.941497 0.344213 0.950362
0 0.454734 0.861799
0 0.449897 0.861875
0 0.444236 0.861982
0 0.430152 0.861921
0 0.353475 0.861555
0.498283 0.347112 0.913573
0.825803 0.326116 0.926253
0.94493 0.354971 0.935424
0.944488 0.357183 0.942855
0 0.741146 0.936019
0 0.739284 0.936065
0 0.736934 0.936141
0 0.729595 0.935851
0 0.692256 0.935225
0.417288 0.708095 0.974929
0.881712 0.696696 0.990753
0.999084 0.684108 0.992554
0.990387 0.623301 0.983703
0 0.893538 0.965377
0 0.892912 0.965179
0 0.892058 0.964889
0.00350958 0.889815 0.963943
0.0264439 0.884688 0.962615
0.13872 0.869505 0.962295
0.814893 0.901366 0.993408
1 0.887785 0.990204
1 0.864775 0.987182
0.0689555 0.940352 0.980163
0.06981 0.940459 0.980163
0.0710613 0.940612 0.980163
0.0741436 0.941009 0.980163
0.0842603 0.942138 0.980163
0.142931 0.946792 0.97174
0.696895 0.974121 0.972747
0.979202 0.974884 0.974823
1 0.965469 0.970443
0.00633249 0.932021 0.979461
0.00657664 0.932036 0.979461
0.00679026 0.932067 0.979461
0.00764477 0.932158 0.979461
0.0104524 0.932448 0.979461
0.0225223 0.934127 0.97966
0.0972305 0.943542 0.980163
0.934966 1 0.954986
1 0.999084 0.953979
0 0.153445 0.823743
0 0.14406 0.821836
0 0.135225 0.82005
0 0.120363 0.817182
0 0.0818036 0.809705
0.125933 0 0.796078
0.743008 0.19971 0.911955
0.938369 0.322515 0.947677
0.940352 0.336339 0.949493
0 0.165988 0.824567
0 0.157977 0.82446
0 0.147478 0.822538
0 0.129717 0.818967
0 0.085069 0.810376
0.171847 0 0.801328
0.773175 0.220493 0.918578
0.939223 0.328573 0.948562
0.94081 0.339483 0.949828
0 0.188525 0.821424
0 0.181842 0.821103
0 0.17406 0.820905
0 0.157763 0.820645
0 0.105165 0.814298
0.230915 0.0805371 0.833188
0.794324 0.242771 0.924346
0.939864 0.332982 0.949126
0.941497 0.344198 0.950362
0 0.236622 0.810605
0 0.232074 0.811002
0 0.226886 0.81149
0 0.216312 0.812116
0 0.176333 0.811353
0.227802 0.0853285 0.8336
0.79379 0.267308 0.927214
0.940993 0.34081 0.949981
0.942657 0.352224 0.951232
0 0.481971 0.878065
0 0.478401 0.877867
0 0.475685 0.877974
0 0.468452 0.877821
0 0.444907 0.877653
0.181003 0.33872 0.894484
0.755642 0.301366 0.92697
0.942779 0.353033 0.951324
0.945815 0.370214 0.953597
0 0.749035 0.951644
0 0.747982 0.951659
0 0.746105 0.951553
0 0.742351 0.951446
0 0.730434 0.951156
0.133074 0.698619 0.969192
0.814878 0.678889 0.986877
0.994171 0.652308 0.989807
0.999649 0.687953 0.993072
0 0.894057 0.978683
0 0.893492 0.978668
0 0.892714 0.978637
0 0.890806 0.978592
0 0.88481 0.977996
0.0905776 0.86479 0.976944
0.74284 0.886992 0.997986
0.996139 0.877775 1
1 0.870787 1
0.0452583 0.937285 0.980163
0.0457008 0.937346 0.980163
0.0464027 0.937438 0.980163
0.0488441 0.937758 0.980163
0.0573281 0.938903 0.980163
0.0828565 0.941985 0.980163
0.563226 0.960555 0.991409
0.949874 0.969558 1
1 0.961456 1
0.0311437 0.935347 0.979843
0.0314794 0.935393 0.979858
0.0319371 0.935454 0.979858
0.0332952 0.935637 0.979904
0.0382849 0.936324 0.980026
0.0498665 0.937896 0.980163
0.123003 0.945724 0.98024
0.896864 0.99913 0.996078
1 0.993744 0.994583
