public/luts/The_Creator.cube
TITLE "Generated by Resolve"
LUT_3D_SIZE 5
0.0200046 0.0382239 0.0535897
0.0354467 0.0468147 0.0653391
0.593957 0.21445 0.183078
0.715557 0.245304 0.19675
0.715557 0.245304 0.19675
0.0236057 0.0461891 0.063798
0.0227817 0.0431373 0.0598001
0.477745 0.178836 0.164355
0.715557 0.245304 0.19675
0.715557 0.245304 0.19675
0.269673 0.376455 0.416373
0.26807 0.374624 0.414542
0.337057 0.381994 0.361105
0.845655 0.444892 0.327092
0.836927 0.428946 0.316289
0.610574 0.761456 0.782284
0.603479 0.753964 0.775586
0.59559 0.708431 0.703868
0.772625 0.777157 0.667353
0.943145 0.765927 0.66952
0.620569 0.771084 0.790295
0.620569 0.771084 0.790295
0.649805 0.780575 0.786572
0.8206 0.869261 0.826535
0.948074 0.926894 0.864424
0.0208743 0.041062 0.0626993
0.0328985 0.0483253 0.0761273
0.573068 0.211704 0.188418
0.715557 0.245304 0.19675
0.715557 0.245304 0.19675
0.0229038 0.0451362 0.0629282
0.0223392 0.0425116 0.0591745
0.475563 0.178164 0.163973
0.715557 0.245304 0.19675
0.715557 0.245304 0.19675
0.270375 0.377264 0.417166
0.267948 0.374502 0.41442
0.336355 0.381201 0.360449
0.843946 0.442817 0.325368
0.835462 0.426444 0.314595
0.608896 0.75967 0.780728
0.602014 0.752392 0.774197
0.59234 0.705348 0.701427
0.769467 0.772946 0.663844
0.942473 0.761624 0.663844
0.620569 0.771084 0.790295
0.620569 0.771084 0.790295
0.647974 0.780056 0.786923
0.817533 0.867552 0.824933
0.948074 0.926894 0.864424
0.0399481 0.0929427 0.325872
0.0557565 0.104524 0.338323
0.476265 0.248692 0.463233
0.688579 0.295506 0.47628
0.688441 0.295445 0.474861
0.0358129 0.0859083 0.264683
0.03505 0.0814527 0.249027
0.397223 0.212039 0.404883
0.688548 0.289555 0.448508
0.688594 0.289189 0.446983
0.232242 0.38085 0.477974
0.229221 0.37763 0.474128
0.32015 0.359976 0.395193
0.769802 0.462654 0.435111
0.77351 0.443626 0.415259
0.59147 0.753353 0.801556
0.581674 0.742763 0.79115
0.56669 0.682628 0.695872
0.739178 0.74226 0.655116
0.935515 0.736797 0.639551
0.624216 0.778866 0.813535
0.623804 0.777569 0.809598
0.641642 0.780529 0.797086
0.806088 0.860822 0.820325
0.948074 0.926894 0.864424
0.0424964 0.0955673 0.373037
0.0587472 0.106355 0.388037
0.436606 0.258717 0.559838
0.656367 0.329046 0.608652
0.656367 0.329046 0.608652
0.0424964 0.0955673 0.373037
0.0424964 0.0956436 0.373159
0.366903 0.233524 0.551019
0.656367 0.329046 0.608652
0.656367 0.329046 0.608652
0.190402 0.413565 0.600351
0.187228 0.40882 0.596155
0.276555 0.391516 0.548943
0.732372 0.483513 0.684581
0.744732 0.466316 0.665248
0.612879 0.77232 0.875044
0.589029 0.760693 0.868666
0.533761 0.692576 0.817807
0.730907 0.732982 0.749264
0.909819 0.738231 0.724605
0.672404 0.812634 0.886198
0.664881 0.810788 0.883284
0.669474 0.807477 0.873396
0.826749 0.874449 0.877195
0.956664 0.93933 0.911986
0.0424964 0.0955673 0.373037
0.0575265 0.105211 0.387274
0.431754 0.256962 0.559182
0.656367 0.329046 0.608652
0.656367 0.329046 0.608652
0.0425727 0.096025 0.373861
0.0425269 0.0955825 0.373068
0.365301 0.232914 0.550866
0.656367 0.329046 0.608652
0.656367 0.329046 0.608652
0.187991 0.409903 0.597131
0.183841 0.403616 0.591455
0.267521 0.382895 0.541146
0.719661 0.472526 0.691981
0.735958 0.462669 0.685893
0.613397 0.770489 0.881224
0.589517 0.758724 0.876799
0.52604 0.695323 0.849287
0.68925 0.732799 0.832959
0.889647 0.740932 0.847318
0.72398 0.824537 0.901823
0.72398 0.824537 0.901823
0.73489 0.826917 0.901946
0.851743 0.888029 0.928084
0.964034 0.952132 0.955001
