public/luts/The_Creator.cube
TITLE "Generated by Resolve"
LUT_3D_SIZE 9
0.0200046 0.0382239 0.0535897
0.0200046 0.0382239 0.0535897
0.0354467 0.0468147 0.0653391
0.29305 0.122499 0.133257
0.593957 0.21445 0.183078
0.715557 0.245304 0.19675
0.715557 0.245304 0.19675
0.715557 0.245304 0.19675
0.715557 0.245304 0.19675
0.0200046 0.0382239 0.0535897
0.0200046 0.0382239 0.0535897
0.0266423 0.0424659 0.0592966
0.230625 0.105394 0.123796
0.53669 0.196963 0.173861
0.715557 0.245304 0.19675
0.715557 0.245304 0.19675
0.715557 0.245304 0.19675
0.715557 0.245304 0.19675
0.0236057 0.0461891 0.063798
0.0231479 0.0452277 0.0624552
0.0227817 0.0431373 0.0598001
0.158343 0.0885634 0.11162
0.477745 0.178836 0.164355
0.705989 0.243458 0.195956
0.715557 0.245304 0.19675
0.715557 0.245304 0.19675
0.715557 0.245304 0.19675
0.0857252 0.167651 0.212955
0.0848096 0.166522 0.211826
0.0809491 0.161776 0.207263
0.10808 0.16347 0.183139
0.409384 0.220142 0.189517
0.700557 0.302312 0.231968
0.763638 0.3093 0.233906
0.760662 0.304997 0.231052
0.760311 0.304387 0.230503
0.269673 0.376455 0.416373
0.270191 0.377035 0.416953
0.26807 0.374624 0.414542
0.259556 0.349462 0.380911
0.337057 0.381994 0.361105
0.677241 0.414115 0.312001
0.845655 0.444892 0.327092
0.838621 0.431968 0.31841
0.836927 0.428946 0.316289
0.459037 0.591867 0.622538
0.457084 0.589654 0.620417
0.450858 0.582589 0.613779
0.420462 0.544182 0.575906
0.452735 0.543496 0.531014
0.56054 0.585748 0.521859
0.902144 0.5944 0.433204
0.909529 0.589349 0.450141
0.908431 0.5841 0.44387
0.610574 0.761456 0.782284
0.608042 0.758801 0.77995
0.603479 0.753964 0.775586
0.57673 0.725475 0.749935
0.59559 0.708431 0.703868
0.641566 0.733364 0.686198
0.772625 0.777157 0.667353
0.94406 0.771801 0.677211
0.943145 0.765927 0.66952
0.620569 0.771084 0.790295
0.620569 0.771084 0.790295
0.620569 0.771084 0.790295
0.620569 0.771084 0.790295
0.655039 0.782147 0.785733
0.744076 0.821546 0.797742
0.8318 0.875471 0.832349
0.937224 0.917296 0.853529
0.946059 0.914046 0.84802
0.620569 0.771084 0.790295
0.620569 0.771084 0.790295
0.620569 0.771084 0.790295
0.620569 0.771084 0.790295
0.649805 0.780575 0.786572
0.734737 0.816541 0.795407
0.8206 0.869261 0.826535
0.920775 0.921645 0.862913
0.948074 0.926894 0.864424
0.0200046 0.0382239 0.0535897
0.0200046 0.0382239 0.0535897
0.0356909 0.046952 0.0655222
0.289891 0.121584 0.132784
0.589654 0.213184 0.182467
0.715557 0.245304 0.19675
0.715557 0.245304 0.19675
0.715557 0.245304 0.19675
0.715557 0.245304 0.19675
0.0200046 0.0382239 0.0535897
0.0200046 0.0382239 0.0535897
0.0260166 0.0421759 0.0588846
0.2262 0.104265 0.12311
0.53373 0.196017 0.173388
0.71548 0.245304 0.196735
0.715557 0.245304 0.19675
0.715557 0.245304 0.19675
0.715557 0.245304 0.19675
0.0234989 0.0459602 0.0634775
0.0230564 0.0450294 0.0621805
0.0227817 0.0430915 0.0597543
0.157595 0.0882277 0.111421
0.478065 0.178882 0.16437
0.706279 0.243503 0.195987
0.715557 0.245304 0.19675
0.715557 0.245304 0.19675
0.715557 0.245304 0.19675
0.0860761 0.168063 0.213352
0.0847028 0.1664 0.211719
0.081117 0.16199 0.207462
0.107927 0.163973 0.183795
0.410834 0.220813 0.189929
0.701564 0.302647 0.232166
0.763577 0.309224 0.233875
0.760586 0.304936 0.231083
0.760052 0.304097 0.230457
0.270756 0.377722 0.417655
0.270253 0.377142 0.417075
0.268269 0.374853 0.414771
0.259602 0.34963 0.381216
0.336706 0.381598 0.360754
0.676524 0.413336 0.311467
0.844648 0.443961 0.326207
0.838132 0.431159 0.317861
0.836271 0.427848 0.315541
0.459373 0.592248 0.622889
0.456321 0.588785 0.619577
0.450248 0.581933 0.613184
0.419608 0.543496 0.575326
0.45153 0.54229 0.530129
0.559014 0.584329 0.52079
0.90074 0.592752 0.431617
0.909255 0.588098 0.448646
0.908095 0.582376 0.441825
0.610315 0.761212 0.782116
0.607324 0.758068 0.779293
0.60296 0.753384 0.775067
0.57615 0.724865 0.749325
0.594247 0.707195 0.702937
0.639857 0.731777 0.684794
0.771527 0.775235 0.665705
0.943816 0.770291 0.675227
0.942855 0.763943 0.66688
0.620569 0.771084 0.790295
0.620569 0.771084 0.790295
0.620569 0.771084 0.790295
0.620569 0.771084 0.790295
0.65449 0.78201 0.785855
0.743252 0.821118 0.797574
0.831189 0.875135 0.831998
0.936828 0.916548 0.852674
0.945968 0.912963 0.846723
0.620569 0.771084 0.790295
0.620569 0.771084 0.790295
0.620569 0.771084 0.790295
0.620569 0.771084 0.790295
0.648981 0.780377 0.786786
0.733211 0.815717 0.795026
0.819059 0.868406 0.825727
0.917922 0.921096 0.86302
0.948074 0.926894 0.864424
0.0208743 0.041062 0.0626993
0.020798 0.0408179 0.0619669
0.0328985 0.0483253 0.0761273
0.270497 0.122194 0.150011
0.573068 0.211704 0.188418
0.715557 0.245304 0.19675
0.715557 0.245304 0.19675
0.715557 0.245304 0.19675
0.715557 0.245304 0.19675
0.0206149 0.0401923 0.060029
0.0205081 0.039826 0.0588388
0.0250706 0.0425727 0.0624247
0.214817 0.103243 0.126589
0.526223 0.193713 0.172137
0.715404 0.245289 0.196735
0.715557 0.245304 0.19675
0.715557 0.245304 0.19675
0.715557 0.245304 0.19675
0.0229038 0.0451362 0.0629282
0.0225986 0.0444038 0.0618296
0.0223392 0.0425116 0.0591745
0.153643 0.0872206 0.110597
0.475563 0.178164 0.163973
0.705409 0.243366 0.195926
0.715557 0.245304 0.19675
0.715557 0.245304 0.19675
0.715557 0.245304 0.19675
0.0844739 0.166094 0.211398
0.0834058 0.164828 0.210178
0.080293 0.160937 0.20647
0.107362 0.163531 0.18349
0.410803 0.220706 0.189822
0.701381 0.302388 0.231983
0.763256 0.308721 0.233524
0.760143 0.30428 0.230671
0.759319 0.30309 0.229816
0.270375 0.377264 0.417166
0.269871 0.376684 0.416602
0.267948 0.374502 0.41442
0.259434 0.349493 0.381125
0.336355 0.381201 0.360449
0.675105 0.41236 0.310765
0.843946 0.442817 0.325368
0.837476 0.43006 0.317128
0.835462 0.426444 0.314595
0.457633 0.59028 0.620996
0.454643 0.586923 0.617838
0.448844 0.580331 0.611704
0.418265 0.542199 0.574136
0.450126 0.540871 0.528939
0.556725 0.58262 0.519783
0.899397 0.591028 0.43003
0.908888 0.586343 0.446586
0.907637 0.580148 0.4392
0.608896 0.75967 0.780728
0.606027 0.756634 0.777981
0.602014 0.752392 0.774197
0.575036 0.723613 0.748058
0.59234 0.705348 0.701427
0.637583 0.729656 0.682887
0.769467 0.772946 0.663844
0.943526 0.768444 0.672831
0.942473 0.761624 0.663844
0.620569 0.771084 0.790295
0.620569 0.771084 0.790295
0.620569 0.771084 0.790295
0.620569 0.771084 0.790295
0.653681 0.78175 0.785946
0.742367 0.820661 0.797391
0.829435 0.873976 0.830823
0.935088 0.915114 0.851255
0.946075 0.911192 0.844556
0.620569 0.771084 0.790295
0.620569 0.771084 0.790295
0.620569 0.771084 0.790295
0.620569 0.771084 0.790295
0.647974 0.780056 0.786923
0.731716 0.814908 0.794644
0.817533 0.867552 0.824933
0.915236 0.920562 0.863127
0.948074 0.926894 0.864424
0.0280156 0.0624857 0.144686
0.0281682 0.0629587 0.146914
0.0367132 0.0739605 0.170474
0.224964 0.134066 0.276249
0.527459 0.222492 0.318898
0.688212 0.270558 0.333059
0.688121 0.26952 0.320974
0.688167 0.269032 0.315831
0.688182 0.269429 0.320577
0.0270695 0.0597696 0.131838
0.0265507 0.0581826 0.124651
0.0290532 0.062089 0.123873
0.173556 0.112825 0.237308
0.483604 0.203708 0.284642
0.687846 0.268986 0.313268
0.688121 0.268711 0.305104
0.68806 0.268711 0.303365
0.688045 0.268696 0.306142
0.0259251 0.0581521 0.109316
0.0255436 0.0567941 0.105638
0.0248722 0.0536812 0.0974136
0.123919 0.0950484 0.193103
0.440253 0.186343 0.254856
0.670726 0.264622 0.294499
0.688182 0.268498 0.290227
0.688258 0.268528 0.288975
0.688273 0.268513 0.289738
0.0708324 0.168017 0.236805
0.0702983 0.167056 0.235767
0.0686198 0.163607 0.231968
0.10515 0.157259 0.203403
0.349722 0.223575 0.231754
0.653834 0.307576 0.277668
0.743862 0.317433 0.272908
0.742794 0.310353 0.264622
0.742611 0.308309 0.26215
0.256474 0.369497 0.420569
0.256321 0.368978 0.419669
0.254536 0.366705 0.417197
0.246799 0.338003 0.377661
0.321538 0.365347 0.351598
0.652659 0.397467 0.305837
0.836042 0.432197 0.318547
0.8318 0.419776 0.310002
0.829664 0.4159 0.307271
0.444526 0.577249 0.612451
0.441718 0.573724 0.608682
0.435981 0.56701 0.60209
0.40354 0.527825 0.561242
0.434089 0.524865 0.515557
0.538567 0.566293 0.508507
0.887556 0.578134 0.419593
0.905989 0.573343 0.431601
0.904326 0.567254 0.425162
0.600656 0.750942 0.772915
0.598169 0.748272 0.770535
0.594003 0.743877 0.766674
0.564706 0.711772 0.736309
0.577874 0.691432 0.690181
0.623819 0.715145 0.671397
0.75346 0.759686 0.65069
0.941665 0.756893 0.657832
0.940322 0.749386 0.648371
0.620569 0.771084 0.790295
0.620569 0.771084 0.790295
0.620569 0.771084 0.790295
0.620569 0.771084 0.790295
0.650538 0.780835 0.786496
0.737926 0.81828 0.796277
0.822965 0.869993 0.827008
0.927092 0.907622 0.843809
0.946242 0.90312 0.834775
0.620569 0.771084 0.790295
0.620569 0.771084 0.790295
0.620569 0.771084 0.790295
0.620569 0.771084 0.790295
0.644572 0.778988 0.787594
0.726131 0.812039 0.793286
0.812131 0.86453 0.822065
0.906386 0.918791 0.863737
0.948074 0.926894 0.864424
0.0399481 0.0929427 0.325872
0.040116 0.0932937 0.328817
0.0557565 0.104524 0.338323
0.197177 0.157137 0.428641
0.476265 0.248692 0.463233
0.68864 0.297597 0.491188
0.688579 0.295506 0.47628
0.688487 0.294636 0.470069
0.688441 0.295445 0.474861
0.03888 0.0908064 0.30959
0.0382086 0.0890974 0.299657
0.0444343 0.0949721 0.291768
0.149676 0.137301 0.387366
0.435584 0.230335 0.433402
0.681102 0.293645 0.473106
0.688411 0.293355 0.464027
0.688487 0.292775 0.461616
0.688426 0.2934 0.464302
0.0358129 0.0859083 0.264683
0.0356451 0.0849165 0.261021
0.03505 0.0814527 0.249027
0.110292 0.12076 0.343008
0.397223 0.212039 0.404883
0.664195 0.286748 0.45243
0.688548 0.289555 0.448508
0.68867 0.289143 0.446571
0.688594 0.289189 0.446983
0.061387 0.193332 0.325673
0.0612802 0.193027 0.325994
0.0598154 0.190036 0.323079
0.0885481 0.181964 0.287343
0.315724 0.229206 0.358465
0.611048 0.321828 0.401022
0.709667 0.341878 0.411948
0.707225 0.335073 0.404028
0.706569 0.332952 0.401587
0.232242 0.38085 0.477974
0.231724 0.380163 0.477211
0.229221 0.37763 0.474128
0.223041 0.344305 0.437537
0.32015 0.359976 0.395193
0.548852 0.408621 0.400214
0.769802 0.462654 0.435111
0.774578 0.4477 0.419486
0.77351 0.443626 0.415259
0.417334 0.579187 0.650782
0.414023 0.574914 0.646067
0.408515 0.568032 0.638544
0.377691 0.52723 0.595193
0.444327 0.51986 0.527413
0.538674 0.549279 0.51931
0.852995 0.571878 0.466987
0.889189 0.572015 0.47277
0.887724 0.565377 0.465583
0.59147 0.753353 0.801556
0.587091 0.748653 0.797024
0.581674 0.742763 0.79115
0.548928 0.706645 0.753414
0.56669 0.682628 0.695872
0.628092 0.699825 0.668269
0.739178 0.74226 0.655116
0.936858 0.744701 0.649668
0.935515 0.736797 0.639551
0.624216 0.779263 0.814954
0.624186 0.778912 0.813794
0.624109 0.77847 0.812299
0.623362 0.776761 0.80708
0.648386 0.783566 0.799084
0.735637 0.816388 0.800076
0.809979 0.860273 0.819593
0.914626 0.896086 0.829496
0.946746 0.8916 0.821286
0.624216 0.778866 0.813535
0.624079 0.778256 0.811597
0.623804 0.777569 0.809598
0.622858 0.775814 0.804334
0.641642 0.780529 0.797086
0.722148 0.809705 0.795041
0.806088 0.860822 0.820325
0.898756 0.915084 0.863218
0.948074 0.926894 0.864424
0.0424964 0.0955673 0.373037
0.0424964 0.0955673 0.373037
0.0611582 0.108598 0.389776
0.191043 0.164263 0.496345
0.448631 0.26302 0.56144
0.656397 0.32845 0.605753
0.65832 0.327291 0.598535
0.658915 0.326787 0.595575
0.658473 0.327199 0.597894
0.0424964 0.0955673 0.373037
0.0424964 0.0955673 0.373037
0.0498054 0.0985428 0.381704
0.15108 0.151369 0.475624
0.411002 0.249088 0.5523
0.644373 0.324208 0.595544
0.659388 0.326482 0.593362
0.659815 0.326207 0.592081
0.659495 0.326406 0.593439
0.0427405 0.0975967 0.376715
0.0427253 0.0973068 0.376165
0.0425879 0.0962539 0.374304
0.123934 0.139696 0.452171
0.373739 0.234653 0.535348
0.62858 0.318807 0.582986
0.661982 0.324773 0.585321
0.662531 0.3243 0.583932
0.662425 0.324331 0.584161
0.0799573 0.216068 0.442405
0.0797894 0.215549 0.443168
0.0785687 0.212833 0.441321
0.109255 0.220279 0.381796
0.258289 0.264668 0.495521
0.574746 0.337911 0.546075
0.70367 0.365728 0.554574
0.702419 0.358022 0.54522
0.702159 0.355886 0.542245
0.197192 0.404898 0.558755
0.196262 0.403677 0.557504
0.193927 0.400763 0.554101
0.188296 0.366827 0.515816
0.289876 0.373129 0.484306
0.522332 0.410666 0.533135
0.757351 0.47129 0.523934
0.762753 0.457694 0.517098
0.760433 0.453956 0.513542
0.398459 0.592172 0.713527
0.394827 0.587488 0.708492
0.389868 0.580346 0.701167
0.357885 0.539132 0.655131
0.418936 0.521904 0.612909
0.528359 0.549996 0.576333
0.741253 0.59263 0.561486
0.854353 0.584512 0.556527
0.851331 0.578912 0.550652
0.570489 0.762478 0.840894
0.564324 0.757504 0.836454
0.557244 0.750347 0.829953
0.521187 0.713832 0.796048
0.546883 0.68481 0.748669
0.644816 0.700114 0.688136
0.748684 0.7308 0.682521
0.931319 0.741512 0.667704
0.929244 0.733013 0.657984
0.62797 0.795224 0.855604
0.627756 0.794675 0.854444
0.627375 0.793942 0.852811
0.62591 0.791211 0.846799
0.659236 0.794491 0.839796
0.739803 0.825757 0.829847
0.822309 0.859907 0.837003
0.909667 0.889296 0.835508
0.952071 0.887068 0.828611
0.627558 0.794385 0.853834
0.62707 0.793408 0.851789
0.626398 0.792401 0.849577
0.625879 0.789792 0.84332
0.649134 0.791165 0.836057
0.723857 0.818524 0.825269
0.817975 0.865248 0.845533
0.901366 0.91696 0.881514
0.951034 0.931899 0.885573
0.0424964 0.0955673 0.373037
0.0424964 0.0955673 0.373037
0.0587472 0.106355 0.388037
0.181781 0.16173 0.492027
0.436606 0.258717 0.559838
0.649622 0.327413 0.607065
0.656367 0.329046 0.608652
0.656367 0.329046 0.608652
0.656367 0.329046 0.608652
0.0424964 0.0955673 0.373037
0.0424964 0.0955673 0.373037
0.0480354 0.0978103 0.379644
0.145403 0.149248 0.472206
0.401816 0.246509 0.555489
0.638498 0.324727 0.60444
0.656367 0.329046 0.608652
0.656367 0.329046 0.608652
0.656367 0.329046 0.608652
0.0424964 0.0955673 0.373037
0.0426184 0.0965438 0.374777
0.0424964 0.0956436 0.373159
0.121843 0.138613 0.454032
0.366903 0.233524 0.551019
0.621912 0.32076 0.600687
0.656367 0.329046 0.608652
0.656367 0.329046 0.608652
0.656367 0.329046 0.608652
0.0806592 0.213474 0.469871
0.0803235 0.212711 0.46949
0.0792859 0.210315 0.468574
0.112047 0.222232 0.413367
0.249317 0.270054 0.541176
0.55285 0.345144 0.60557
0.678035 0.376272 0.630549
0.674723 0.370703 0.627344
0.673793 0.369146 0.626413
0.190402 0.413565 0.600351
0.189471 0.412131 0.5991
0.187228 0.40882 0.596155
0.182544 0.379583 0.563226
0.276555 0.391516 0.548943
0.430945 0.434272 0.656214
0.732372 0.483513 0.684581
0.746685 0.469825 0.669581
0.744732 0.466316 0.665248
0.357656 0.608118 0.787686
0.353002 0.603815 0.783841
0.347463 0.597025 0.776394
0.315435 0.557931 0.733959
0.382132 0.534661 0.700984
0.491554 0.559609 0.669429
0.729152 0.590265 0.708339
0.837522 0.595392 0.673777
0.835096 0.589441 0.665507
0.612879 0.77232 0.875044
0.60383 0.767346 0.872374
0.589029 0.760693 0.868666
0.523171 0.725963 0.848966
0.533761 0.692576 0.817807
0.614313 0.706127 0.770672
0.730907 0.732982 0.749264
0.91191 0.747158 0.733791
0.909819 0.738231 0.724605
0.675853 0.813458 0.887449
0.673579 0.81294 0.886671
0.67068 0.812222 0.885557
0.660227 0.809613 0.881346
0.683848 0.810651 0.876692
0.75314 0.834272 0.87335
0.832074 0.86331 0.857984
0.910735 0.887602 0.85568
0.958556 0.885985 0.844892
0.672404 0.812634 0.886198
0.668864 0.811826 0.88484
0.664881 0.810788 0.883284
0.654536 0.808133 0.878843
0.669474 0.807477 0.873396
0.738018 0.829328 0.870863
0.826749 0.874449 0.877195
0.910033 0.921843 0.901442
0.956664 0.93933 0.911986
0.0424964 0.0955673 0.373037
0.0424964 0.0955673 0.373037
0.0570687 0.104784 0.386908
0.176364 0.160021 0.489357
0.429709 0.256199 0.558892
0.647089 0.326818 0.606424
0.656367 0.329046 0.608652
0.656367 0.329046 0.608652
0.656367 0.329046 0.608652
0.0424964 0.0955673 0.373037
0.0424964 0.0955673 0.373037
0.0469978 0.0973983 0.378393
0.143282 0.148455 0.470756
0.398871 0.245441 0.555062
0.637064 0.324392 0.604105
0.656367 0.329046 0.608652
0.656367 0.329046 0.608652
0.656367 0.329046 0.608652
0.0424964 0.0957198 0.373358
0.0425727 0.096025 0.373861
0.0425269 0.0955825 0.373068
0.121096 0.138308 0.453376
0.365301 0.232914 0.550866
0.62092 0.320562 0.600473
0.656367 0.329046 0.608652
0.656367 0.329046 0.608652
0.656367 0.329046 0.608652
0.0800793 0.212085 0.469169
0.0797436 0.211322 0.468879
0.0786755 0.208835 0.467842
0.110735 0.220432 0.413001
0.246159 0.26743 0.539162
0.546929 0.342123 0.603418
0.676753 0.374212 0.629297
0.67332 0.368338 0.625971
0.672282 0.366552 0.624933
0.188083 0.410117 0.59736
0.186969 0.408392 0.595773
0.184512 0.4047 0.592432
0.17763 0.374136 0.559121
0.269673 0.384863 0.542901
0.453132 0.425788 0.662303
0.721691 0.474022 0.692927
0.739193 0.467185 0.688884
0.736828 0.463813 0.686687
0.350607 0.602335 0.783185
0.345983 0.597589 0.778653
0.339483 0.590906 0.772412
0.303548 0.553658 0.735134
0.36286 0.531762 0.711543
0.476326 0.559213 0.69575
0.711437 0.58793 0.764263
0.823117 0.594003 0.770352
0.819944 0.588266 0.767025
0.615946 0.771664 0.881651
0.606851 0.766995 0.879866
0.592966 0.760479 0.877455
0.525887 0.728847 0.866667
0.531411 0.697841 0.849729
0.605142 0.703868 0.823743
0.694163 0.7364 0.835142
0.892622 0.752636 0.851514
0.891829 0.743938 0.84564
0.72398 0.824537 0.901823
0.72398 0.824537 0.901823
0.72398 0.824537 0.901823
0.72398 0.824537 0.901823
0.739803 0.827237 0.901198
0.784421 0.842939 0.901946
0.834424 0.867124 0.902113
0.905684 0.890776 0.898192
0.952239 0.891447 0.888823
0.72398 0.824537 0.901823
0.72398 0.824537 0.901823
0.72398 0.824537 0.901823
0.72398 0.824506 0.901778
0.728466 0.825055 0.899718
0.774121 0.843503 0.901823
0.843 0.884901 0.91664
0.92491 0.929076 0.927474
0.962631 0.949065 0.938521
0.0424964 0.0955673 0.373037
0.0424964 0.0955673 0.373037
0.0575265 0.105211 0.387274
0.178225 0.160632 0.490303
0.431754 0.256962 0.559182
0.648188 0.327077 0.606638
0.656367 0.329046 0.608652
0.656367 0.329046 0.608652
0.656367 0.329046 0.608652
0.0424964 0.0955673 0.373037
0.0424964 0.0955673 0.373037
0.0468605 0.0973526 0.378302
0.143618 0.148531 0.471015
0.399344 0.245624 0.555184
0.637629 0.324529 0.604257
0.656367 0.329046 0.608652
0.656367 0.329046 0.608652
0.656367 0.329046 0.608652
0.0425727 0.096025 0.373861
0.0424964 0.0957198 0.373358
0.0425269 0.0955825 0.373068
0.121248 0.138338 0.453574
0.365301 0.232914 0.550866
0.62092 0.320562 0.600473
0.656367 0.329046 0.608652
0.656367 0.329046 0.608652
0.656367 0.329046 0.608652
0.0801404 0.212284 0.469322
0.0798962 0.211658 0.469001
0.078706 0.208927 0.467964
0.110521 0.220111 0.412909
0.245365 0.266804 0.538643
0.545403 0.341405 0.602914
0.676539 0.373739 0.629007
0.672877 0.367605 0.625559
0.671901 0.365972 0.624598
0.187991 0.409903 0.597131
0.186633 0.40795 0.595407
0.183841 0.403616 0.591455
0.176226 0.372442 0.557733
0.267521 0.382895 0.541146
0.449668 0.424109 0.660868
0.719661 0.472526 0.691981
0.738231 0.465812 0.688029
0.735958 0.462669 0.685893
0.349447 0.60116 0.78204
0.344518 0.596155 0.777264
0.337804 0.58912 0.770809
0.301518 0.551476 0.732906
0.35993 0.529335 0.709285
0.473472 0.556848 0.693584
0.70811 0.585245 0.762798
0.821897 0.591806 0.76907
0.818769 0.586175 0.765866
0.613397 0.770489 0.881224
0.603769 0.765469 0.879301
0.589517 0.758724 0.876799
0.521416 0.726696 0.866026
0.52604 0.695323 0.849287
0.600443 0.700923 0.822751
0.68925 0.732799 0.832959
0.89015 0.749477 0.851682
0.889647 0.740932 0.847318
0.72398 0.824537 0.901823
0.72398 0.824537 0.901823
0.72398 0.824537 0.901823
0.72398 0.824537 0.901823
0.739254 0.827268 0.90161
0.773144 0.837079 0.902525
0.819135 0.859022 0.909392
0.896681 0.890242 0.921248
0.944579 0.892363 0.921874
0.72398 0.824537 0.901823
0.72398 0.824537 0.901823
0.72398 0.824537 0.901823
0.72398 0.824537 0.901823
0.73489 0.826917 0.901946
0.782376 0.848173 0.909361
0.851743 0.888029 0.928084
0.928512 0.932937 0.946166
0.964034 0.952132 0.955001
