public/luts/The_Creator.cube
TITLE "Generated by Resolve"
LUT_3D_SIZE 17
0.0200046 0.0382239 0.0535897
0.0200046 0.0382239 0.0535897
0.0200046 0.0382239 0.0535897
0.0207065 0.0386816 0.0542458
0.0354467 0.0468147 0.0653391
0.128923 0.0808423 0.10518
0.29305 0.122499 0.133257
0.448676 0.170047 0.159518
0.593957 0.21445 0.183078
0.689937 0.240299 0.194614
0.715557 0.245304 0.19675
0.715557 0.245304 0.19675
0.715557 0.245304 0.19675
0.715557 0.245304 0.19675
0.715557 0.245304 0.19675
0.715557 0.245304 0.19675
0.715557 0.245304 0.19675
0.0200046 0.0382239 0.0535897
0.0200046 0.0382239 0.0535897
0.0200046 0.0382239 0.0535897
0.0205386 0.0385901 0.0541085
0.0322271 0.0450599 0.0629892
0.105165 0.074342 0.0990005
0.260456 0.113313 0.128328
0.41207 0.158846 0.153292
0.558099 0.203571 0.177432
0.671885 0.236469 0.193164
0.715557 0.245304 0.19675
0.715557 0.245304 0.19675
0.715557 0.245304 0.19675
0.715557 0.245304 0.19675
0.715557 0.245304 0.19675
0.715557 0.245304 0.19675
0.715557 0.245304 0.19675
0.0200046 0.0382239 0.0535897
0.0200046 0.0382239 0.0535897
0.0200046 0.0382239 0.0535897
0.0200046 0.0382391 0.0536049
0.0266423 0.0424659 0.0592966
0.0809949 0.0664683 0.0906996
0.230625 0.105394 0.123796
0.386633 0.151064 0.149035
0.53669 0.196963 0.173861
0.662882 0.234241 0.192142
0.715557 0.245304 0.19675
0.715557 0.245304 0.19675
0.715557 0.245304 0.19675
0.715557 0.245304 0.19675
0.715557 0.245304 0.19675
0.715557 0.245304 0.19675
0.715557 0.245304 0.19675
0.0200046 0.0382239 0.0535897
0.0200046 0.0382239 0.0535897
0.0200046 0.0382239 0.0535897
0.0200046 0.0382239 0.0535897
0.0234989 0.04065 0.0568856
0.0626688 0.0596323 0.082414
0.203845 0.0988479 0.119585
0.366308 0.144625 0.145403
0.521828 0.19234 0.171359
0.656596 0.232532 0.191348
0.714961 0.245228 0.196719
0.715557 0.245304 0.19675
0.715557 0.245304 0.19675
0.715557 0.245304 0.19675
0.715557 0.245304 0.19675
0.715557 0.245304 0.19675
0.715557 0.245304 0.19675
0.0236057 0.0461891 0.063798
0.023209 0.0453651 0.0626383
0.0231479 0.0452277 0.0624552
0.022858 0.0446326 0.0616312
0.0227817 0.0431373 0.0598001
0.0444038 0.0532692 0.073228
0.158343 0.0885634 0.11162
0.323873 0.131487 0.137987
0.477745 0.178836 0.164355
0.623911 0.223392 0.187381
0.705989 0.243458 0.195956
0.715557 0.245304 0.19675
0.715557 0.245304 0.19675
0.715557 0.245304 0.19675
0.715557 0.245304 0.19675
0.715557 0.245304 0.19675
0.715557 0.245304 0.19675
0.0396429 0.0875257 0.119554
0.0382239 0.0841077 0.114961
0.0387579 0.085481 0.116884
0.0388342 0.0856489 0.117098
0.0365454 0.0798352 0.109102
0.0451667 0.0820783 0.107042
0.133196 0.103258 0.118822
0.286336 0.141405 0.142046
0.437507 0.185031 0.166369
0.586801 0.228443 0.189807
0.698405 0.258625 0.204471
0.728435 0.261723 0.205509
0.725841 0.258427 0.203677
0.725155 0.257527 0.20322
0.724575 0.256764 0.202808
0.723995 0.256077 0.202426
0.724697 0.256901 0.202869
0.0857252 0.167651 0.212955
0.0817273 0.162737 0.208164
0.0848096 0.166522 0.211826
0.0871595 0.169329 0.214633
0.0809491 0.161776 0.207263
0.0808423 0.152697 0.194797
0.10808 0.16347 0.183139
0.263722 0.18439 0.169146
0.409384 0.220142 0.189517
0.558434 0.261219 0.211292
0.700557 0.302312 0.231968
0.764889 0.313176 0.236423
0.763638 0.3093 0.233906
0.761883 0.306737 0.232197
0.760662 0.304997 0.231052
0.759777 0.303563 0.229938
0.760311 0.304387 0.230503
0.174258 0.269932 0.313024
0.169589 0.264729 0.308003
0.173877 0.269581 0.312688
0.177935 0.27396 0.316762
0.171466 0.26688 0.310094
0.160388 0.253697 0.297627
0.175586 0.25156 0.278965
0.221241 0.271489 0.270619
0.402625 0.286442 0.236179
0.542092 0.316075 0.249775
0.683986 0.351263 0.266743
0.786633 0.375143 0.277684
0.804318 0.373098 0.277745
0.801068 0.367483 0.273808
0.799207 0.364248 0.271534
0.79736 0.361257 0.269444
0.797955 0.362203 0.270146
0.269673 0.376455 0.416373
0.265126 0.371283 0.411231
0.270191 0.377035 0.416953
0.273716 0.381048 0.421012
0.26807 0.374624 0.414542
0.254994 0.35993 0.400626
0.259556 0.349462 0.380911
0.2804 0.358648 0.362463
0.337057 0.381994 0.361105
0.541726 0.38819 0.305104
0.677241 0.414115 0.312001
0.798764 0.441474 0.323323
0.845655 0.444892 0.327092
0.841184 0.436332 0.32137
0.838621 0.431968 0.31841
0.836378 0.428046 0.315709
0.836927 0.428946 0.316289
0.365316 0.485451 0.520851
0.360464 0.479957 0.515709
0.364767 0.48484 0.520287
0.367834 0.48835 0.523644
0.361135 0.48069 0.516381
0.346716 0.464103 0.500664
0.341161 0.447822 0.479728
0.356008 0.445838 0.454429
0.382101 0.462333 0.445182
0.45069 0.485283 0.442649
0.674708 0.485466 0.371695
0.802197 0.507179 0.371756
0.877195 0.517266 0.372961
0.882689 0.511986 0.375036
0.879347 0.50573 0.370382
0.876829 0.500923 0.366873
0.87718 0.501656 0.367407
0.459037 0.591867 0.622538
0.45388 0.586038 0.616999
0.457084 0.589654 0.620417
0.457984 0.590646 0.621347
0.450858 0.582589 0.613779
0.434684 0.564248 0.597116
0.420462 0.544182 0.575906
0.432486 0.535546 0.54789
0.452735 0.543496 0.531014
0.482994 0.562356 0.528054
0.56054 0.585748 0.521859
0.80325 0.580774 0.436881
0.902144 0.5944 0.433204
0.911376 0.599084 0.461311
0.909529 0.589349 0.450141
0.908278 0.583368 0.44303
0.908431 0.5841 0.44387
0.543664 0.687922 0.714336
0.538628 0.682292 0.709117
0.540215 0.684047 0.710719
0.540215 0.684047 0.710719
0.533211 0.676249 0.703563
0.517952 0.658824 0.686351
0.500008 0.638178 0.666804
0.508202 0.626307 0.640314
0.52639 0.627024 0.619547
0.549416 0.640314 0.609796
0.582956 0.660151 0.611048
0.668132 0.684138 0.596628
0.906737 0.67512 0.51603
0.9299 0.691707 0.574044
0.928161 0.682612 0.564965
0.926833 0.675761 0.55639
0.926955 0.676432 0.557183
0.610574 0.761456 0.782284
0.607523 0.758221 0.779431
0.608042 0.758801 0.77995
0.607706 0.75845 0.779599
0.603479 0.753964 0.775586
0.593301 0.74313 0.766049
0.57673 0.725475 0.749935
0.57847 0.712398 0.727245
0.59559 0.708431 0.703868
0.618021 0.716808 0.691997
0.641566 0.733364 0.686198
0.679744 0.754208 0.692027
0.772625 0.777157 0.667353
0.935409 0.775982 0.674525
0.94406 0.771801 0.677211
0.943084 0.76556 0.669017
0.943145 0.765927 0.66952
0.620569 0.771084 0.790295
0.620569 0.771084 0.790295
0.620569 0.771084 0.790295
0.620569 0.771084 0.790295
0.620569 0.771084 0.790295
0.620569 0.771084 0.790295
0.620569 0.771084 0.790295
0.628077 0.771557 0.787243
0.653819 0.775814 0.774121
0.683497 0.784451 0.76701
0.719905 0.799619 0.765652
0.748821 0.816449 0.77116
0.789288 0.836271 0.787152
0.868513 0.856336 0.764553
0.947417 0.85333 0.777661
0.947646 0.846189 0.769528
0.947646 0.846571 0.769955
0.620569 0.771084 0.790295
0.620569 0.771084 0.790295
0.620569 0.771084 0.790295
0.620569 0.771084 0.790295
0.620569 0.771084 0.790295
0.620569 0.771084 0.790295
0.620569 0.771084 0.790295
0.623545 0.772076 0.790509
0.655039 0.782147 0.785733
0.694499 0.79733 0.786984
0.744076 0.821546 0.797742
0.785946 0.847425 0.811536
0.8318 0.875471 0.832349
0.876005 0.900801 0.856168
0.937224 0.917296 0.853529
0.946059 0.914031 0.848005
0.946059 0.914046 0.84802
0.620569 0.771084 0.790295
0.620569 0.771084 0.790295
0.620569 0.771084 0.790295
0.620569 0.771084 0.790295
0.620569 0.771084 0.790295
0.620569 0.771084 0.790295
0.620569 0.771084 0.790295
0.621408 0.771374 0.790356
0.649256 0.780438 0.786709
0.685802 0.793515 0.785672
0.733974 0.816129 0.795224
0.776532 0.84123 0.808347
0.819944 0.86891 0.826185
0.867247 0.896071 0.852903
0.919844 0.921492 0.862959
0.948074 0.926894 0.864424
0.948074 0.926894 0.864424
0.620569 0.771084 0.790295
0.620569 0.771084 0.790295
0.620569 0.771084 0.790295
0.620569 0.771084 0.790295
0.620569 0.771084 0.790295
0.620569 0.771084 0.790295
0.620569 0.771084 0.790295
0.621698 0.771466 0.790372
0.649805 0.780575 0.786572
0.686687 0.793896 0.785824
0.734737 0.816541 0.795407
0.777111 0.841611 0.80853
0.8206 0.869261 0.826535
0.867826 0.896422 0.853239
0.920775 0.921645 0.862913
0.948074 0.926894 0.864424
0.948074 0.926894 0.864424
0.0200046 0.0382239 0.0535897
0.0200046 0.0382239 0.0535897
0.0200046 0.0382239 0.0535897
0.0207065 0.0386816 0.0542611
0.035874 0.0470436 0.0656443
0.128557 0.0807355 0.105058
0.291798 0.122133 0.133059
0.446571 0.16936 0.159121
0.591546 0.213703 0.182696
0.68864 0.240055 0.194522
0.715557 0.245304 0.19675
0.715557 0.245304 0.19675
0.715557 0.245304 0.19675
0.715557 0.245304 0.19675
0.715557 0.245304 0.19675
0.715557 0.245304 0.19675
0.715557 0.245304 0.19675
0.0200046 0.0382239 0.0535897
0.0200046 0.0382239 0.0535897
0.0200046 0.0382239 0.0535897
0.0205081 0.0385748 0.054078
0.0319066 0.044892 0.0627604
0.103471 0.0738689 0.0985122
0.258015 0.112612 0.127932
0.409659 0.158114 0.15288
0.555306 0.202716 0.177005
0.670527 0.236118 0.19295
0.715557 0.245304 0.19675
0.715557 0.245304 0.19675
0.715557 0.245304 0.19675
0.715557 0.245304 0.19675
0.715557 0.245304 0.19675
0.715557 0.245304 0.19675
0.715557 0.245304 0.19675
0.0200046 0.0382239 0.0535897
0.0200046 0.0382239 0.0535897
0.0200046 0.0382239 0.0535897
0.0200046 0.0382391 0.0536049
0.0263828 0.0423438 0.059144
0.079469 0.065919 0.0900435
0.228046 0.104738 0.123415
0.383902 0.150195 0.148547
0.534218 0.196155 0.173434
0.661357 0.233799 0.191913
0.715557 0.245304 0.19675
0.715557 0.245304 0.19675
0.715557 0.245304 0.19675
0.715557 0.245304 0.19675
0.715557 0.245304 0.19675
0.715557 0.245304 0.19675
0.715557 0.245304 0.19675
0.0200046 0.0382239 0.0535897
0.0200046 0.0382239 0.0535897
0.0200046 0.0382239 0.0535897
0.0200046 0.0382239 0.0535897
0.0233921 0.0405737 0.0567636
0.0615396 0.059144 0.0817731
0.201434 0.0982528 0.119219
0.364202 0.143969 0.144991
0.519738 0.191653 0.170977
0.655329 0.232227 0.191211
0.714702 0.245151 0.196597
0.715557 0.245304 0.19675
0.715557 0.245304 0.19675
0.715557 0.245304 0.19675
0.715557 0.245304 0.19675
0.715557 0.245304 0.19675
0.715557 0.245304 0.19675
0.0235142 0.0459907 0.0635233
0.0231022 0.0451667 0.0623636
0.0230259 0.0449989 0.0621347
0.0227512 0.0444038 0.061326
0.0226596 0.0429236 0.0595102
0.0435492 0.0527047 0.0725414
0.156146 0.0879377 0.111162
0.322057 0.130938 0.137682
0.476127 0.178347 0.164111
0.622446 0.222919 0.187106
0.705409 0.243366 0.195926
0.715557 0.245304 0.19675
0.715557 0.245304 0.19675
0.715557 0.245304 0.19675
0.715557 0.245304 0.19675
0.715557 0.245304 0.19675
0.715557 0.245304 0.19675
0.0392309 0.0865644 0.118318
0.0377966 0.0830854 0.113542
0.038407 0.0845655 0.115587
0.038468 0.0847334 0.115831
0.0363012 0.0791485 0.108141
0.0446021 0.0812543 0.106065
0.131365 0.102419 0.118273
0.284581 0.14049 0.141558
0.435508 0.183978 0.16582
0.585138 0.227527 0.189349
0.6972 0.257801 0.204059
0.727932 0.261036 0.205127
0.725322 0.25774 0.203311
0.724636 0.25684 0.202838
0.723995 0.256077 0.202426
0.723552 0.255497 0.202106
0.724102 0.256214 0.202487
0.0848707 0.166613 0.211917
0.0807355 0.161471 0.206958
0.0834669 0.164935 0.2103
0.085893 0.167865 0.213184
0.0798047 0.160311 0.20589
0.0797436 0.151324 0.193347
0.106661 0.161883 0.182025
0.261418 0.182803 0.168154
0.407431 0.218723 0.188663
0.556313 0.259724 0.21033
0.69868 0.300999 0.231144
0.763516 0.312184 0.235676
0.763043 0.3084 0.23331
0.761379 0.306004 0.231754
0.760098 0.304189 0.230564
0.759014 0.302571 0.229389
0.759579 0.303395 0.229877
0.173037 0.26862 0.311772
0.168017 0.263005 0.306401
0.172351 0.267857 0.311025
0.176226 0.272099 0.315022
0.170153 0.265385 0.308644
0.159136 0.252186 0.296254
0.173739 0.249729 0.27747
0.219806 0.269566 0.268925
0.399908 0.284504 0.234989
0.539834 0.314351 0.248692
0.681865 0.349584 0.26569
0.785321 0.373724 0.276722
0.803601 0.371939 0.276967
0.800259 0.36611 0.272847
0.798398 0.362936 0.270604
0.796536 0.359945 0.268528
0.797131 0.360891 0.26923
0.268833 0.37554 0.415457
0.263722 0.369665 0.409689
0.268467 0.375082 0.414984
0.272312 0.379446 0.419379
0.266545 0.372885 0.412818
0.253666 0.358434 0.399283
0.257893 0.347829 0.379736
0.278279 0.356542 0.360845
0.335058 0.379919 0.359609
0.538903 0.386038 0.303548
0.67451 0.412161 0.310689
0.796613 0.439658 0.322225
0.844297 0.443153 0.325643
0.840421 0.43505 0.320485
0.837827 0.430549 0.317388
0.835462 0.426444 0.314595
0.83595 0.427253 0.31516
0.364233 0.48423 0.519722
0.358968 0.478248 0.514122
0.363149 0.483009 0.518547
0.365927 0.486183 0.521569
0.35964 0.478981 0.514794
0.345129 0.462287 0.499001
0.339284 0.446052 0.478279
0.354192 0.444007 0.453071
0.379919 0.460029 0.443442
0.447913 0.483009 0.441062
0.671962 0.48336 0.370245
0.799054 0.504982 0.370459
0.875883 0.515755 0.371939
0.881804 0.510323 0.373816
0.878477 0.504067 0.369162
0.875776 0.499046 0.36556
0.876249 0.49987 0.36614
0.458061 0.590768 0.621454
0.452354 0.584298 0.615366
0.455207 0.587533 0.618418
0.456458 0.588907 0.619699
0.449195 0.580713 0.612039
0.433249 0.562631 0.59559
0.418509 0.542351 0.574258
0.43035 0.53344 0.546212
0.45066 0.541405 0.529366
0.480858 0.560098 0.526223
0.557885 0.583413 0.520195
0.800198 0.578561 0.435401
0.900328 0.592111 0.430991
0.91104 0.597238 0.459312
0.909117 0.58735 0.447715
0.907774 0.58088 0.440055
0.907942 0.58175 0.441077
0.542443 0.686549 0.713069
0.536965 0.680415 0.707378
0.538491 0.682139 0.708949
0.538491 0.682155 0.708995
0.531762 0.674617 0.702068
0.51664 0.657328 0.684901
0.498726 0.636683 0.665431
0.506188 0.62443 0.638911
0.524117 0.62472 0.617777
0.547204 0.638071 0.607858
0.580621 0.657801 0.608972
0.665492 0.681575 0.594858
0.905837 0.672587 0.512428
0.929473 0.689677 0.571298
0.927703 0.680278 0.56202
0.926436 0.673564 0.553643
0.926528 0.674128 0.554314
0.609873 0.760739 0.781689
0.606577 0.757244 0.778546
0.606912 0.757595 0.778866
0.606668 0.757351 0.778653
0.602487 0.75288 0.774639
0.592493 0.742275 0.765301
0.575525 0.724117 0.748547
0.576425 0.710521 0.725811
0.593622 0.706554 0.702388
0.615869 0.714656 0.690257
0.639124 0.731106 0.684199
0.677516 0.752041 0.69012
0.77026 0.774701 0.665431
0.934981 0.7738 0.671077
0.943755 0.769833 0.674647
0.942748 0.763256 0.665995
0.942779 0.763592 0.666453
0.620569 0.771084 0.790295
0.620569 0.771084 0.790295
0.620569 0.771084 0.790295
0.620569 0.771084 0.790295
0.620569 0.771084 0.790295
0.620569 0.771084 0.790295
0.620569 0.771084 0.790295
0.627512 0.771328 0.787274
0.651896 0.774639 0.773266
0.681224 0.783032 0.765667
0.716976 0.797757 0.763729
0.745571 0.814206 0.768536
0.786404 0.834257 0.784604
0.866056 0.85452 0.761273
0.947509 0.851331 0.775448
0.947601 0.844282 0.7673
0.947601 0.844541 0.76759
0.620569 0.771084 0.790295
0.620569 0.771084 0.790295
0.620569 0.771084 0.790295
0.620569 0.771084 0.790295
0.620569 0.771084 0.790295
0.620569 0.771084 0.790295
0.620569 0.771084 0.790295
0.623056 0.771954 0.790509
0.654414 0.781994 0.785885
0.693599 0.796918 0.786831
0.74313 0.821073 0.797574
0.78529 0.847013 0.811353
0.830915 0.874968 0.83183
0.875013 0.900145 0.855604
0.936477 0.916228 0.852338
0.946014 0.912612 0.846296
0.945998 0.912734 0.846433
0.620569 0.771084 0.790295
0.620569 0.771084 0.790295
0.620569 0.771084 0.790295
0.620569 0.771084 0.790295
0.620569 0.771084 0.790295
0.620569 0.771084 0.790295
0.620569 0.771084 0.790295
0.620813 0.771145 0.790295
0.648386 0.780163 0.786831
0.684733 0.793088 0.78555
0.73254 0.815351 0.794812
0.775341 0.840452 0.807935
0.818509 0.868101 0.825452
0.866056 0.895338 0.852216
0.917311 0.920958 0.86302
0.948074 0.926894 0.864424
0.948074 0.926894 0.864424
0.620569 0.771084 0.790295
0.620569 0.771084 0.790295
0.620569 0.771084 0.790295
0.620569 0.771084 0.790295
0.620569 0.771084 0.790295
0.620569 0.771084 0.790295
0.620569 0.771084 0.790295
0.621286 0.771344 0.790372
0.649042 0.780392 0.78677
0.685435 0.793347 0.785611
0.733471 0.815885 0.795117
0.775921 0.840833 0.808133
0.819287 0.868544 0.825864
0.86659 0.895674 0.852537
0.918257 0.921111 0.862959
0.948074 0.926894 0.864424
0.948074 0.926894 0.864424
0.0200046 0.0382239 0.0535897
0.0200046 0.0382239 0.0535897
0.0200046 0.0382239 0.0535897
0.0206912 0.0386816 0.0542458
0.0356909 0.046952 0.0655222
0.126909 0.0803693 0.104738
0.289891 0.121584 0.132784
0.444816 0.168811 0.15877
0.589654 0.213184 0.182467
0.687724 0.239796 0.194354
0.715557 0.245304 0.19675
0.715557 0.245304 0.19675
0.715557 0.245304 0.19675
0.715557 0.245304 0.19675
0.715557 0.245304 0.19675
0.715557 0.245304 0.19675
0.715557 0.245304 0.19675
0.0200046 0.0382239 0.0535897
0.0200046 0.0382239 0.0535897
0.0200046 0.0382239 0.0535897
0.0204166 0.0384985 0.0539864
0.03122 0.0445258 0.0622721
0.101213 0.0731212 0.0977493
0.255467 0.111925 0.127565
0.407355 0.157397 0.152483
0.553414 0.202106 0.176638
0.669749 0.235966 0.192905
0.715557 0.245304 0.19675
0.715557 0.245304 0.19675
0.715557 0.245304 0.19675
0.715557 0.245304 0.19675
0.715557 0.245304 0.19675
0.715557 0.245304 0.19675
0.715557 0.245304 0.19675
0.0200046 0.0382239 0.0535897
0.0200046 0.0382239 0.0535897
0.0200046 0.0382239 0.0535897
0.0200046 0.0382239 0.0535897
0.0260166 0.0421759 0.0588846
0.0782177 0.0654459 0.0894942
0.2262 0.104265 0.12311
0.382925 0.149859 0.148348
0.53373 0.196017 0.173388
0.661357 0.233799 0.191913
0.71548 0.245304 0.196735
0.715557 0.245304 0.19675
0.715557 0.245304 0.19675
0.715557 0.245304 0.19675
0.715557 0.245304 0.19675
0.715557 0.245304 0.19675
0.715557 0.245304 0.19675
0.0200046 0.0382239 0.0535897
0.0200046 0.0382239 0.0535897
0.0200046 0.0382239 0.0535897
0.0200046 0.0382239 0.0535897
0.023331 0.040528 0.0567178
0.061326 0.0590372 0.0816663
0.201541 0.0982681 0.119219
0.364569 0.144076 0.145098
0.520684 0.191974 0.17116
0.656138 0.232456 0.191333
0.714794 0.245167 0.196612
0.715557 0.245304 0.19675
0.715557 0.245304 0.19675
0.715557 0.245304 0.19675
0.715557 0.245304 0.19675
0.715557 0.245304 0.19675
0.715557 0.245304 0.19675
0.0234989 0.0459602 0.0634775
0.0230716 0.0450904 0.0622721
0.0230564 0.0450294 0.0621805
0.022797 0.0444953 0.0614633
0.0227817 0.0430915 0.0597543
0.0441901 0.0531777 0.073106
0.157595 0.0882277 0.111421
0.32343 0.13135 0.137911
0.478065 0.178882 0.16437
0.624308 0.223514 0.187427
0.706279 0.243503 0.195987
0.715557 0.245304 0.19675
0.715557 0.245304 0.19675
0.715557 0.245304 0.19675
0.715557 0.245304 0.19675
0.715557 0.245304 0.19675
0.715557 0.245304 0.19675
0.0395056 0.0872511 0.119203
0.0380407 0.083711 0.114397
0.0386664 0.0851911 0.116472
0.0388342 0.0855879 0.117021
0.0366064 0.079942 0.109224
0.0455634 0.0825055 0.107469
0.133425 0.103502 0.11899
0.287053 0.142 0.142458
0.438682 0.18555 0.16669
0.588373 0.229053 0.190143
0.699367 0.258991 0.204623
0.728557 0.261875 0.20557
0.726024 0.25864 0.203784
0.725261 0.257664 0.203281
0.724697 0.256901 0.202869
0.723995 0.256077 0.202426
0.724697 0.256901 0.202869
0.0860761 0.168063 0.213352
0.0817884 0.162829 0.20827
0.0847028 0.1664 0.211719
0.0870985 0.169314 0.214633
0.081117 0.16199 0.207462
0.0813764 0.153185 0.195239
0.107927 0.163973 0.183795
0.264637 0.184787 0.16939
0.410834 0.220813 0.189929
0.560113 0.261723 0.211566
0.701564 0.302647 0.232166
0.764172 0.3131 0.236332
0.763577 0.309224 0.233875
0.761852 0.306752 0.232273
0.760586 0.304936 0.231083
0.75938 0.303181 0.229847
0.760052 0.304097 0.230457
0.175113 0.270909 0.313939
0.169787 0.264942 0.308202
0.173999 0.269688 0.312795
0.178195 0.274205 0.317006
0.171847 0.267308 0.310506
0.161318 0.254353 0.298039
0.175952 0.251896 0.27924
0.222339 0.271916 0.270848
0.403052 0.286732 0.23653
0.542992 0.316304 0.249866
0.684657 0.35137 0.266773
0.786603 0.374762 0.277378
0.80415 0.372808 0.277546
0.800732 0.366979 0.273442
0.798703 0.363516 0.271077
0.796811 0.360342 0.268833
0.79736 0.361257 0.269444
0.270756 0.377722 0.417655
0.265507 0.37174 0.411704
0.270253 0.377142 0.417075
0.274037 0.381399 0.421378
0.268269 0.374853 0.414771
0.255116 0.360052 0.400732
0.259602 0.34963 0.381216
0.280278 0.358572 0.362539
0.336706 0.381598 0.360754
0.541192 0.387503 0.304448
0.676524 0.413336 0.311467
0.797986 0.440696 0.322866
0.844648 0.443961 0.326207
0.840787 0.435737 0.320989
0.838132 0.431159 0.317861
0.835721 0.426947 0.314961
0.836271 0.427848 0.315541
0.36614 0.486412 0.521782
0.360723 0.480201 0.515908
0.364645 0.484718 0.520165
0.367559 0.487999 0.523293
0.360922 0.480461 0.516167
0.346395 0.463737 0.500328
0.340536 0.447379 0.4795
0.355383 0.445258 0.454093
0.381109 0.461295 0.44445
0.449332 0.484138 0.441855
0.673579 0.484504 0.371008
0.800626 0.506081 0.371176
0.876493 0.516533 0.372686
0.882109 0.510948 0.374289
0.878828 0.504784 0.369696
0.876112 0.49955 0.36585
0.876463 0.500282 0.366384
0.459373 0.592248 0.622889
0.453605 0.585687 0.616632
0.456321 0.588785 0.619577
0.457435 0.590021 0.620737
0.450248 0.581933 0.613184
0.434134 0.563622 0.596506
0.419608 0.543496 0.575326
0.431434 0.534569 0.547234
0.45153 0.54229 0.530129
0.481727 0.561028 0.527016
0.559014 0.584329 0.52079
0.801144 0.579355 0.436011
0.90074 0.592752 0.431617
0.911162 0.597848 0.459937
0.909255 0.588098 0.448646
0.907942 0.58175 0.441077
0.908095 0.582376 0.441825
0.543297 0.687541 0.714015
0.53785 0.681407 0.708278
0.539071 0.68278 0.70956
0.539284 0.683024 0.709789
0.532494 0.675486 0.702876
0.517464 0.65832 0.685878
0.499626 0.637598 0.666194
0.507073 0.62533 0.639658
0.525002 0.62565 0.618509
0.547967 0.638849 0.608576
0.581491 0.658701 0.609751
0.666957 0.682383 0.595132
0.906111 0.67335 0.513497
0.929549 0.690257 0.572076
0.92784 0.681071 0.563043
0.926513 0.673991 0.554147
0.926604 0.674479 0.554788
0.610315 0.761212 0.782116
0.606821 0.757488 0.778775
0.607324 0.758068 0.779293
0.607141 0.757839 0.779095
0.60296 0.753384 0.775067
0.593027 0.742794 0.765713
0.57615 0.724865 0.749325
0.577279 0.711421 0.726619
0.594247 0.707195 0.702937
0.616526 0.715328 0.690822
0.639857 0.731777 0.684794
0.678126 0.75259 0.690578
0.771527 0.775235 0.665705
0.93492 0.774227 0.671763
0.943816 0.770291 0.675227
0.942779 0.763592 0.666423
0.942855 0.763943 0.66688
0.620569 0.771084 0.790295
0.620569 0.771084 0.790295
0.620569 0.771084 0.790295
0.620569 0.771084 0.790295
0.620569 0.771084 0.790295
0.620569 0.771084 0.790295
0.620569 0.771084 0.790295
0.628489 0.772183 0.788022
0.652354 0.774914 0.773449
0.681987 0.78352 0.766186
0.71754 0.798123 0.764157
0.746578 0.814878 0.76936
0.787091 0.834775 0.785275
0.866484 0.854994 0.762081
0.947433 0.851698 0.77586
0.947524 0.844648 0.767681
0.947524 0.84477 0.767834
0.620569 0.771084 0.790295
0.620569 0.771084 0.790295
0.620569 0.771084 0.790295
0.620569 0.771084 0.790295
0.620569 0.771084 0.790295
0.620569 0.771084 0.790295
0.620569 0.771084 0.790295
0.623423 0.772045 0.790478
0.65449 0.78201 0.785855
0.693599 0.796918 0.786831
0.743252 0.821118 0.797574
0.785336 0.847028 0.811337
0.831189 0.875135 0.831998
0.87628 0.901259 0.856794
0.936828 0.916548 0.852674
0.945968 0.912963 0.846708
0.945968 0.912963 0.846723
0.620569 0.771084 0.790295
0.620569 0.771084 0.790295
0.620569 0.771084 0.790295
0.620569 0.771084 0.790295
0.620569 0.771084 0.790295
0.620569 0.771084 0.790295
0.620569 0.771084 0.790295
0.620569 0.771084 0.790295
0.64831 0.780148 0.786847
0.684672 0.793057 0.785565
0.732418 0.815305 0.794812
0.775341 0.840452 0.807935
0.818418 0.868055 0.825406
0.865873 0.895201 0.852094
0.917082 0.920943 0.863066
0.948074 0.926894 0.864424
0.948074 0.926894 0.864424
0.620569 0.771084 0.790295
0.620569 0.771084 0.790295
0.620569 0.771084 0.790295
0.620569 0.771084 0.790295
0.620569 0.771084 0.790295
0.620569 0.771084 0.790295
0.620569 0.771084 0.790295
0.620813 0.771145 0.790295
0.648981 0.780377 0.786786
0.685313 0.793317 0.785626
0.733211 0.815717 0.795026
0.775876 0.840803 0.808133
0.819059 0.868406 0.825727
0.866453 0.895567 0.852445
0.917922 0.921096 0.86302
0.948074 0.926894 0.864424
0.948074 0.926894 0.864424
0.0200809 0.038468 0.0544747
0.0200504 0.038407 0.0543069
0.0200351 0.0383459 0.054078
0.0207675 0.038819 0.0547189
0.0351873 0.0466926 0.0652171
0.124163 0.0796521 0.104082
0.286381 0.120577 0.13225
0.44033 0.167437 0.158038
0.585321 0.211826 0.181735
0.685725 0.239414 0.194232
0.715557 0.245304 0.19675
0.715557 0.245304 0.19675
0.715557 0.245304 0.19675
0.715557 0.245304 0.19675
0.715557 0.245304 0.19675
0.715557 0.245304 0.19675
0.715557 0.245304 0.19675
0.0200504 0.0383917 0.0542458
0.0200504 0.0383764 0.0541848
0.0200198 0.0382849 0.0539101
